(Exported by FreeCAD)
(Post Processor: script_module)
(Output Time:2025-06-28 04:21:48.985725)
(begin preamble)
G17 G54 G40 G49 G80 G90
G21
(begin operation: Fixture)
(machine units: mm/min)
G54 
(finish operation: Fixture)
(begin operation: TC: Default Tool)
(machine units: mm/min)
(TC: Default Tool) 
M5
M6 T1 
G43 H1 
(finish operation: TC: Default Tool)
(begin operation: Engrave)
(machine units: mm/min)
(Engrave) 
G0 Z15.001 
G0 Z15.001 
G0 X15.406 Y16.766 
G0 Z13.001 
G1 X15.406 Y16.766 Z9.995 
G1 X16.880 Y16.766 Z9.995 
G1 X16.880 Y18.000 Z9.995 
G1 X17.286 Y18.000 Z9.995 
G1 X17.286 Y15.000 Z9.995 
G1 X16.880 Y15.000 Z9.995 
G1 X16.880 Y16.423 Z9.995 
G1 X15.406 Y16.423 Z9.995 
G1 X15.406 Y15.000 Z9.995 
G1 X15.000 Y15.000 Z9.995 
G1 X15.000 Y18.000 Z9.995 
G1 X15.406 Y18.000 Z9.995 
G1 X15.406 Y16.766 Z9.995 
G1 X15.406 Y16.766 Z9.990 
G1 X16.880 Y16.766 Z9.990 
G1 X16.880 Y18.000 Z9.990 
G1 X17.286 Y18.000 Z9.990 
G1 X17.286 Y15.000 Z9.990 
G1 X16.880 Y15.000 Z9.990 
G1 X16.880 Y16.423 Z9.990 
G1 X15.406 Y16.423 Z9.990 
G1 X15.406 Y15.000 Z9.990 
G1 X15.000 Y15.000 Z9.990 
G1 X15.000 Y18.000 Z9.990 
G1 X15.406 Y18.000 Z9.990 
G1 X15.406 Y16.766 Z9.990 
G1 X15.406 Y16.766 Z9.985 
G1 X16.880 Y16.766 Z9.985 
G1 X16.880 Y18.000 Z9.985 
G1 X17.286 Y18.000 Z9.985 
G1 X17.286 Y15.000 Z9.985 
G1 X16.880 Y15.000 Z9.985 
G1 X16.880 Y16.423 Z9.985 
G1 X15.406 Y16.423 Z9.985 
G1 X15.406 Y15.000 Z9.985 
G1 X15.000 Y15.000 Z9.985 
G1 X15.000 Y18.000 Z9.985 
G1 X15.406 Y18.000 Z9.985 
G1 X15.406 Y16.766 Z9.985 
G1 X15.406 Y16.766 Z9.980 
G1 X16.880 Y16.766 Z9.980 
G1 X16.880 Y18.000 Z9.980 
G1 X17.286 Y18.000 Z9.980 
G1 X17.286 Y15.000 Z9.980 
G1 X16.880 Y15.000 Z9.980 
G1 X16.880 Y16.423 Z9.980 
G1 X15.406 Y16.423 Z9.980 
G1 X15.406 Y15.000 Z9.980 
G1 X15.000 Y15.000 Z9.980 
G1 X15.000 Y18.000 Z9.980 
G1 X15.406 Y18.000 Z9.980 
G1 X15.406 Y16.766 Z9.980 
G1 X15.406 Y16.766 Z9.975 
G1 X16.880 Y16.766 Z9.975 
G1 X16.880 Y18.000 Z9.975 
G1 X17.286 Y18.000 Z9.975 
G1 X17.286 Y15.000 Z9.975 
G1 X16.880 Y15.000 Z9.975 
G1 X16.880 Y16.423 Z9.975 
G1 X15.406 Y16.423 Z9.975 
G1 X15.406 Y15.000 Z9.975 
G1 X15.000 Y15.000 Z9.975 
G1 X15.000 Y18.000 Z9.975 
G1 X15.406 Y18.000 Z9.975 
G1 X15.406 Y16.766 Z9.975 
G1 X15.406 Y16.766 Z9.970 
G1 X16.880 Y16.766 Z9.970 
G1 X16.880 Y18.000 Z9.970 
G1 X17.286 Y18.000 Z9.970 
G1 X17.286 Y15.000 Z9.970 
G1 X16.880 Y15.000 Z9.970 
G1 X16.880 Y16.423 Z9.970 
G1 X15.406 Y16.423 Z9.970 
G1 X15.406 Y15.000 Z9.970 
G1 X15.000 Y15.000 Z9.970 
G1 X15.000 Y18.000 Z9.970 
G1 X15.406 Y18.000 Z9.970 
G1 X15.406 Y16.766 Z9.970 
G1 X15.406 Y16.766 Z9.965 
G1 X16.880 Y16.766 Z9.965 
G1 X16.880 Y18.000 Z9.965 
G1 X17.286 Y18.000 Z9.965 
G1 X17.286 Y15.000 Z9.965 
G1 X16.880 Y15.000 Z9.965 
G1 X16.880 Y16.423 Z9.965 
G1 X15.406 Y16.423 Z9.965 
G1 X15.406 Y15.000 Z9.965 
G1 X15.000 Y15.000 Z9.965 
G1 X15.000 Y18.000 Z9.965 
G1 X15.406 Y18.000 Z9.965 
G1 X15.406 Y16.766 Z9.965 
G1 X15.406 Y16.766 Z9.960 
G1 X16.880 Y16.766 Z9.960 
G1 X16.880 Y18.000 Z9.960 
G1 X17.286 Y18.000 Z9.960 
G1 X17.286 Y15.000 Z9.960 
G1 X16.880 Y15.000 Z9.960 
G1 X16.880 Y16.423 Z9.960 
G1 X15.406 Y16.423 Z9.960 
G1 X15.406 Y15.000 Z9.960 
G1 X15.000 Y15.000 Z9.960 
G1 X15.000 Y18.000 Z9.960 
G1 X15.406 Y18.000 Z9.960 
G1 X15.406 Y16.766 Z9.960 
G1 X15.406 Y16.766 Z9.955 
G1 X16.880 Y16.766 Z9.955 
G1 X16.880 Y18.000 Z9.955 
G1 X17.286 Y18.000 Z9.955 
G1 X17.286 Y15.000 Z9.955 
G1 X16.880 Y15.000 Z9.955 
G1 X16.880 Y16.423 Z9.955 
G1 X15.406 Y16.423 Z9.955 
G1 X15.406 Y15.000 Z9.955 
G1 X15.000 Y15.000 Z9.955 
G1 X15.000 Y18.000 Z9.955 
G1 X15.406 Y18.000 Z9.955 
G1 X15.406 Y16.766 Z9.955 
G1 X15.406 Y16.766 Z9.950 
G1 X16.880 Y16.766 Z9.950 
G1 X16.880 Y18.000 Z9.950 
G1 X17.286 Y18.000 Z9.950 
G1 X17.286 Y15.000 Z9.950 
G1 X16.880 Y15.000 Z9.950 
G1 X16.880 Y16.423 Z9.950 
G1 X15.406 Y16.423 Z9.950 
G1 X15.406 Y15.000 Z9.950 
G1 X15.000 Y15.000 Z9.950 
G1 X15.000 Y18.000 Z9.950 
G1 X15.406 Y18.000 Z9.950 
G1 X15.406 Y16.766 Z9.950 
G1 X15.406 Y16.766 Z9.945 
G1 X16.880 Y16.766 Z9.945 
G1 X16.880 Y18.000 Z9.945 
G1 X17.286 Y18.000 Z9.945 
G1 X17.286 Y15.000 Z9.945 
G1 X16.880 Y15.000 Z9.945 
G1 X16.880 Y16.423 Z9.945 
G1 X15.406 Y16.423 Z9.945 
G1 X15.406 Y15.000 Z9.945 
G1 X15.000 Y15.000 Z9.945 
G1 X15.000 Y18.000 Z9.945 
G1 X15.406 Y18.000 Z9.945 
G1 X15.406 Y16.766 Z9.945 
G1 X15.406 Y16.766 Z9.940 
G1 X16.880 Y16.766 Z9.940 
G1 X16.880 Y18.000 Z9.940 
G1 X17.286 Y18.000 Z9.940 
G1 X17.286 Y15.000 Z9.940 
G1 X16.880 Y15.000 Z9.940 
G1 X16.880 Y16.423 Z9.940 
G1 X15.406 Y16.423 Z9.940 
G1 X15.406 Y15.000 Z9.940 
G1 X15.000 Y15.000 Z9.940 
G1 X15.000 Y18.000 Z9.940 
G1 X15.406 Y18.000 Z9.940 
G1 X15.406 Y16.766 Z9.940 
G1 X15.406 Y16.766 Z9.935 
G1 X16.880 Y16.766 Z9.935 
G1 X16.880 Y18.000 Z9.935 
G1 X17.286 Y18.000 Z9.935 
G1 X17.286 Y15.000 Z9.935 
G1 X16.880 Y15.000 Z9.935 
G1 X16.880 Y16.423 Z9.935 
G1 X15.406 Y16.423 Z9.935 
G1 X15.406 Y15.000 Z9.935 
G1 X15.000 Y15.000 Z9.935 
G1 X15.000 Y18.000 Z9.935 
G1 X15.406 Y18.000 Z9.935 
G1 X15.406 Y16.766 Z9.935 
G1 X15.406 Y16.766 Z9.930 
G1 X16.880 Y16.766 Z9.930 
G1 X16.880 Y18.000 Z9.930 
G1 X17.286 Y18.000 Z9.930 
G1 X17.286 Y15.000 Z9.930 
G1 X16.880 Y15.000 Z9.930 
G1 X16.880 Y16.423 Z9.930 
G1 X15.406 Y16.423 Z9.930 
G1 X15.406 Y15.000 Z9.930 
G1 X15.000 Y15.000 Z9.930 
G1 X15.000 Y18.000 Z9.930 
G1 X15.406 Y18.000 Z9.930 
G1 X15.406 Y16.766 Z9.930 
G1 X15.406 Y16.766 Z9.925 
G1 X16.880 Y16.766 Z9.925 
G1 X16.880 Y18.000 Z9.925 
G1 X17.286 Y18.000 Z9.925 
G1 X17.286 Y15.000 Z9.925 
G1 X16.880 Y15.000 Z9.925 
G1 X16.880 Y16.423 Z9.925 
G1 X15.406 Y16.423 Z9.925 
G1 X15.406 Y15.000 Z9.925 
G1 X15.000 Y15.000 Z9.925 
G1 X15.000 Y18.000 Z9.925 
G1 X15.406 Y18.000 Z9.925 
G1 X15.406 Y16.766 Z9.925 
G1 X15.406 Y16.766 Z9.920 
G1 X16.880 Y16.766 Z9.920 
G1 X16.880 Y18.000 Z9.920 
G1 X17.286 Y18.000 Z9.920 
G1 X17.286 Y15.000 Z9.920 
G1 X16.880 Y15.000 Z9.920 
G1 X16.880 Y16.423 Z9.920 
G1 X15.406 Y16.423 Z9.920 
G1 X15.406 Y15.000 Z9.920 
G1 X15.000 Y15.000 Z9.920 
G1 X15.000 Y18.000 Z9.920 
G1 X15.406 Y18.000 Z9.920 
G1 X15.406 Y16.766 Z9.920 
G1 X15.406 Y16.766 Z9.915 
G1 X16.880 Y16.766 Z9.915 
G1 X16.880 Y18.000 Z9.915 
G1 X17.286 Y18.000 Z9.915 
G1 X17.286 Y15.000 Z9.915 
G1 X16.880 Y15.000 Z9.915 
G1 X16.880 Y16.423 Z9.915 
G1 X15.406 Y16.423 Z9.915 
G1 X15.406 Y15.000 Z9.915 
G1 X15.000 Y15.000 Z9.915 
G1 X15.000 Y18.000 Z9.915 
G1 X15.406 Y18.000 Z9.915 
G1 X15.406 Y16.766 Z9.915 
G1 X15.406 Y16.766 Z9.910 
G1 X16.880 Y16.766 Z9.910 
G1 X16.880 Y18.000 Z9.910 
G1 X17.286 Y18.000 Z9.910 
G1 X17.286 Y15.000 Z9.910 
G1 X16.880 Y15.000 Z9.910 
G1 X16.880 Y16.423 Z9.910 
G1 X15.406 Y16.423 Z9.910 
G1 X15.406 Y15.000 Z9.910 
G1 X15.000 Y15.000 Z9.910 
G1 X15.000 Y18.000 Z9.910 
G1 X15.406 Y18.000 Z9.910 
G1 X15.406 Y16.766 Z9.910 
G1 X15.406 Y16.766 Z9.905 
G1 X16.880 Y16.766 Z9.905 
G1 X16.880 Y18.000 Z9.905 
G1 X17.286 Y18.000 Z9.905 
G1 X17.286 Y15.000 Z9.905 
G1 X16.880 Y15.000 Z9.905 
G1 X16.880 Y16.423 Z9.905 
G1 X15.406 Y16.423 Z9.905 
G1 X15.406 Y15.000 Z9.905 
G1 X15.000 Y15.000 Z9.905 
G1 X15.000 Y18.000 Z9.905 
G1 X15.406 Y18.000 Z9.905 
G1 X15.406 Y16.766 Z9.905 
G1 X15.406 Y16.766 Z9.900 
G1 X16.880 Y16.766 Z9.900 
G1 X16.880 Y18.000 Z9.900 
G1 X17.286 Y18.000 Z9.900 
G1 X17.286 Y15.000 Z9.900 
G1 X16.880 Y15.000 Z9.900 
G1 X16.880 Y16.423 Z9.900 
G1 X15.406 Y16.423 Z9.900 
G1 X15.406 Y15.000 Z9.900 
G1 X15.000 Y15.000 Z9.900 
G1 X15.000 Y18.000 Z9.900 
G1 X15.406 Y18.000 Z9.900 
G1 X15.406 Y16.766 Z9.900 
G0 Z15.001 
G0 Z15.001 
G0 X18.303 Y16.037 
G0 Z13.001 
G1 X18.303 Y16.037 Z9.995 
G1 X18.358 Y15.741 Z9.995 
G1 X18.533 Y15.457 Z9.995 
G1 X18.712 Y15.335 Z9.995 
G1 X18.939 Y15.269 Z9.995 
G1 X19.021 Y15.260 Z9.995 
G1 X19.107 Y15.257 Z9.995 
G1 X19.520 Y15.309 Z9.995 
G1 X19.916 Y15.463 Z9.995 
G1 X19.916 Y15.111 Z9.995 
G1 X19.509 Y14.984 Z9.995 
G1 X19.085 Y14.940 Z9.995 
G1 X18.744 Y14.976 Z9.995 
G1 X18.472 Y15.077 Z9.995 
G1 X18.345 Y15.156 Z9.995 
G1 X18.232 Y15.254 Z9.995 
G1 X18.067 Y15.470 Z9.995 
G1 X17.963 Y15.726 Z9.995 
G1 X17.929 Y15.906 Z9.995 
G1 X17.918 Y16.103 Z9.995 
G1 X17.954 Y16.461 Z9.995 
G1 X18.054 Y16.746 Z9.995 
G1 X18.127 Y16.870 Z9.995 
G1 X18.216 Y16.981 Z9.995 
G1 X18.422 Y17.152 Z9.995 
G1 X18.665 Y17.259 Z9.995 
G1 X18.835 Y17.294 Z9.995 
G1 X19.020 Y17.306 Z9.995 
G1 X19.317 Y17.269 Z9.995 
G1 X19.553 Y17.169 Z9.995 
G1 X19.650 Y17.099 Z9.995 
G1 X19.739 Y17.013 Z9.995 
G1 X19.884 Y16.799 Z9.995 
G1 X19.972 Y16.536 Z9.995 
G1 X19.995 Y16.384 Z9.995 
G1 X20.003 Y16.219 Z9.995 
G1 X20.003 Y16.037 Z9.995 
G1 X18.303 Y16.037 Z9.995 
G1 X18.303 Y16.037 Z9.990 
G1 X18.358 Y15.741 Z9.990 
G1 X18.533 Y15.457 Z9.990 
G1 X18.712 Y15.335 Z9.990 
G1 X18.939 Y15.269 Z9.990 
G1 X19.021 Y15.260 Z9.990 
G1 X19.107 Y15.257 Z9.990 
G1 X19.520 Y15.309 Z9.990 
G1 X19.916 Y15.463 Z9.990 
G1 X19.916 Y15.111 Z9.990 
G1 X19.509 Y14.984 Z9.990 
G1 X19.085 Y14.940 Z9.990 
G1 X18.744 Y14.976 Z9.990 
G1 X18.472 Y15.077 Z9.990 
G1 X18.345 Y15.156 Z9.990 
G1 X18.232 Y15.254 Z9.990 
G1 X18.067 Y15.470 Z9.990 
G1 X17.963 Y15.726 Z9.990 
G1 X17.929 Y15.906 Z9.990 
G1 X17.918 Y16.103 Z9.990 
G1 X17.954 Y16.461 Z9.990 
G1 X18.054 Y16.746 Z9.990 
G1 X18.127 Y16.870 Z9.990 
G1 X18.216 Y16.981 Z9.990 
G1 X18.422 Y17.152 Z9.990 
G1 X18.665 Y17.259 Z9.990 
G1 X18.835 Y17.294 Z9.990 
G1 X19.020 Y17.306 Z9.990 
G1 X19.317 Y17.269 Z9.990 
G1 X19.553 Y17.169 Z9.990 
G1 X19.650 Y17.099 Z9.990 
G1 X19.739 Y17.013 Z9.990 
G1 X19.884 Y16.799 Z9.990 
G1 X19.972 Y16.536 Z9.990 
G1 X19.995 Y16.384 Z9.990 
G1 X20.003 Y16.219 Z9.990 
G1 X20.003 Y16.037 Z9.990 
G1 X18.303 Y16.037 Z9.990 
G1 X18.303 Y16.037 Z9.985 
G1 X18.358 Y15.741 Z9.985 
G1 X18.533 Y15.457 Z9.985 
G1 X18.712 Y15.335 Z9.985 
G1 X18.939 Y15.269 Z9.985 
G1 X19.021 Y15.260 Z9.985 
G1 X19.107 Y15.257 Z9.985 
G1 X19.520 Y15.309 Z9.985 
G1 X19.916 Y15.463 Z9.985 
G1 X19.916 Y15.111 Z9.985 
G1 X19.509 Y14.984 Z9.985 
G1 X19.085 Y14.940 Z9.985 
G1 X18.744 Y14.976 Z9.985 
G1 X18.472 Y15.077 Z9.985 
G1 X18.345 Y15.156 Z9.985 
G1 X18.232 Y15.254 Z9.985 
G1 X18.067 Y15.470 Z9.985 
G1 X17.963 Y15.726 Z9.985 
G1 X17.929 Y15.906 Z9.985 
G1 X17.918 Y16.103 Z9.985 
G1 X17.954 Y16.461 Z9.985 
G1 X18.054 Y16.746 Z9.985 
G1 X18.127 Y16.870 Z9.985 
G1 X18.216 Y16.981 Z9.985 
G1 X18.422 Y17.152 Z9.985 
G1 X18.665 Y17.259 Z9.985 
G1 X18.835 Y17.294 Z9.985 
G1 X19.020 Y17.306 Z9.985 
G1 X19.317 Y17.269 Z9.985 
G1 X19.553 Y17.169 Z9.985 
G1 X19.650 Y17.099 Z9.985 
G1 X19.739 Y17.013 Z9.985 
G1 X19.884 Y16.799 Z9.985 
G1 X19.972 Y16.536 Z9.985 
G1 X19.995 Y16.384 Z9.985 
G1 X20.003 Y16.219 Z9.985 
G1 X20.003 Y16.037 Z9.985 
G1 X18.303 Y16.037 Z9.985 
G1 X18.303 Y16.037 Z9.980 
G1 X18.358 Y15.741 Z9.980 
G1 X18.533 Y15.457 Z9.980 
G1 X18.712 Y15.335 Z9.980 
G1 X18.939 Y15.269 Z9.980 
G1 X19.021 Y15.260 Z9.980 
G1 X19.107 Y15.257 Z9.980 
G1 X19.520 Y15.309 Z9.980 
G1 X19.916 Y15.463 Z9.980 
G1 X19.916 Y15.111 Z9.980 
G1 X19.509 Y14.984 Z9.980 
G1 X19.085 Y14.940 Z9.980 
G1 X18.744 Y14.976 Z9.980 
G1 X18.472 Y15.077 Z9.980 
G1 X18.345 Y15.156 Z9.980 
G1 X18.232 Y15.254 Z9.980 
G1 X18.067 Y15.470 Z9.980 
G1 X17.963 Y15.726 Z9.980 
G1 X17.929 Y15.906 Z9.980 
G1 X17.918 Y16.103 Z9.980 
G1 X17.954 Y16.461 Z9.980 
G1 X18.054 Y16.746 Z9.980 
G1 X18.127 Y16.870 Z9.980 
G1 X18.216 Y16.981 Z9.980 
G1 X18.422 Y17.152 Z9.980 
G1 X18.665 Y17.259 Z9.980 
G1 X18.835 Y17.294 Z9.980 
G1 X19.020 Y17.306 Z9.980 
G1 X19.317 Y17.269 Z9.980 
G1 X19.553 Y17.169 Z9.980 
G1 X19.650 Y17.099 Z9.980 
G1 X19.739 Y17.013 Z9.980 
G1 X19.884 Y16.799 Z9.980 
G1 X19.972 Y16.536 Z9.980 
G1 X19.995 Y16.384 Z9.980 
G1 X20.003 Y16.219 Z9.980 
G1 X20.003 Y16.037 Z9.980 
G1 X18.303 Y16.037 Z9.980 
G1 X18.303 Y16.037 Z9.975 
G1 X18.358 Y15.741 Z9.975 
G1 X18.533 Y15.457 Z9.975 
G1 X18.712 Y15.335 Z9.975 
G1 X18.939 Y15.269 Z9.975 
G1 X19.021 Y15.260 Z9.975 
G1 X19.107 Y15.257 Z9.975 
G1 X19.520 Y15.309 Z9.975 
G1 X19.916 Y15.463 Z9.975 
G1 X19.916 Y15.111 Z9.975 
G1 X19.509 Y14.984 Z9.975 
G1 X19.085 Y14.940 Z9.975 
G1 X18.744 Y14.976 Z9.975 
G1 X18.472 Y15.077 Z9.975 
G1 X18.345 Y15.156 Z9.975 
G1 X18.232 Y15.254 Z9.975 
G1 X18.067 Y15.470 Z9.975 
G1 X17.963 Y15.726 Z9.975 
G1 X17.929 Y15.906 Z9.975 
G1 X17.918 Y16.103 Z9.975 
G1 X17.954 Y16.461 Z9.975 
G1 X18.054 Y16.746 Z9.975 
G1 X18.127 Y16.870 Z9.975 
G1 X18.216 Y16.981 Z9.975 
G1 X18.422 Y17.152 Z9.975 
G1 X18.665 Y17.259 Z9.975 
G1 X18.835 Y17.294 Z9.975 
G1 X19.020 Y17.306 Z9.975 
G1 X19.317 Y17.269 Z9.975 
G1 X19.553 Y17.169 Z9.975 
G1 X19.650 Y17.099 Z9.975 
G1 X19.739 Y17.013 Z9.975 
G1 X19.884 Y16.799 Z9.975 
G1 X19.972 Y16.536 Z9.975 
G1 X19.995 Y16.384 Z9.975 
G1 X20.003 Y16.219 Z9.975 
G1 X20.003 Y16.037 Z9.975 
G1 X18.303 Y16.037 Z9.975 
G1 X18.303 Y16.037 Z9.970 
G1 X18.358 Y15.741 Z9.970 
G1 X18.533 Y15.457 Z9.970 
G1 X18.712 Y15.335 Z9.970 
G1 X18.939 Y15.269 Z9.970 
G1 X19.021 Y15.260 Z9.970 
G1 X19.107 Y15.257 Z9.970 
G1 X19.520 Y15.309 Z9.970 
G1 X19.916 Y15.463 Z9.970 
G1 X19.916 Y15.111 Z9.970 
G1 X19.509 Y14.984 Z9.970 
G1 X19.085 Y14.940 Z9.970 
G1 X18.744 Y14.976 Z9.970 
G1 X18.472 Y15.077 Z9.970 
G1 X18.345 Y15.156 Z9.970 
G1 X18.232 Y15.254 Z9.970 
G1 X18.067 Y15.470 Z9.970 
G1 X17.963 Y15.726 Z9.970 
G1 X17.929 Y15.906 Z9.970 
G1 X17.918 Y16.103 Z9.970 
G1 X17.954 Y16.461 Z9.970 
G1 X18.054 Y16.746 Z9.970 
G1 X18.127 Y16.870 Z9.970 
G1 X18.216 Y16.981 Z9.970 
G1 X18.422 Y17.152 Z9.970 
G1 X18.665 Y17.259 Z9.970 
G1 X18.835 Y17.294 Z9.970 
G1 X19.020 Y17.306 Z9.970 
G1 X19.317 Y17.269 Z9.970 
G1 X19.553 Y17.169 Z9.970 
G1 X19.650 Y17.099 Z9.970 
G1 X19.739 Y17.013 Z9.970 
G1 X19.884 Y16.799 Z9.970 
G1 X19.972 Y16.536 Z9.970 
G1 X19.995 Y16.384 Z9.970 
G1 X20.003 Y16.219 Z9.970 
G1 X20.003 Y16.037 Z9.970 
G1 X18.303 Y16.037 Z9.970 
G1 X18.303 Y16.037 Z9.965 
G1 X18.358 Y15.741 Z9.965 
G1 X18.533 Y15.457 Z9.965 
G1 X18.712 Y15.335 Z9.965 
G1 X18.939 Y15.269 Z9.965 
G1 X19.021 Y15.260 Z9.965 
G1 X19.107 Y15.257 Z9.965 
G1 X19.520 Y15.309 Z9.965 
G1 X19.916 Y15.463 Z9.965 
G1 X19.916 Y15.111 Z9.965 
G1 X19.509 Y14.984 Z9.965 
G1 X19.085 Y14.940 Z9.965 
G1 X18.744 Y14.976 Z9.965 
G1 X18.472 Y15.077 Z9.965 
G1 X18.345 Y15.156 Z9.965 
G1 X18.232 Y15.254 Z9.965 
G1 X18.067 Y15.470 Z9.965 
G1 X17.963 Y15.726 Z9.965 
G1 X17.929 Y15.906 Z9.965 
G1 X17.918 Y16.103 Z9.965 
G1 X17.954 Y16.461 Z9.965 
G1 X18.054 Y16.746 Z9.965 
G1 X18.127 Y16.870 Z9.965 
G1 X18.216 Y16.981 Z9.965 
G1 X18.422 Y17.152 Z9.965 
G1 X18.665 Y17.259 Z9.965 
G1 X18.835 Y17.294 Z9.965 
G1 X19.020 Y17.306 Z9.965 
G1 X19.317 Y17.269 Z9.965 
G1 X19.553 Y17.169 Z9.965 
G1 X19.650 Y17.099 Z9.965 
G1 X19.739 Y17.013 Z9.965 
G1 X19.884 Y16.799 Z9.965 
G1 X19.972 Y16.536 Z9.965 
G1 X19.995 Y16.384 Z9.965 
G1 X20.003 Y16.219 Z9.965 
G1 X20.003 Y16.037 Z9.965 
G1 X18.303 Y16.037 Z9.965 
G1 X18.303 Y16.037 Z9.960 
G1 X18.358 Y15.741 Z9.960 
G1 X18.533 Y15.457 Z9.960 
G1 X18.712 Y15.335 Z9.960 
G1 X18.939 Y15.269 Z9.960 
G1 X19.021 Y15.260 Z9.960 
G1 X19.107 Y15.257 Z9.960 
G1 X19.520 Y15.309 Z9.960 
G1 X19.916 Y15.463 Z9.960 
G1 X19.916 Y15.111 Z9.960 
G1 X19.509 Y14.984 Z9.960 
G1 X19.085 Y14.940 Z9.960 
G1 X18.744 Y14.976 Z9.960 
G1 X18.472 Y15.077 Z9.960 
G1 X18.345 Y15.156 Z9.960 
G1 X18.232 Y15.254 Z9.960 
G1 X18.067 Y15.470 Z9.960 
G1 X17.963 Y15.726 Z9.960 
G1 X17.929 Y15.906 Z9.960 
G1 X17.918 Y16.103 Z9.960 
G1 X17.954 Y16.461 Z9.960 
G1 X18.054 Y16.746 Z9.960 
G1 X18.127 Y16.870 Z9.960 
G1 X18.216 Y16.981 Z9.960 
G1 X18.422 Y17.152 Z9.960 
G1 X18.665 Y17.259 Z9.960 
G1 X18.835 Y17.294 Z9.960 
G1 X19.020 Y17.306 Z9.960 
G1 X19.317 Y17.269 Z9.960 
G1 X19.553 Y17.169 Z9.960 
G1 X19.650 Y17.099 Z9.960 
G1 X19.739 Y17.013 Z9.960 
G1 X19.884 Y16.799 Z9.960 
G1 X19.972 Y16.536 Z9.960 
G1 X19.995 Y16.384 Z9.960 
G1 X20.003 Y16.219 Z9.960 
G1 X20.003 Y16.037 Z9.960 
G1 X18.303 Y16.037 Z9.960 
G1 X18.303 Y16.037 Z9.955 
G1 X18.358 Y15.741 Z9.955 
G1 X18.533 Y15.457 Z9.955 
G1 X18.712 Y15.335 Z9.955 
G1 X18.939 Y15.269 Z9.955 
G1 X19.021 Y15.260 Z9.955 
G1 X19.107 Y15.257 Z9.955 
G1 X19.520 Y15.309 Z9.955 
G1 X19.916 Y15.463 Z9.955 
G1 X19.916 Y15.111 Z9.955 
G1 X19.509 Y14.984 Z9.955 
G1 X19.085 Y14.940 Z9.955 
G1 X18.744 Y14.976 Z9.955 
G1 X18.472 Y15.077 Z9.955 
G1 X18.345 Y15.156 Z9.955 
G1 X18.232 Y15.254 Z9.955 
G1 X18.067 Y15.470 Z9.955 
G1 X17.963 Y15.726 Z9.955 
G1 X17.929 Y15.906 Z9.955 
G1 X17.918 Y16.103 Z9.955 
G1 X17.954 Y16.461 Z9.955 
G1 X18.054 Y16.746 Z9.955 
G1 X18.127 Y16.870 Z9.955 
G1 X18.216 Y16.981 Z9.955 
G1 X18.422 Y17.152 Z9.955 
G1 X18.665 Y17.259 Z9.955 
G1 X18.835 Y17.294 Z9.955 
G1 X19.020 Y17.306 Z9.955 
G1 X19.317 Y17.269 Z9.955 
G1 X19.553 Y17.169 Z9.955 
G1 X19.650 Y17.099 Z9.955 
G1 X19.739 Y17.013 Z9.955 
G1 X19.884 Y16.799 Z9.955 
G1 X19.972 Y16.536 Z9.955 
G1 X19.995 Y16.384 Z9.955 
G1 X20.003 Y16.219 Z9.955 
G1 X20.003 Y16.037 Z9.955 
G1 X18.303 Y16.037 Z9.955 
G1 X18.303 Y16.037 Z9.950 
G1 X18.358 Y15.741 Z9.950 
G1 X18.533 Y15.457 Z9.950 
G1 X18.712 Y15.335 Z9.950 
G1 X18.939 Y15.269 Z9.950 
G1 X19.021 Y15.260 Z9.950 
G1 X19.107 Y15.257 Z9.950 
G1 X19.520 Y15.309 Z9.950 
G1 X19.916 Y15.463 Z9.950 
G1 X19.916 Y15.111 Z9.950 
G1 X19.509 Y14.984 Z9.950 
G1 X19.085 Y14.940 Z9.950 
G1 X18.744 Y14.976 Z9.950 
G1 X18.472 Y15.077 Z9.950 
G1 X18.345 Y15.156 Z9.950 
G1 X18.232 Y15.254 Z9.950 
G1 X18.067 Y15.470 Z9.950 
G1 X17.963 Y15.726 Z9.950 
G1 X17.929 Y15.906 Z9.950 
G1 X17.918 Y16.103 Z9.950 
G1 X17.954 Y16.461 Z9.950 
G1 X18.054 Y16.746 Z9.950 
G1 X18.127 Y16.870 Z9.950 
G1 X18.216 Y16.981 Z9.950 
G1 X18.422 Y17.152 Z9.950 
G1 X18.665 Y17.259 Z9.950 
G1 X18.835 Y17.294 Z9.950 
G1 X19.020 Y17.306 Z9.950 
G1 X19.317 Y17.269 Z9.950 
G1 X19.553 Y17.169 Z9.950 
G1 X19.650 Y17.099 Z9.950 
G1 X19.739 Y17.013 Z9.950 
G1 X19.884 Y16.799 Z9.950 
G1 X19.972 Y16.536 Z9.950 
G1 X19.995 Y16.384 Z9.950 
G1 X20.003 Y16.219 Z9.950 
G1 X20.003 Y16.037 Z9.950 
G1 X18.303 Y16.037 Z9.950 
G1 X18.303 Y16.037 Z9.945 
G1 X18.358 Y15.741 Z9.945 
G1 X18.533 Y15.457 Z9.945 
G1 X18.712 Y15.335 Z9.945 
G1 X18.939 Y15.269 Z9.945 
G1 X19.021 Y15.260 Z9.945 
G1 X19.107 Y15.257 Z9.945 
G1 X19.520 Y15.309 Z9.945 
G1 X19.916 Y15.463 Z9.945 
G1 X19.916 Y15.111 Z9.945 
G1 X19.509 Y14.984 Z9.945 
G1 X19.085 Y14.940 Z9.945 
G1 X18.744 Y14.976 Z9.945 
G1 X18.472 Y15.077 Z9.945 
G1 X18.345 Y15.156 Z9.945 
G1 X18.232 Y15.254 Z9.945 
G1 X18.067 Y15.470 Z9.945 
G1 X17.963 Y15.726 Z9.945 
G1 X17.929 Y15.906 Z9.945 
G1 X17.918 Y16.103 Z9.945 
G1 X17.954 Y16.461 Z9.945 
G1 X18.054 Y16.746 Z9.945 
G1 X18.127 Y16.870 Z9.945 
G1 X18.216 Y16.981 Z9.945 
G1 X18.422 Y17.152 Z9.945 
G1 X18.665 Y17.259 Z9.945 
G1 X18.835 Y17.294 Z9.945 
G1 X19.020 Y17.306 Z9.945 
G1 X19.317 Y17.269 Z9.945 
G1 X19.553 Y17.169 Z9.945 
G1 X19.650 Y17.099 Z9.945 
G1 X19.739 Y17.013 Z9.945 
G1 X19.884 Y16.799 Z9.945 
G1 X19.972 Y16.536 Z9.945 
G1 X19.995 Y16.384 Z9.945 
G1 X20.003 Y16.219 Z9.945 
G1 X20.003 Y16.037 Z9.945 
G1 X18.303 Y16.037 Z9.945 
G1 X18.303 Y16.037 Z9.940 
G1 X18.358 Y15.741 Z9.940 
G1 X18.533 Y15.457 Z9.940 
G1 X18.712 Y15.335 Z9.940 
G1 X18.939 Y15.269 Z9.940 
G1 X19.021 Y15.260 Z9.940 
G1 X19.107 Y15.257 Z9.940 
G1 X19.520 Y15.309 Z9.940 
G1 X19.916 Y15.463 Z9.940 
G1 X19.916 Y15.111 Z9.940 
G1 X19.509 Y14.984 Z9.940 
G1 X19.085 Y14.940 Z9.940 
G1 X18.744 Y14.976 Z9.940 
G1 X18.472 Y15.077 Z9.940 
G1 X18.345 Y15.156 Z9.940 
G1 X18.232 Y15.254 Z9.940 
G1 X18.067 Y15.470 Z9.940 
G1 X17.963 Y15.726 Z9.940 
G1 X17.929 Y15.906 Z9.940 
G1 X17.918 Y16.103 Z9.940 
G1 X17.954 Y16.461 Z9.940 
G1 X18.054 Y16.746 Z9.940 
G1 X18.127 Y16.870 Z9.940 
G1 X18.216 Y16.981 Z9.940 
G1 X18.422 Y17.152 Z9.940 
G1 X18.665 Y17.259 Z9.940 
G1 X18.835 Y17.294 Z9.940 
G1 X19.020 Y17.306 Z9.940 
G1 X19.317 Y17.269 Z9.940 
G1 X19.553 Y17.169 Z9.940 
G1 X19.650 Y17.099 Z9.940 
G1 X19.739 Y17.013 Z9.940 
G1 X19.884 Y16.799 Z9.940 
G1 X19.972 Y16.536 Z9.940 
G1 X19.995 Y16.384 Z9.940 
G1 X20.003 Y16.219 Z9.940 
G1 X20.003 Y16.037 Z9.940 
G1 X18.303 Y16.037 Z9.940 
G1 X18.303 Y16.037 Z9.935 
G1 X18.358 Y15.741 Z9.935 
G1 X18.533 Y15.457 Z9.935 
G1 X18.712 Y15.335 Z9.935 
G1 X18.939 Y15.269 Z9.935 
G1 X19.021 Y15.260 Z9.935 
G1 X19.107 Y15.257 Z9.935 
G1 X19.520 Y15.309 Z9.935 
G1 X19.916 Y15.463 Z9.935 
G1 X19.916 Y15.111 Z9.935 
G1 X19.509 Y14.984 Z9.935 
G1 X19.085 Y14.940 Z9.935 
G1 X18.744 Y14.976 Z9.935 
G1 X18.472 Y15.077 Z9.935 
G1 X18.345 Y15.156 Z9.935 
G1 X18.232 Y15.254 Z9.935 
G1 X18.067 Y15.470 Z9.935 
G1 X17.963 Y15.726 Z9.935 
G1 X17.929 Y15.906 Z9.935 
G1 X17.918 Y16.103 Z9.935 
G1 X17.954 Y16.461 Z9.935 
G1 X18.054 Y16.746 Z9.935 
G1 X18.127 Y16.870 Z9.935 
G1 X18.216 Y16.981 Z9.935 
G1 X18.422 Y17.152 Z9.935 
G1 X18.665 Y17.259 Z9.935 
G1 X18.835 Y17.294 Z9.935 
G1 X19.020 Y17.306 Z9.935 
G1 X19.317 Y17.269 Z9.935 
G1 X19.553 Y17.169 Z9.935 
G1 X19.650 Y17.099 Z9.935 
G1 X19.739 Y17.013 Z9.935 
G1 X19.884 Y16.799 Z9.935 
G1 X19.972 Y16.536 Z9.935 
G1 X19.995 Y16.384 Z9.935 
G1 X20.003 Y16.219 Z9.935 
G1 X20.003 Y16.037 Z9.935 
G1 X18.303 Y16.037 Z9.935 
G1 X18.303 Y16.037 Z9.930 
G1 X18.358 Y15.741 Z9.930 
G1 X18.533 Y15.457 Z9.930 
G1 X18.712 Y15.335 Z9.930 
G1 X18.939 Y15.269 Z9.930 
G1 X19.021 Y15.260 Z9.930 
G1 X19.107 Y15.257 Z9.930 
G1 X19.520 Y15.309 Z9.930 
G1 X19.916 Y15.463 Z9.930 
G1 X19.916 Y15.111 Z9.930 
G1 X19.509 Y14.984 Z9.930 
G1 X19.085 Y14.940 Z9.930 
G1 X18.744 Y14.976 Z9.930 
G1 X18.472 Y15.077 Z9.930 
G1 X18.345 Y15.156 Z9.930 
G1 X18.232 Y15.254 Z9.930 
G1 X18.067 Y15.470 Z9.930 
G1 X17.963 Y15.726 Z9.930 
G1 X17.929 Y15.906 Z9.930 
G1 X17.918 Y16.103 Z9.930 
G1 X17.954 Y16.461 Z9.930 
G1 X18.054 Y16.746 Z9.930 
G1 X18.127 Y16.870 Z9.930 
G1 X18.216 Y16.981 Z9.930 
G1 X18.422 Y17.152 Z9.930 
G1 X18.665 Y17.259 Z9.930 
G1 X18.835 Y17.294 Z9.930 
G1 X19.020 Y17.306 Z9.930 
G1 X19.317 Y17.269 Z9.930 
G1 X19.553 Y17.169 Z9.930 
G1 X19.650 Y17.099 Z9.930 
G1 X19.739 Y17.013 Z9.930 
G1 X19.884 Y16.799 Z9.930 
G1 X19.972 Y16.536 Z9.930 
G1 X19.995 Y16.384 Z9.930 
G1 X20.003 Y16.219 Z9.930 
G1 X20.003 Y16.037 Z9.930 
G1 X18.303 Y16.037 Z9.930 
G1 X18.303 Y16.037 Z9.925 
G1 X18.358 Y15.741 Z9.925 
G1 X18.533 Y15.457 Z9.925 
G1 X18.712 Y15.335 Z9.925 
G1 X18.939 Y15.269 Z9.925 
G1 X19.021 Y15.260 Z9.925 
G1 X19.107 Y15.257 Z9.925 
G1 X19.520 Y15.309 Z9.925 
G1 X19.916 Y15.463 Z9.925 
G1 X19.916 Y15.111 Z9.925 
G1 X19.509 Y14.984 Z9.925 
G1 X19.085 Y14.940 Z9.925 
G1 X18.744 Y14.976 Z9.925 
G1 X18.472 Y15.077 Z9.925 
G1 X18.345 Y15.156 Z9.925 
G1 X18.232 Y15.254 Z9.925 
G1 X18.067 Y15.470 Z9.925 
G1 X17.963 Y15.726 Z9.925 
G1 X17.929 Y15.906 Z9.925 
G1 X17.918 Y16.103 Z9.925 
G1 X17.954 Y16.461 Z9.925 
G1 X18.054 Y16.746 Z9.925 
G1 X18.127 Y16.870 Z9.925 
G1 X18.216 Y16.981 Z9.925 
G1 X18.422 Y17.152 Z9.925 
G1 X18.665 Y17.259 Z9.925 
G1 X18.835 Y17.294 Z9.925 
G1 X19.020 Y17.306 Z9.925 
G1 X19.317 Y17.269 Z9.925 
G1 X19.553 Y17.169 Z9.925 
G1 X19.650 Y17.099 Z9.925 
G1 X19.739 Y17.013 Z9.925 
G1 X19.884 Y16.799 Z9.925 
G1 X19.972 Y16.536 Z9.925 
G1 X19.995 Y16.384 Z9.925 
G1 X20.003 Y16.219 Z9.925 
G1 X20.003 Y16.037 Z9.925 
G1 X18.303 Y16.037 Z9.925 
G1 X18.303 Y16.037 Z9.920 
G1 X18.358 Y15.741 Z9.920 
G1 X18.533 Y15.457 Z9.920 
G1 X18.712 Y15.335 Z9.920 
G1 X18.939 Y15.269 Z9.920 
G1 X19.021 Y15.260 Z9.920 
G1 X19.107 Y15.257 Z9.920 
G1 X19.520 Y15.309 Z9.920 
G1 X19.916 Y15.463 Z9.920 
G1 X19.916 Y15.111 Z9.920 
G1 X19.509 Y14.984 Z9.920 
G1 X19.085 Y14.940 Z9.920 
G1 X18.744 Y14.976 Z9.920 
G1 X18.472 Y15.077 Z9.920 
G1 X18.345 Y15.156 Z9.920 
G1 X18.232 Y15.254 Z9.920 
G1 X18.067 Y15.470 Z9.920 
G1 X17.963 Y15.726 Z9.920 
G1 X17.929 Y15.906 Z9.920 
G1 X17.918 Y16.103 Z9.920 
G1 X17.954 Y16.461 Z9.920 
G1 X18.054 Y16.746 Z9.920 
G1 X18.127 Y16.870 Z9.920 
G1 X18.216 Y16.981 Z9.920 
G1 X18.422 Y17.152 Z9.920 
G1 X18.665 Y17.259 Z9.920 
G1 X18.835 Y17.294 Z9.920 
G1 X19.020 Y17.306 Z9.920 
G1 X19.317 Y17.269 Z9.920 
G1 X19.553 Y17.169 Z9.920 
G1 X19.650 Y17.099 Z9.920 
G1 X19.739 Y17.013 Z9.920 
G1 X19.884 Y16.799 Z9.920 
G1 X19.972 Y16.536 Z9.920 
G1 X19.995 Y16.384 Z9.920 
G1 X20.003 Y16.219 Z9.920 
G1 X20.003 Y16.037 Z9.920 
G1 X18.303 Y16.037 Z9.920 
G1 X18.303 Y16.037 Z9.915 
G1 X18.358 Y15.741 Z9.915 
G1 X18.533 Y15.457 Z9.915 
G1 X18.712 Y15.335 Z9.915 
G1 X18.939 Y15.269 Z9.915 
G1 X19.021 Y15.260 Z9.915 
G1 X19.107 Y15.257 Z9.915 
G1 X19.520 Y15.309 Z9.915 
G1 X19.916 Y15.463 Z9.915 
G1 X19.916 Y15.111 Z9.915 
G1 X19.509 Y14.984 Z9.915 
G1 X19.085 Y14.940 Z9.915 
G1 X18.744 Y14.976 Z9.915 
G1 X18.472 Y15.077 Z9.915 
G1 X18.345 Y15.156 Z9.915 
G1 X18.232 Y15.254 Z9.915 
G1 X18.067 Y15.470 Z9.915 
G1 X17.963 Y15.726 Z9.915 
G1 X17.929 Y15.906 Z9.915 
G1 X17.918 Y16.103 Z9.915 
G1 X17.954 Y16.461 Z9.915 
G1 X18.054 Y16.746 Z9.915 
G1 X18.127 Y16.870 Z9.915 
G1 X18.216 Y16.981 Z9.915 
G1 X18.422 Y17.152 Z9.915 
G1 X18.665 Y17.259 Z9.915 
G1 X18.835 Y17.294 Z9.915 
G1 X19.020 Y17.306 Z9.915 
G1 X19.317 Y17.269 Z9.915 
G1 X19.553 Y17.169 Z9.915 
G1 X19.650 Y17.099 Z9.915 
G1 X19.739 Y17.013 Z9.915 
G1 X19.884 Y16.799 Z9.915 
G1 X19.972 Y16.536 Z9.915 
G1 X19.995 Y16.384 Z9.915 
G1 X20.003 Y16.219 Z9.915 
G1 X20.003 Y16.037 Z9.915 
G1 X18.303 Y16.037 Z9.915 
G1 X18.303 Y16.037 Z9.910 
G1 X18.358 Y15.741 Z9.910 
G1 X18.533 Y15.457 Z9.910 
G1 X18.712 Y15.335 Z9.910 
G1 X18.939 Y15.269 Z9.910 
G1 X19.021 Y15.260 Z9.910 
G1 X19.107 Y15.257 Z9.910 
G1 X19.520 Y15.309 Z9.910 
G1 X19.916 Y15.463 Z9.910 
G1 X19.916 Y15.111 Z9.910 
G1 X19.509 Y14.984 Z9.910 
G1 X19.085 Y14.940 Z9.910 
G1 X18.744 Y14.976 Z9.910 
G1 X18.472 Y15.077 Z9.910 
G1 X18.345 Y15.156 Z9.910 
G1 X18.232 Y15.254 Z9.910 
G1 X18.067 Y15.470 Z9.910 
G1 X17.963 Y15.726 Z9.910 
G1 X17.929 Y15.906 Z9.910 
G1 X17.918 Y16.103 Z9.910 
G1 X17.954 Y16.461 Z9.910 
G1 X18.054 Y16.746 Z9.910 
G1 X18.127 Y16.870 Z9.910 
G1 X18.216 Y16.981 Z9.910 
G1 X18.422 Y17.152 Z9.910 
G1 X18.665 Y17.259 Z9.910 
G1 X18.835 Y17.294 Z9.910 
G1 X19.020 Y17.306 Z9.910 
G1 X19.317 Y17.269 Z9.910 
G1 X19.553 Y17.169 Z9.910 
G1 X19.650 Y17.099 Z9.910 
G1 X19.739 Y17.013 Z9.910 
G1 X19.884 Y16.799 Z9.910 
G1 X19.972 Y16.536 Z9.910 
G1 X19.995 Y16.384 Z9.910 
G1 X20.003 Y16.219 Z9.910 
G1 X20.003 Y16.037 Z9.910 
G1 X18.303 Y16.037 Z9.910 
G1 X18.303 Y16.037 Z9.905 
G1 X18.358 Y15.741 Z9.905 
G1 X18.533 Y15.457 Z9.905 
G1 X18.712 Y15.335 Z9.905 
G1 X18.939 Y15.269 Z9.905 
G1 X19.021 Y15.260 Z9.905 
G1 X19.107 Y15.257 Z9.905 
G1 X19.520 Y15.309 Z9.905 
G1 X19.916 Y15.463 Z9.905 
G1 X19.916 Y15.111 Z9.905 
G1 X19.509 Y14.984 Z9.905 
G1 X19.085 Y14.940 Z9.905 
G1 X18.744 Y14.976 Z9.905 
G1 X18.472 Y15.077 Z9.905 
G1 X18.345 Y15.156 Z9.905 
G1 X18.232 Y15.254 Z9.905 
G1 X18.067 Y15.470 Z9.905 
G1 X17.963 Y15.726 Z9.905 
G1 X17.929 Y15.906 Z9.905 
G1 X17.918 Y16.103 Z9.905 
G1 X17.954 Y16.461 Z9.905 
G1 X18.054 Y16.746 Z9.905 
G1 X18.127 Y16.870 Z9.905 
G1 X18.216 Y16.981 Z9.905 
G1 X18.422 Y17.152 Z9.905 
G1 X18.665 Y17.259 Z9.905 
G1 X18.835 Y17.294 Z9.905 
G1 X19.020 Y17.306 Z9.905 
G1 X19.317 Y17.269 Z9.905 
G1 X19.553 Y17.169 Z9.905 
G1 X19.650 Y17.099 Z9.905 
G1 X19.739 Y17.013 Z9.905 
G1 X19.884 Y16.799 Z9.905 
G1 X19.972 Y16.536 Z9.905 
G1 X19.995 Y16.384 Z9.905 
G1 X20.003 Y16.219 Z9.905 
G1 X20.003 Y16.037 Z9.905 
G1 X18.303 Y16.037 Z9.905 
G1 X18.303 Y16.037 Z9.900 
G1 X18.358 Y15.741 Z9.900 
G1 X18.533 Y15.457 Z9.900 
G1 X18.712 Y15.335 Z9.900 
G1 X18.939 Y15.269 Z9.900 
G1 X19.021 Y15.260 Z9.900 
G1 X19.107 Y15.257 Z9.900 
G1 X19.520 Y15.309 Z9.900 
G1 X19.916 Y15.463 Z9.900 
G1 X19.916 Y15.111 Z9.900 
G1 X19.509 Y14.984 Z9.900 
G1 X19.085 Y14.940 Z9.900 
G1 X18.744 Y14.976 Z9.900 
G1 X18.472 Y15.077 Z9.900 
G1 X18.345 Y15.156 Z9.900 
G1 X18.232 Y15.254 Z9.900 
G1 X18.067 Y15.470 Z9.900 
G1 X17.963 Y15.726 Z9.900 
G1 X17.929 Y15.906 Z9.900 
G1 X17.918 Y16.103 Z9.900 
G1 X17.954 Y16.461 Z9.900 
G1 X18.054 Y16.746 Z9.900 
G1 X18.127 Y16.870 Z9.900 
G1 X18.216 Y16.981 Z9.900 
G1 X18.422 Y17.152 Z9.900 
G1 X18.665 Y17.259 Z9.900 
G1 X18.835 Y17.294 Z9.900 
G1 X19.020 Y17.306 Z9.900 
G1 X19.317 Y17.269 Z9.900 
G1 X19.553 Y17.169 Z9.900 
G1 X19.650 Y17.099 Z9.900 
G1 X19.739 Y17.013 Z9.900 
G1 X19.884 Y16.799 Z9.900 
G1 X19.972 Y16.536 Z9.900 
G1 X19.995 Y16.384 Z9.900 
G1 X20.003 Y16.219 Z9.900 
G1 X20.003 Y16.037 Z9.900 
G1 X18.303 Y16.037 Z9.900 
G0 Z15.001 
G0 Z15.001 
G0 X19.024 Y16.989 
G0 Z13.001 
G1 X19.024 Y16.989 Z9.995 
G1 X18.767 Y16.952 Z9.995 
G1 X18.529 Y16.815 Z9.995 
G1 X18.402 Y16.647 Z9.995 
G1 X18.315 Y16.327 Z9.995 
G1 X19.633 Y16.329 Z9.995 
G1 X19.593 Y16.586 Z9.995 
G1 X19.463 Y16.809 Z9.995 
G1 X19.303 Y16.929 Z9.995 
G1 X19.024 Y16.989 Z9.995 
G1 X19.024 Y16.989 Z9.990 
G1 X18.767 Y16.952 Z9.990 
G1 X18.529 Y16.815 Z9.990 
G1 X18.402 Y16.647 Z9.990 
G1 X18.315 Y16.327 Z9.990 
G1 X19.633 Y16.329 Z9.990 
G1 X19.593 Y16.586 Z9.990 
G1 X19.463 Y16.809 Z9.990 
G1 X19.303 Y16.929 Z9.990 
G1 X19.024 Y16.989 Z9.990 
G1 X19.024 Y16.989 Z9.985 
G1 X18.767 Y16.952 Z9.985 
G1 X18.529 Y16.815 Z9.985 
G1 X18.402 Y16.647 Z9.985 
G1 X18.315 Y16.327 Z9.985 
G1 X19.633 Y16.329 Z9.985 
G1 X19.593 Y16.586 Z9.985 
G1 X19.463 Y16.809 Z9.985 
G1 X19.303 Y16.929 Z9.985 
G1 X19.024 Y16.989 Z9.985 
G1 X19.024 Y16.989 Z9.980 
G1 X18.767 Y16.952 Z9.980 
G1 X18.529 Y16.815 Z9.980 
G1 X18.402 Y16.647 Z9.980 
G1 X18.315 Y16.327 Z9.980 
G1 X19.633 Y16.329 Z9.980 
G1 X19.593 Y16.586 Z9.980 
G1 X19.463 Y16.809 Z9.980 
G1 X19.303 Y16.929 Z9.980 
G1 X19.024 Y16.989 Z9.980 
G1 X19.024 Y16.989 Z9.975 
G1 X18.767 Y16.952 Z9.975 
G1 X18.529 Y16.815 Z9.975 
G1 X18.402 Y16.647 Z9.975 
G1 X18.315 Y16.327 Z9.975 
G1 X19.633 Y16.329 Z9.975 
G1 X19.593 Y16.586 Z9.975 
G1 X19.463 Y16.809 Z9.975 
G1 X19.303 Y16.929 Z9.975 
G1 X19.024 Y16.989 Z9.975 
G1 X19.024 Y16.989 Z9.970 
G1 X18.767 Y16.952 Z9.970 
G1 X18.529 Y16.815 Z9.970 
G1 X18.402 Y16.647 Z9.970 
G1 X18.315 Y16.327 Z9.970 
G1 X19.633 Y16.329 Z9.970 
G1 X19.593 Y16.586 Z9.970 
G1 X19.463 Y16.809 Z9.970 
G1 X19.303 Y16.929 Z9.970 
G1 X19.024 Y16.989 Z9.970 
G1 X19.024 Y16.989 Z9.965 
G1 X18.767 Y16.952 Z9.965 
G1 X18.529 Y16.815 Z9.965 
G1 X18.402 Y16.647 Z9.965 
G1 X18.315 Y16.327 Z9.965 
G1 X19.633 Y16.329 Z9.965 
G1 X19.593 Y16.586 Z9.965 
G1 X19.463 Y16.809 Z9.965 
G1 X19.303 Y16.929 Z9.965 
G1 X19.024 Y16.989 Z9.965 
G1 X19.024 Y16.989 Z9.960 
G1 X18.767 Y16.952 Z9.960 
G1 X18.529 Y16.815 Z9.960 
G1 X18.402 Y16.647 Z9.960 
G1 X18.315 Y16.327 Z9.960 
G1 X19.633 Y16.329 Z9.960 
G1 X19.593 Y16.586 Z9.960 
G1 X19.463 Y16.809 Z9.960 
G1 X19.303 Y16.929 Z9.960 
G1 X19.024 Y16.989 Z9.960 
G1 X19.024 Y16.989 Z9.955 
G1 X18.767 Y16.952 Z9.955 
G1 X18.529 Y16.815 Z9.955 
G1 X18.402 Y16.647 Z9.955 
G1 X18.315 Y16.327 Z9.955 
G1 X19.633 Y16.329 Z9.955 
G1 X19.593 Y16.586 Z9.955 
G1 X19.463 Y16.809 Z9.955 
G1 X19.303 Y16.929 Z9.955 
G1 X19.024 Y16.989 Z9.955 
G1 X19.024 Y16.989 Z9.950 
G1 X18.767 Y16.952 Z9.950 
G1 X18.529 Y16.815 Z9.950 
G1 X18.402 Y16.647 Z9.950 
G1 X18.315 Y16.327 Z9.950 
G1 X19.633 Y16.329 Z9.950 
G1 X19.593 Y16.586 Z9.950 
G1 X19.463 Y16.809 Z9.950 
G1 X19.303 Y16.929 Z9.950 
G1 X19.024 Y16.989 Z9.950 
G1 X19.024 Y16.989 Z9.945 
G1 X18.767 Y16.952 Z9.945 
G1 X18.529 Y16.815 Z9.945 
G1 X18.402 Y16.647 Z9.945 
G1 X18.315 Y16.327 Z9.945 
G1 X19.633 Y16.329 Z9.945 
G1 X19.593 Y16.586 Z9.945 
G1 X19.463 Y16.809 Z9.945 
G1 X19.303 Y16.929 Z9.945 
G1 X19.024 Y16.989 Z9.945 
G1 X19.024 Y16.989 Z9.940 
G1 X18.767 Y16.952 Z9.940 
G1 X18.529 Y16.815 Z9.940 
G1 X18.402 Y16.647 Z9.940 
G1 X18.315 Y16.327 Z9.940 
G1 X19.633 Y16.329 Z9.940 
G1 X19.593 Y16.586 Z9.940 
G1 X19.463 Y16.809 Z9.940 
G1 X19.303 Y16.929 Z9.940 
G1 X19.024 Y16.989 Z9.940 
G1 X19.024 Y16.989 Z9.935 
G1 X18.767 Y16.952 Z9.935 
G1 X18.529 Y16.815 Z9.935 
G1 X18.402 Y16.647 Z9.935 
G1 X18.315 Y16.327 Z9.935 
G1 X19.633 Y16.329 Z9.935 
G1 X19.593 Y16.586 Z9.935 
G1 X19.463 Y16.809 Z9.935 
G1 X19.303 Y16.929 Z9.935 
G1 X19.024 Y16.989 Z9.935 
G1 X19.024 Y16.989 Z9.930 
G1 X18.767 Y16.952 Z9.930 
G1 X18.529 Y16.815 Z9.930 
G1 X18.402 Y16.647 Z9.930 
G1 X18.315 Y16.327 Z9.930 
G1 X19.633 Y16.329 Z9.930 
G1 X19.593 Y16.586 Z9.930 
G1 X19.463 Y16.809 Z9.930 
G1 X19.303 Y16.929 Z9.930 
G1 X19.024 Y16.989 Z9.930 
G1 X19.024 Y16.989 Z9.925 
G1 X18.767 Y16.952 Z9.925 
G1 X18.529 Y16.815 Z9.925 
G1 X18.402 Y16.647 Z9.925 
G1 X18.315 Y16.327 Z9.925 
G1 X19.633 Y16.329 Z9.925 
G1 X19.593 Y16.586 Z9.925 
G1 X19.463 Y16.809 Z9.925 
G1 X19.303 Y16.929 Z9.925 
G1 X19.024 Y16.989 Z9.925 
G1 X19.024 Y16.989 Z9.920 
G1 X18.767 Y16.952 Z9.920 
G1 X18.529 Y16.815 Z9.920 
G1 X18.402 Y16.647 Z9.920 
G1 X18.315 Y16.327 Z9.920 
G1 X19.633 Y16.329 Z9.920 
G1 X19.593 Y16.586 Z9.920 
G1 X19.463 Y16.809 Z9.920 
G1 X19.303 Y16.929 Z9.920 
G1 X19.024 Y16.989 Z9.920 
G1 X19.024 Y16.989 Z9.915 
G1 X18.767 Y16.952 Z9.915 
G1 X18.529 Y16.815 Z9.915 
G1 X18.402 Y16.647 Z9.915 
G1 X18.315 Y16.327 Z9.915 
G1 X19.633 Y16.329 Z9.915 
G1 X19.593 Y16.586 Z9.915 
G1 X19.463 Y16.809 Z9.915 
G1 X19.303 Y16.929 Z9.915 
G1 X19.024 Y16.989 Z9.915 
G1 X19.024 Y16.989 Z9.910 
G1 X18.767 Y16.952 Z9.910 
G1 X18.529 Y16.815 Z9.910 
G1 X18.402 Y16.647 Z9.910 
G1 X18.315 Y16.327 Z9.910 
G1 X19.633 Y16.329 Z9.910 
G1 X19.593 Y16.586 Z9.910 
G1 X19.463 Y16.809 Z9.910 
G1 X19.303 Y16.929 Z9.910 
G1 X19.024 Y16.989 Z9.910 
G1 X19.024 Y16.989 Z9.905 
G1 X18.767 Y16.952 Z9.905 
G1 X18.529 Y16.815 Z9.905 
G1 X18.402 Y16.647 Z9.905 
G1 X18.315 Y16.327 Z9.905 
G1 X19.633 Y16.329 Z9.905 
G1 X19.593 Y16.586 Z9.905 
G1 X19.463 Y16.809 Z9.905 
G1 X19.303 Y16.929 Z9.905 
G1 X19.024 Y16.989 Z9.905 
G1 X19.024 Y16.989 Z9.900 
G1 X18.767 Y16.952 Z9.900 
G1 X18.529 Y16.815 Z9.900 
G1 X18.402 Y16.647 Z9.900 
G1 X18.315 Y16.327 Z9.900 
G1 X19.633 Y16.329 Z9.900 
G1 X19.593 Y16.586 Z9.900 
G1 X19.463 Y16.809 Z9.900 
G1 X19.303 Y16.929 Z9.900 
G1 X19.024 Y16.989 Z9.900 
G0 Z15.001 
G0 Z15.001 
G0 X20.976 Y15.000 
G0 Z13.001 
G1 X20.976 Y15.000 Z9.995 
G1 X20.607 Y15.000 Z9.995 
G1 X20.607 Y18.129 Z9.995 
G1 X20.976 Y18.129 Z9.995 
G1 X20.976 Y15.000 Z9.995 
G1 X20.976 Y15.000 Z9.990 
G1 X20.607 Y15.000 Z9.990 
G1 X20.607 Y18.129 Z9.990 
G1 X20.976 Y18.129 Z9.990 
G1 X20.976 Y15.000 Z9.990 
G1 X20.976 Y15.000 Z9.985 
G1 X20.607 Y15.000 Z9.985 
G1 X20.607 Y18.129 Z9.985 
G1 X20.976 Y18.129 Z9.985 
G1 X20.976 Y15.000 Z9.985 
G1 X20.976 Y15.000 Z9.980 
G1 X20.607 Y15.000 Z9.980 
G1 X20.607 Y18.129 Z9.980 
G1 X20.976 Y18.129 Z9.980 
G1 X20.976 Y15.000 Z9.980 
G1 X20.976 Y15.000 Z9.975 
G1 X20.607 Y15.000 Z9.975 
G1 X20.607 Y18.129 Z9.975 
G1 X20.976 Y18.129 Z9.975 
G1 X20.976 Y15.000 Z9.975 
G1 X20.976 Y15.000 Z9.970 
G1 X20.607 Y15.000 Z9.970 
G1 X20.607 Y18.129 Z9.970 
G1 X20.976 Y18.129 Z9.970 
G1 X20.976 Y15.000 Z9.970 
G1 X20.976 Y15.000 Z9.965 
G1 X20.607 Y15.000 Z9.965 
G1 X20.607 Y18.129 Z9.965 
G1 X20.976 Y18.129 Z9.965 
G1 X20.976 Y15.000 Z9.965 
G1 X20.976 Y15.000 Z9.960 
G1 X20.607 Y15.000 Z9.960 
G1 X20.607 Y18.129 Z9.960 
G1 X20.976 Y18.129 Z9.960 
G1 X20.976 Y15.000 Z9.960 
G1 X20.976 Y15.000 Z9.955 
G1 X20.607 Y15.000 Z9.955 
G1 X20.607 Y18.129 Z9.955 
G1 X20.976 Y18.129 Z9.955 
G1 X20.976 Y15.000 Z9.955 
G1 X20.976 Y15.000 Z9.950 
G1 X20.607 Y15.000 Z9.950 
G1 X20.607 Y18.129 Z9.950 
G1 X20.976 Y18.129 Z9.950 
G1 X20.976 Y15.000 Z9.950 
G1 X20.976 Y15.000 Z9.945 
G1 X20.607 Y15.000 Z9.945 
G1 X20.607 Y18.129 Z9.945 
G1 X20.976 Y18.129 Z9.945 
G1 X20.976 Y15.000 Z9.945 
G1 X20.976 Y15.000 Z9.940 
G1 X20.607 Y15.000 Z9.940 
G1 X20.607 Y18.129 Z9.940 
G1 X20.976 Y18.129 Z9.940 
G1 X20.976 Y15.000 Z9.940 
G1 X20.976 Y15.000 Z9.935 
G1 X20.607 Y15.000 Z9.935 
G1 X20.607 Y18.129 Z9.935 
G1 X20.976 Y18.129 Z9.935 
G1 X20.976 Y15.000 Z9.935 
G1 X20.976 Y15.000 Z9.930 
G1 X20.607 Y15.000 Z9.930 
G1 X20.607 Y18.129 Z9.930 
G1 X20.976 Y18.129 Z9.930 
G1 X20.976 Y15.000 Z9.930 
G1 X20.976 Y15.000 Z9.925 
G1 X20.607 Y15.000 Z9.925 
G1 X20.607 Y18.129 Z9.925 
G1 X20.976 Y18.129 Z9.925 
G1 X20.976 Y15.000 Z9.925 
G1 X20.976 Y15.000 Z9.920 
G1 X20.607 Y15.000 Z9.920 
G1 X20.607 Y18.129 Z9.920 
G1 X20.976 Y18.129 Z9.920 
G1 X20.976 Y15.000 Z9.920 
G1 X20.976 Y15.000 Z9.915 
G1 X20.607 Y15.000 Z9.915 
G1 X20.607 Y18.129 Z9.915 
G1 X20.976 Y18.129 Z9.915 
G1 X20.976 Y15.000 Z9.915 
G1 X20.976 Y15.000 Z9.910 
G1 X20.607 Y15.000 Z9.910 
G1 X20.607 Y18.129 Z9.910 
G1 X20.976 Y18.129 Z9.910 
G1 X20.976 Y15.000 Z9.910 
G1 X20.976 Y15.000 Z9.905 
G1 X20.607 Y15.000 Z9.905 
G1 X20.607 Y18.129 Z9.905 
G1 X20.976 Y18.129 Z9.905 
G1 X20.976 Y15.000 Z9.905 
G1 X20.976 Y15.000 Z9.900 
G1 X20.607 Y15.000 Z9.900 
G1 X20.607 Y18.129 Z9.900 
G1 X20.976 Y18.129 Z9.900 
G1 X20.976 Y15.000 Z9.900 
G0 Z15.001 
G0 Z15.001 
G0 X22.116 Y15.000 
G0 Z13.001 
G1 X22.116 Y15.000 Z9.995 
G1 X21.747 Y15.000 Z9.995 
G1 X21.747 Y18.129 Z9.995 
G1 X22.116 Y18.129 Z9.995 
G1 X22.116 Y15.000 Z9.995 
G1 X22.116 Y15.000 Z9.990 
G1 X21.747 Y15.000 Z9.990 
G1 X21.747 Y18.129 Z9.990 
G1 X22.116 Y18.129 Z9.990 
G1 X22.116 Y15.000 Z9.990 
G1 X22.116 Y15.000 Z9.985 
G1 X21.747 Y15.000 Z9.985 
G1 X21.747 Y18.129 Z9.985 
G1 X22.116 Y18.129 Z9.985 
G1 X22.116 Y15.000 Z9.985 
G1 X22.116 Y15.000 Z9.980 
G1 X21.747 Y15.000 Z9.980 
G1 X21.747 Y18.129 Z9.980 
G1 X22.116 Y18.129 Z9.980 
G1 X22.116 Y15.000 Z9.980 
G1 X22.116 Y15.000 Z9.975 
G1 X21.747 Y15.000 Z9.975 
G1 X21.747 Y18.129 Z9.975 
G1 X22.116 Y18.129 Z9.975 
G1 X22.116 Y15.000 Z9.975 
G1 X22.116 Y15.000 Z9.970 
G1 X21.747 Y15.000 Z9.970 
G1 X21.747 Y18.129 Z9.970 
G1 X22.116 Y18.129 Z9.970 
G1 X22.116 Y15.000 Z9.970 
G1 X22.116 Y15.000 Z9.965 
G1 X21.747 Y15.000 Z9.965 
G1 X21.747 Y18.129 Z9.965 
G1 X22.116 Y18.129 Z9.965 
G1 X22.116 Y15.000 Z9.965 
G1 X22.116 Y15.000 Z9.960 
G1 X21.747 Y15.000 Z9.960 
G1 X21.747 Y18.129 Z9.960 
G1 X22.116 Y18.129 Z9.960 
G1 X22.116 Y15.000 Z9.960 
G1 X22.116 Y15.000 Z9.955 
G1 X21.747 Y15.000 Z9.955 
G1 X21.747 Y18.129 Z9.955 
G1 X22.116 Y18.129 Z9.955 
G1 X22.116 Y15.000 Z9.955 
G1 X22.116 Y15.000 Z9.950 
G1 X21.747 Y15.000 Z9.950 
G1 X21.747 Y18.129 Z9.950 
G1 X22.116 Y18.129 Z9.950 
G1 X22.116 Y15.000 Z9.950 
G1 X22.116 Y15.000 Z9.945 
G1 X21.747 Y15.000 Z9.945 
G1 X21.747 Y18.129 Z9.945 
G1 X22.116 Y18.129 Z9.945 
G1 X22.116 Y15.000 Z9.945 
G1 X22.116 Y15.000 Z9.940 
G1 X21.747 Y15.000 Z9.940 
G1 X21.747 Y18.129 Z9.940 
G1 X22.116 Y18.129 Z9.940 
G1 X22.116 Y15.000 Z9.940 
G1 X22.116 Y15.000 Z9.935 
G1 X21.747 Y15.000 Z9.935 
G1 X21.747 Y18.129 Z9.935 
G1 X22.116 Y18.129 Z9.935 
G1 X22.116 Y15.000 Z9.935 
G1 X22.116 Y15.000 Z9.930 
G1 X21.747 Y15.000 Z9.930 
G1 X21.747 Y18.129 Z9.930 
G1 X22.116 Y18.129 Z9.930 
G1 X22.116 Y15.000 Z9.930 
G1 X22.116 Y15.000 Z9.925 
G1 X21.747 Y15.000 Z9.925 
G1 X21.747 Y18.129 Z9.925 
G1 X22.116 Y18.129 Z9.925 
G1 X22.116 Y15.000 Z9.925 
G1 X22.116 Y15.000 Z9.920 
G1 X21.747 Y15.000 Z9.920 
G1 X21.747 Y18.129 Z9.920 
G1 X22.116 Y18.129 Z9.920 
G1 X22.116 Y15.000 Z9.920 
G1 X22.116 Y15.000 Z9.915 
G1 X21.747 Y15.000 Z9.915 
G1 X21.747 Y18.129 Z9.915 
G1 X22.116 Y18.129 Z9.915 
G1 X22.116 Y15.000 Z9.915 
G1 X22.116 Y15.000 Z9.910 
G1 X21.747 Y15.000 Z9.910 
G1 X21.747 Y18.129 Z9.910 
G1 X22.116 Y18.129 Z9.910 
G1 X22.116 Y15.000 Z9.910 
G1 X22.116 Y15.000 Z9.905 
G1 X21.747 Y15.000 Z9.905 
G1 X21.747 Y18.129 Z9.905 
G1 X22.116 Y18.129 Z9.905 
G1 X22.116 Y15.000 Z9.905 
G1 X22.116 Y15.000 Z9.900 
G1 X21.747 Y15.000 Z9.900 
G1 X21.747 Y18.129 Z9.900 
G1 X22.116 Y18.129 Z9.900 
G1 X22.116 Y15.000 Z9.900 
G0 Z15.001 
G0 Z15.001 
G0 X24.791 Y16.123 
G0 Z13.001 
G1 X24.791 Y16.123 Z9.995 
G1 X24.755 Y15.752 Z9.995 
G1 X24.656 Y15.464 Z9.995 
G1 X24.592 Y15.354 Z9.995 
G1 X24.516 Y15.255 Z9.995 
G1 X24.321 Y15.087 Z9.995 
G1 X24.089 Y14.984 Z9.995 
G1 X23.931 Y14.951 Z9.995 
G1 X23.759 Y14.940 Z9.995 
G1 X23.454 Y14.976 Z9.995 
G1 X23.212 Y15.077 Z9.995 
G1 X23.100 Y15.157 Z9.995 
G1 X23.000 Y15.255 Z9.995 
G1 X22.854 Y15.478 Z9.995 
G1 X22.762 Y15.754 Z9.995 
G1 X22.735 Y15.931 Z9.995 
G1 X22.726 Y16.123 Z9.995 
G1 X22.762 Y16.495 Z9.995 
G1 X22.861 Y16.784 Z9.995 
G1 X22.925 Y16.893 Z9.995 
G1 X23.000 Y16.992 Z9.995 
G1 X23.194 Y17.159 Z9.995 
G1 X23.426 Y17.262 Z9.995 
G1 X23.585 Y17.295 Z9.995 
G1 X23.759 Y17.306 Z9.995 
G1 X24.063 Y17.269 Z9.995 
G1 X24.305 Y17.169 Z9.995 
G1 X24.417 Y17.090 Z9.995 
G1 X24.516 Y16.992 Z9.995 
G1 X24.662 Y16.770 Z9.995 
G1 X24.755 Y16.495 Z9.995 
G1 X24.782 Y16.317 Z9.995 
G1 X24.791 Y16.123 Z9.995 
G1 X24.791 Y16.123 Z9.990 
G1 X24.755 Y15.752 Z9.990 
G1 X24.656 Y15.464 Z9.990 
G1 X24.592 Y15.354 Z9.990 
G1 X24.516 Y15.255 Z9.990 
G1 X24.321 Y15.087 Z9.990 
G1 X24.089 Y14.984 Z9.990 
G1 X23.931 Y14.951 Z9.990 
G1 X23.759 Y14.940 Z9.990 
G1 X23.454 Y14.976 Z9.990 
G1 X23.212 Y15.077 Z9.990 
G1 X23.100 Y15.157 Z9.990 
G1 X23.000 Y15.255 Z9.990 
G1 X22.854 Y15.478 Z9.990 
G1 X22.762 Y15.754 Z9.990 
G1 X22.735 Y15.931 Z9.990 
G1 X22.726 Y16.123 Z9.990 
G1 X22.762 Y16.495 Z9.990 
G1 X22.861 Y16.784 Z9.990 
G1 X22.925 Y16.893 Z9.990 
G1 X23.000 Y16.992 Z9.990 
G1 X23.194 Y17.159 Z9.990 
G1 X23.426 Y17.262 Z9.990 
G1 X23.585 Y17.295 Z9.990 
G1 X23.759 Y17.306 Z9.990 
G1 X24.063 Y17.269 Z9.990 
G1 X24.305 Y17.169 Z9.990 
G1 X24.417 Y17.090 Z9.990 
G1 X24.516 Y16.992 Z9.990 
G1 X24.662 Y16.770 Z9.990 
G1 X24.755 Y16.495 Z9.990 
G1 X24.782 Y16.317 Z9.990 
G1 X24.791 Y16.123 Z9.990 
G1 X24.791 Y16.123 Z9.985 
G1 X24.755 Y15.752 Z9.985 
G1 X24.656 Y15.464 Z9.985 
G1 X24.592 Y15.354 Z9.985 
G1 X24.516 Y15.255 Z9.985 
G1 X24.321 Y15.087 Z9.985 
G1 X24.089 Y14.984 Z9.985 
G1 X23.931 Y14.951 Z9.985 
G1 X23.759 Y14.940 Z9.985 
G1 X23.454 Y14.976 Z9.985 
G1 X23.212 Y15.077 Z9.985 
G1 X23.100 Y15.157 Z9.985 
G1 X23.000 Y15.255 Z9.985 
G1 X22.854 Y15.478 Z9.985 
G1 X22.762 Y15.754 Z9.985 
G1 X22.735 Y15.931 Z9.985 
G1 X22.726 Y16.123 Z9.985 
G1 X22.762 Y16.495 Z9.985 
G1 X22.861 Y16.784 Z9.985 
G1 X22.925 Y16.893 Z9.985 
G1 X23.000 Y16.992 Z9.985 
G1 X23.194 Y17.159 Z9.985 
G1 X23.426 Y17.262 Z9.985 
G1 X23.585 Y17.295 Z9.985 
G1 X23.759 Y17.306 Z9.985 
G1 X24.063 Y17.269 Z9.985 
G1 X24.305 Y17.169 Z9.985 
G1 X24.417 Y17.090 Z9.985 
G1 X24.516 Y16.992 Z9.985 
G1 X24.662 Y16.770 Z9.985 
G1 X24.755 Y16.495 Z9.985 
G1 X24.782 Y16.317 Z9.985 
G1 X24.791 Y16.123 Z9.985 
G1 X24.791 Y16.123 Z9.980 
G1 X24.755 Y15.752 Z9.980 
G1 X24.656 Y15.464 Z9.980 
G1 X24.592 Y15.354 Z9.980 
G1 X24.516 Y15.255 Z9.980 
G1 X24.321 Y15.087 Z9.980 
G1 X24.089 Y14.984 Z9.980 
G1 X23.931 Y14.951 Z9.980 
G1 X23.759 Y14.940 Z9.980 
G1 X23.454 Y14.976 Z9.980 
G1 X23.212 Y15.077 Z9.980 
G1 X23.100 Y15.157 Z9.980 
G1 X23.000 Y15.255 Z9.980 
G1 X22.854 Y15.478 Z9.980 
G1 X22.762 Y15.754 Z9.980 
G1 X22.735 Y15.931 Z9.980 
G1 X22.726 Y16.123 Z9.980 
G1 X22.762 Y16.495 Z9.980 
G1 X22.861 Y16.784 Z9.980 
G1 X22.925 Y16.893 Z9.980 
G1 X23.000 Y16.992 Z9.980 
G1 X23.194 Y17.159 Z9.980 
G1 X23.426 Y17.262 Z9.980 
G1 X23.585 Y17.295 Z9.980 
G1 X23.759 Y17.306 Z9.980 
G1 X24.063 Y17.269 Z9.980 
G1 X24.305 Y17.169 Z9.980 
G1 X24.417 Y17.090 Z9.980 
G1 X24.516 Y16.992 Z9.980 
G1 X24.662 Y16.770 Z9.980 
G1 X24.755 Y16.495 Z9.980 
G1 X24.782 Y16.317 Z9.980 
G1 X24.791 Y16.123 Z9.980 
G1 X24.791 Y16.123 Z9.975 
G1 X24.755 Y15.752 Z9.975 
G1 X24.656 Y15.464 Z9.975 
G1 X24.592 Y15.354 Z9.975 
G1 X24.516 Y15.255 Z9.975 
G1 X24.321 Y15.087 Z9.975 
G1 X24.089 Y14.984 Z9.975 
G1 X23.931 Y14.951 Z9.975 
G1 X23.759 Y14.940 Z9.975 
G1 X23.454 Y14.976 Z9.975 
G1 X23.212 Y15.077 Z9.975 
G1 X23.100 Y15.157 Z9.975 
G1 X23.000 Y15.255 Z9.975 
G1 X22.854 Y15.478 Z9.975 
G1 X22.762 Y15.754 Z9.975 
G1 X22.735 Y15.931 Z9.975 
G1 X22.726 Y16.123 Z9.975 
G1 X22.762 Y16.495 Z9.975 
G1 X22.861 Y16.784 Z9.975 
G1 X22.925 Y16.893 Z9.975 
G1 X23.000 Y16.992 Z9.975 
G1 X23.194 Y17.159 Z9.975 
G1 X23.426 Y17.262 Z9.975 
G1 X23.585 Y17.295 Z9.975 
G1 X23.759 Y17.306 Z9.975 
G1 X24.063 Y17.269 Z9.975 
G1 X24.305 Y17.169 Z9.975 
G1 X24.417 Y17.090 Z9.975 
G1 X24.516 Y16.992 Z9.975 
G1 X24.662 Y16.770 Z9.975 
G1 X24.755 Y16.495 Z9.975 
G1 X24.782 Y16.317 Z9.975 
G1 X24.791 Y16.123 Z9.975 
G1 X24.791 Y16.123 Z9.970 
G1 X24.755 Y15.752 Z9.970 
G1 X24.656 Y15.464 Z9.970 
G1 X24.592 Y15.354 Z9.970 
G1 X24.516 Y15.255 Z9.970 
G1 X24.321 Y15.087 Z9.970 
G1 X24.089 Y14.984 Z9.970 
G1 X23.931 Y14.951 Z9.970 
G1 X23.759 Y14.940 Z9.970 
G1 X23.454 Y14.976 Z9.970 
G1 X23.212 Y15.077 Z9.970 
G1 X23.100 Y15.157 Z9.970 
G1 X23.000 Y15.255 Z9.970 
G1 X22.854 Y15.478 Z9.970 
G1 X22.762 Y15.754 Z9.970 
G1 X22.735 Y15.931 Z9.970 
G1 X22.726 Y16.123 Z9.970 
G1 X22.762 Y16.495 Z9.970 
G1 X22.861 Y16.784 Z9.970 
G1 X22.925 Y16.893 Z9.970 
G1 X23.000 Y16.992 Z9.970 
G1 X23.194 Y17.159 Z9.970 
G1 X23.426 Y17.262 Z9.970 
G1 X23.585 Y17.295 Z9.970 
G1 X23.759 Y17.306 Z9.970 
G1 X24.063 Y17.269 Z9.970 
G1 X24.305 Y17.169 Z9.970 
G1 X24.417 Y17.090 Z9.970 
G1 X24.516 Y16.992 Z9.970 
G1 X24.662 Y16.770 Z9.970 
G1 X24.755 Y16.495 Z9.970 
G1 X24.782 Y16.317 Z9.970 
G1 X24.791 Y16.123 Z9.970 
G1 X24.791 Y16.123 Z9.965 
G1 X24.755 Y15.752 Z9.965 
G1 X24.656 Y15.464 Z9.965 
G1 X24.592 Y15.354 Z9.965 
G1 X24.516 Y15.255 Z9.965 
G1 X24.321 Y15.087 Z9.965 
G1 X24.089 Y14.984 Z9.965 
G1 X23.931 Y14.951 Z9.965 
G1 X23.759 Y14.940 Z9.965 
G1 X23.454 Y14.976 Z9.965 
G1 X23.212 Y15.077 Z9.965 
G1 X23.100 Y15.157 Z9.965 
G1 X23.000 Y15.255 Z9.965 
G1 X22.854 Y15.478 Z9.965 
G1 X22.762 Y15.754 Z9.965 
G1 X22.735 Y15.931 Z9.965 
G1 X22.726 Y16.123 Z9.965 
G1 X22.762 Y16.495 Z9.965 
G1 X22.861 Y16.784 Z9.965 
G1 X22.925 Y16.893 Z9.965 
G1 X23.000 Y16.992 Z9.965 
G1 X23.194 Y17.159 Z9.965 
G1 X23.426 Y17.262 Z9.965 
G1 X23.585 Y17.295 Z9.965 
G1 X23.759 Y17.306 Z9.965 
G1 X24.063 Y17.269 Z9.965 
G1 X24.305 Y17.169 Z9.965 
G1 X24.417 Y17.090 Z9.965 
G1 X24.516 Y16.992 Z9.965 
G1 X24.662 Y16.770 Z9.965 
G1 X24.755 Y16.495 Z9.965 
G1 X24.782 Y16.317 Z9.965 
G1 X24.791 Y16.123 Z9.965 
G1 X24.791 Y16.123 Z9.960 
G1 X24.755 Y15.752 Z9.960 
G1 X24.656 Y15.464 Z9.960 
G1 X24.592 Y15.354 Z9.960 
G1 X24.516 Y15.255 Z9.960 
G1 X24.321 Y15.087 Z9.960 
G1 X24.089 Y14.984 Z9.960 
G1 X23.931 Y14.951 Z9.960 
G1 X23.759 Y14.940 Z9.960 
G1 X23.454 Y14.976 Z9.960 
G1 X23.212 Y15.077 Z9.960 
G1 X23.100 Y15.157 Z9.960 
G1 X23.000 Y15.255 Z9.960 
G1 X22.854 Y15.478 Z9.960 
G1 X22.762 Y15.754 Z9.960 
G1 X22.735 Y15.931 Z9.960 
G1 X22.726 Y16.123 Z9.960 
G1 X22.762 Y16.495 Z9.960 
G1 X22.861 Y16.784 Z9.960 
G1 X22.925 Y16.893 Z9.960 
G1 X23.000 Y16.992 Z9.960 
G1 X23.194 Y17.159 Z9.960 
G1 X23.426 Y17.262 Z9.960 
G1 X23.585 Y17.295 Z9.960 
G1 X23.759 Y17.306 Z9.960 
G1 X24.063 Y17.269 Z9.960 
G1 X24.305 Y17.169 Z9.960 
G1 X24.417 Y17.090 Z9.960 
G1 X24.516 Y16.992 Z9.960 
G1 X24.662 Y16.770 Z9.960 
G1 X24.755 Y16.495 Z9.960 
G1 X24.782 Y16.317 Z9.960 
G1 X24.791 Y16.123 Z9.960 
G1 X24.791 Y16.123 Z9.955 
G1 X24.755 Y15.752 Z9.955 
G1 X24.656 Y15.464 Z9.955 
G1 X24.592 Y15.354 Z9.955 
G1 X24.516 Y15.255 Z9.955 
G1 X24.321 Y15.087 Z9.955 
G1 X24.089 Y14.984 Z9.955 
G1 X23.931 Y14.951 Z9.955 
G1 X23.759 Y14.940 Z9.955 
G1 X23.454 Y14.976 Z9.955 
G1 X23.212 Y15.077 Z9.955 
G1 X23.100 Y15.157 Z9.955 
G1 X23.000 Y15.255 Z9.955 
G1 X22.854 Y15.478 Z9.955 
G1 X22.762 Y15.754 Z9.955 
G1 X22.735 Y15.931 Z9.955 
G1 X22.726 Y16.123 Z9.955 
G1 X22.762 Y16.495 Z9.955 
G1 X22.861 Y16.784 Z9.955 
G1 X22.925 Y16.893 Z9.955 
G1 X23.000 Y16.992 Z9.955 
G1 X23.194 Y17.159 Z9.955 
G1 X23.426 Y17.262 Z9.955 
G1 X23.585 Y17.295 Z9.955 
G1 X23.759 Y17.306 Z9.955 
G1 X24.063 Y17.269 Z9.955 
G1 X24.305 Y17.169 Z9.955 
G1 X24.417 Y17.090 Z9.955 
G1 X24.516 Y16.992 Z9.955 
G1 X24.662 Y16.770 Z9.955 
G1 X24.755 Y16.495 Z9.955 
G1 X24.782 Y16.317 Z9.955 
G1 X24.791 Y16.123 Z9.955 
G1 X24.791 Y16.123 Z9.950 
G1 X24.755 Y15.752 Z9.950 
G1 X24.656 Y15.464 Z9.950 
G1 X24.592 Y15.354 Z9.950 
G1 X24.516 Y15.255 Z9.950 
G1 X24.321 Y15.087 Z9.950 
G1 X24.089 Y14.984 Z9.950 
G1 X23.931 Y14.951 Z9.950 
G1 X23.759 Y14.940 Z9.950 
G1 X23.454 Y14.976 Z9.950 
G1 X23.212 Y15.077 Z9.950 
G1 X23.100 Y15.157 Z9.950 
G1 X23.000 Y15.255 Z9.950 
G1 X22.854 Y15.478 Z9.950 
G1 X22.762 Y15.754 Z9.950 
G1 X22.735 Y15.931 Z9.950 
G1 X22.726 Y16.123 Z9.950 
G1 X22.762 Y16.495 Z9.950 
G1 X22.861 Y16.784 Z9.950 
G1 X22.925 Y16.893 Z9.950 
G1 X23.000 Y16.992 Z9.950 
G1 X23.194 Y17.159 Z9.950 
G1 X23.426 Y17.262 Z9.950 
G1 X23.585 Y17.295 Z9.950 
G1 X23.759 Y17.306 Z9.950 
G1 X24.063 Y17.269 Z9.950 
G1 X24.305 Y17.169 Z9.950 
G1 X24.417 Y17.090 Z9.950 
G1 X24.516 Y16.992 Z9.950 
G1 X24.662 Y16.770 Z9.950 
G1 X24.755 Y16.495 Z9.950 
G1 X24.782 Y16.317 Z9.950 
G1 X24.791 Y16.123 Z9.950 
G1 X24.791 Y16.123 Z9.945 
G1 X24.755 Y15.752 Z9.945 
G1 X24.656 Y15.464 Z9.945 
G1 X24.592 Y15.354 Z9.945 
G1 X24.516 Y15.255 Z9.945 
G1 X24.321 Y15.087 Z9.945 
G1 X24.089 Y14.984 Z9.945 
G1 X23.931 Y14.951 Z9.945 
G1 X23.759 Y14.940 Z9.945 
G1 X23.454 Y14.976 Z9.945 
G1 X23.212 Y15.077 Z9.945 
G1 X23.100 Y15.157 Z9.945 
G1 X23.000 Y15.255 Z9.945 
G1 X22.854 Y15.478 Z9.945 
G1 X22.762 Y15.754 Z9.945 
G1 X22.735 Y15.931 Z9.945 
G1 X22.726 Y16.123 Z9.945 
G1 X22.762 Y16.495 Z9.945 
G1 X22.861 Y16.784 Z9.945 
G1 X22.925 Y16.893 Z9.945 
G1 X23.000 Y16.992 Z9.945 
G1 X23.194 Y17.159 Z9.945 
G1 X23.426 Y17.262 Z9.945 
G1 X23.585 Y17.295 Z9.945 
G1 X23.759 Y17.306 Z9.945 
G1 X24.063 Y17.269 Z9.945 
G1 X24.305 Y17.169 Z9.945 
G1 X24.417 Y17.090 Z9.945 
G1 X24.516 Y16.992 Z9.945 
G1 X24.662 Y16.770 Z9.945 
G1 X24.755 Y16.495 Z9.945 
G1 X24.782 Y16.317 Z9.945 
G1 X24.791 Y16.123 Z9.945 
G1 X24.791 Y16.123 Z9.940 
G1 X24.755 Y15.752 Z9.940 
G1 X24.656 Y15.464 Z9.940 
G1 X24.592 Y15.354 Z9.940 
G1 X24.516 Y15.255 Z9.940 
G1 X24.321 Y15.087 Z9.940 
G1 X24.089 Y14.984 Z9.940 
G1 X23.931 Y14.951 Z9.940 
G1 X23.759 Y14.940 Z9.940 
G1 X23.454 Y14.976 Z9.940 
G1 X23.212 Y15.077 Z9.940 
G1 X23.100 Y15.157 Z9.940 
G1 X23.000 Y15.255 Z9.940 
G1 X22.854 Y15.478 Z9.940 
G1 X22.762 Y15.754 Z9.940 
G1 X22.735 Y15.931 Z9.940 
G1 X22.726 Y16.123 Z9.940 
G1 X22.762 Y16.495 Z9.940 
G1 X22.861 Y16.784 Z9.940 
G1 X22.925 Y16.893 Z9.940 
G1 X23.000 Y16.992 Z9.940 
G1 X23.194 Y17.159 Z9.940 
G1 X23.426 Y17.262 Z9.940 
G1 X23.585 Y17.295 Z9.940 
G1 X23.759 Y17.306 Z9.940 
G1 X24.063 Y17.269 Z9.940 
G1 X24.305 Y17.169 Z9.940 
G1 X24.417 Y17.090 Z9.940 
G1 X24.516 Y16.992 Z9.940 
G1 X24.662 Y16.770 Z9.940 
G1 X24.755 Y16.495 Z9.940 
G1 X24.782 Y16.317 Z9.940 
G1 X24.791 Y16.123 Z9.940 
G1 X24.791 Y16.123 Z9.935 
G1 X24.755 Y15.752 Z9.935 
G1 X24.656 Y15.464 Z9.935 
G1 X24.592 Y15.354 Z9.935 
G1 X24.516 Y15.255 Z9.935 
G1 X24.321 Y15.087 Z9.935 
G1 X24.089 Y14.984 Z9.935 
G1 X23.931 Y14.951 Z9.935 
G1 X23.759 Y14.940 Z9.935 
G1 X23.454 Y14.976 Z9.935 
G1 X23.212 Y15.077 Z9.935 
G1 X23.100 Y15.157 Z9.935 
G1 X23.000 Y15.255 Z9.935 
G1 X22.854 Y15.478 Z9.935 
G1 X22.762 Y15.754 Z9.935 
G1 X22.735 Y15.931 Z9.935 
G1 X22.726 Y16.123 Z9.935 
G1 X22.762 Y16.495 Z9.935 
G1 X22.861 Y16.784 Z9.935 
G1 X22.925 Y16.893 Z9.935 
G1 X23.000 Y16.992 Z9.935 
G1 X23.194 Y17.159 Z9.935 
G1 X23.426 Y17.262 Z9.935 
G1 X23.585 Y17.295 Z9.935 
G1 X23.759 Y17.306 Z9.935 
G1 X24.063 Y17.269 Z9.935 
G1 X24.305 Y17.169 Z9.935 
G1 X24.417 Y17.090 Z9.935 
G1 X24.516 Y16.992 Z9.935 
G1 X24.662 Y16.770 Z9.935 
G1 X24.755 Y16.495 Z9.935 
G1 X24.782 Y16.317 Z9.935 
G1 X24.791 Y16.123 Z9.935 
G1 X24.791 Y16.123 Z9.930 
G1 X24.755 Y15.752 Z9.930 
G1 X24.656 Y15.464 Z9.930 
G1 X24.592 Y15.354 Z9.930 
G1 X24.516 Y15.255 Z9.930 
G1 X24.321 Y15.087 Z9.930 
G1 X24.089 Y14.984 Z9.930 
G1 X23.931 Y14.951 Z9.930 
G1 X23.759 Y14.940 Z9.930 
G1 X23.454 Y14.976 Z9.930 
G1 X23.212 Y15.077 Z9.930 
G1 X23.100 Y15.157 Z9.930 
G1 X23.000 Y15.255 Z9.930 
G1 X22.854 Y15.478 Z9.930 
G1 X22.762 Y15.754 Z9.930 
G1 X22.735 Y15.931 Z9.930 
G1 X22.726 Y16.123 Z9.930 
G1 X22.762 Y16.495 Z9.930 
G1 X22.861 Y16.784 Z9.930 
G1 X22.925 Y16.893 Z9.930 
G1 X23.000 Y16.992 Z9.930 
G1 X23.194 Y17.159 Z9.930 
G1 X23.426 Y17.262 Z9.930 
G1 X23.585 Y17.295 Z9.930 
G1 X23.759 Y17.306 Z9.930 
G1 X24.063 Y17.269 Z9.930 
G1 X24.305 Y17.169 Z9.930 
G1 X24.417 Y17.090 Z9.930 
G1 X24.516 Y16.992 Z9.930 
G1 X24.662 Y16.770 Z9.930 
G1 X24.755 Y16.495 Z9.930 
G1 X24.782 Y16.317 Z9.930 
G1 X24.791 Y16.123 Z9.930 
G1 X24.791 Y16.123 Z9.925 
G1 X24.755 Y15.752 Z9.925 
G1 X24.656 Y15.464 Z9.925 
G1 X24.592 Y15.354 Z9.925 
G1 X24.516 Y15.255 Z9.925 
G1 X24.321 Y15.087 Z9.925 
G1 X24.089 Y14.984 Z9.925 
G1 X23.931 Y14.951 Z9.925 
G1 X23.759 Y14.940 Z9.925 
G1 X23.454 Y14.976 Z9.925 
G1 X23.212 Y15.077 Z9.925 
G1 X23.100 Y15.157 Z9.925 
G1 X23.000 Y15.255 Z9.925 
G1 X22.854 Y15.478 Z9.925 
G1 X22.762 Y15.754 Z9.925 
G1 X22.735 Y15.931 Z9.925 
G1 X22.726 Y16.123 Z9.925 
G1 X22.762 Y16.495 Z9.925 
G1 X22.861 Y16.784 Z9.925 
G1 X22.925 Y16.893 Z9.925 
G1 X23.000 Y16.992 Z9.925 
G1 X23.194 Y17.159 Z9.925 
G1 X23.426 Y17.262 Z9.925 
G1 X23.585 Y17.295 Z9.925 
G1 X23.759 Y17.306 Z9.925 
G1 X24.063 Y17.269 Z9.925 
G1 X24.305 Y17.169 Z9.925 
G1 X24.417 Y17.090 Z9.925 
G1 X24.516 Y16.992 Z9.925 
G1 X24.662 Y16.770 Z9.925 
G1 X24.755 Y16.495 Z9.925 
G1 X24.782 Y16.317 Z9.925 
G1 X24.791 Y16.123 Z9.925 
G1 X24.791 Y16.123 Z9.920 
G1 X24.755 Y15.752 Z9.920 
G1 X24.656 Y15.464 Z9.920 
G1 X24.592 Y15.354 Z9.920 
G1 X24.516 Y15.255 Z9.920 
G1 X24.321 Y15.087 Z9.920 
G1 X24.089 Y14.984 Z9.920 
G1 X23.931 Y14.951 Z9.920 
G1 X23.759 Y14.940 Z9.920 
G1 X23.454 Y14.976 Z9.920 
G1 X23.212 Y15.077 Z9.920 
G1 X23.100 Y15.157 Z9.920 
G1 X23.000 Y15.255 Z9.920 
G1 X22.854 Y15.478 Z9.920 
G1 X22.762 Y15.754 Z9.920 
G1 X22.735 Y15.931 Z9.920 
G1 X22.726 Y16.123 Z9.920 
G1 X22.762 Y16.495 Z9.920 
G1 X22.861 Y16.784 Z9.920 
G1 X22.925 Y16.893 Z9.920 
G1 X23.000 Y16.992 Z9.920 
G1 X23.194 Y17.159 Z9.920 
G1 X23.426 Y17.262 Z9.920 
G1 X23.585 Y17.295 Z9.920 
G1 X23.759 Y17.306 Z9.920 
G1 X24.063 Y17.269 Z9.920 
G1 X24.305 Y17.169 Z9.920 
G1 X24.417 Y17.090 Z9.920 
G1 X24.516 Y16.992 Z9.920 
G1 X24.662 Y16.770 Z9.920 
G1 X24.755 Y16.495 Z9.920 
G1 X24.782 Y16.317 Z9.920 
G1 X24.791 Y16.123 Z9.920 
G1 X24.791 Y16.123 Z9.915 
G1 X24.755 Y15.752 Z9.915 
G1 X24.656 Y15.464 Z9.915 
G1 X24.592 Y15.354 Z9.915 
G1 X24.516 Y15.255 Z9.915 
G1 X24.321 Y15.087 Z9.915 
G1 X24.089 Y14.984 Z9.915 
G1 X23.931 Y14.951 Z9.915 
G1 X23.759 Y14.940 Z9.915 
G1 X23.454 Y14.976 Z9.915 
G1 X23.212 Y15.077 Z9.915 
G1 X23.100 Y15.157 Z9.915 
G1 X23.000 Y15.255 Z9.915 
G1 X22.854 Y15.478 Z9.915 
G1 X22.762 Y15.754 Z9.915 
G1 X22.735 Y15.931 Z9.915 
G1 X22.726 Y16.123 Z9.915 
G1 X22.762 Y16.495 Z9.915 
G1 X22.861 Y16.784 Z9.915 
G1 X22.925 Y16.893 Z9.915 
G1 X23.000 Y16.992 Z9.915 
G1 X23.194 Y17.159 Z9.915 
G1 X23.426 Y17.262 Z9.915 
G1 X23.585 Y17.295 Z9.915 
G1 X23.759 Y17.306 Z9.915 
G1 X24.063 Y17.269 Z9.915 
G1 X24.305 Y17.169 Z9.915 
G1 X24.417 Y17.090 Z9.915 
G1 X24.516 Y16.992 Z9.915 
G1 X24.662 Y16.770 Z9.915 
G1 X24.755 Y16.495 Z9.915 
G1 X24.782 Y16.317 Z9.915 
G1 X24.791 Y16.123 Z9.915 
G1 X24.791 Y16.123 Z9.910 
G1 X24.755 Y15.752 Z9.910 
G1 X24.656 Y15.464 Z9.910 
G1 X24.592 Y15.354 Z9.910 
G1 X24.516 Y15.255 Z9.910 
G1 X24.321 Y15.087 Z9.910 
G1 X24.089 Y14.984 Z9.910 
G1 X23.931 Y14.951 Z9.910 
G1 X23.759 Y14.940 Z9.910 
G1 X23.454 Y14.976 Z9.910 
G1 X23.212 Y15.077 Z9.910 
G1 X23.100 Y15.157 Z9.910 
G1 X23.000 Y15.255 Z9.910 
G1 X22.854 Y15.478 Z9.910 
G1 X22.762 Y15.754 Z9.910 
G1 X22.735 Y15.931 Z9.910 
G1 X22.726 Y16.123 Z9.910 
G1 X22.762 Y16.495 Z9.910 
G1 X22.861 Y16.784 Z9.910 
G1 X22.925 Y16.893 Z9.910 
G1 X23.000 Y16.992 Z9.910 
G1 X23.194 Y17.159 Z9.910 
G1 X23.426 Y17.262 Z9.910 
G1 X23.585 Y17.295 Z9.910 
G1 X23.759 Y17.306 Z9.910 
G1 X24.063 Y17.269 Z9.910 
G1 X24.305 Y17.169 Z9.910 
G1 X24.417 Y17.090 Z9.910 
G1 X24.516 Y16.992 Z9.910 
G1 X24.662 Y16.770 Z9.910 
G1 X24.755 Y16.495 Z9.910 
G1 X24.782 Y16.317 Z9.910 
G1 X24.791 Y16.123 Z9.910 
G1 X24.791 Y16.123 Z9.905 
G1 X24.755 Y15.752 Z9.905 
G1 X24.656 Y15.464 Z9.905 
G1 X24.592 Y15.354 Z9.905 
G1 X24.516 Y15.255 Z9.905 
G1 X24.321 Y15.087 Z9.905 
G1 X24.089 Y14.984 Z9.905 
G1 X23.931 Y14.951 Z9.905 
G1 X23.759 Y14.940 Z9.905 
G1 X23.454 Y14.976 Z9.905 
G1 X23.212 Y15.077 Z9.905 
G1 X23.100 Y15.157 Z9.905 
G1 X23.000 Y15.255 Z9.905 
G1 X22.854 Y15.478 Z9.905 
G1 X22.762 Y15.754 Z9.905 
G1 X22.735 Y15.931 Z9.905 
G1 X22.726 Y16.123 Z9.905 
G1 X22.762 Y16.495 Z9.905 
G1 X22.861 Y16.784 Z9.905 
G1 X22.925 Y16.893 Z9.905 
G1 X23.000 Y16.992 Z9.905 
G1 X23.194 Y17.159 Z9.905 
G1 X23.426 Y17.262 Z9.905 
G1 X23.585 Y17.295 Z9.905 
G1 X23.759 Y17.306 Z9.905 
G1 X24.063 Y17.269 Z9.905 
G1 X24.305 Y17.169 Z9.905 
G1 X24.417 Y17.090 Z9.905 
G1 X24.516 Y16.992 Z9.905 
G1 X24.662 Y16.770 Z9.905 
G1 X24.755 Y16.495 Z9.905 
G1 X24.782 Y16.317 Z9.905 
G1 X24.791 Y16.123 Z9.905 
G1 X24.791 Y16.123 Z9.900 
G1 X24.755 Y15.752 Z9.900 
G1 X24.656 Y15.464 Z9.900 
G1 X24.592 Y15.354 Z9.900 
G1 X24.516 Y15.255 Z9.900 
G1 X24.321 Y15.087 Z9.900 
G1 X24.089 Y14.984 Z9.900 
G1 X23.931 Y14.951 Z9.900 
G1 X23.759 Y14.940 Z9.900 
G1 X23.454 Y14.976 Z9.900 
G1 X23.212 Y15.077 Z9.900 
G1 X23.100 Y15.157 Z9.900 
G1 X23.000 Y15.255 Z9.900 
G1 X22.854 Y15.478 Z9.900 
G1 X22.762 Y15.754 Z9.900 
G1 X22.735 Y15.931 Z9.900 
G1 X22.726 Y16.123 Z9.900 
G1 X22.762 Y16.495 Z9.900 
G1 X22.861 Y16.784 Z9.900 
G1 X22.925 Y16.893 Z9.900 
G1 X23.000 Y16.992 Z9.900 
G1 X23.194 Y17.159 Z9.900 
G1 X23.426 Y17.262 Z9.900 
G1 X23.585 Y17.295 Z9.900 
G1 X23.759 Y17.306 Z9.900 
G1 X24.063 Y17.269 Z9.900 
G1 X24.305 Y17.169 Z9.900 
G1 X24.417 Y17.090 Z9.900 
G1 X24.516 Y16.992 Z9.900 
G1 X24.662 Y16.770 Z9.900 
G1 X24.755 Y16.495 Z9.900 
G1 X24.782 Y16.317 Z9.900 
G1 X24.791 Y16.123 Z9.900 
G0 Z15.001 
G0 Z15.001 
G0 X23.116 Y16.123 
G0 Z13.001 
G1 X23.116 Y16.123 Z9.995 
G1 X23.152 Y15.789 Z9.995 
G1 X23.287 Y15.489 Z9.995 
G1 X23.440 Y15.344 Z9.995 
G1 X23.623 Y15.270 Z9.995 
G1 X23.689 Y15.260 Z9.995 
G1 X23.759 Y15.257 Z9.995 
G1 X23.973 Y15.294 Z9.995 
G1 X24.140 Y15.395 Z9.995 
G1 X24.185 Y15.439 Z9.995 
G1 X24.227 Y15.490 Z9.995 
G1 X24.335 Y15.696 Z9.995 
G1 X24.400 Y16.123 Z9.995 
G1 X24.363 Y16.454 Z9.995 
G1 X24.227 Y16.755 Z9.995 
G1 X24.073 Y16.902 Z9.995 
G1 X23.891 Y16.976 Z9.995 
G1 X23.827 Y16.985 Z9.995 
G1 X23.759 Y16.989 Z9.995 
G1 X23.543 Y16.952 Z9.995 
G1 X23.375 Y16.851 Z9.995 
G1 X23.330 Y16.807 Z9.995 
G1 X23.289 Y16.757 Z9.995 
G1 X23.180 Y16.551 Z9.995 
G1 X23.116 Y16.123 Z9.995 
G1 X23.116 Y16.123 Z9.990 
G1 X23.152 Y15.789 Z9.990 
G1 X23.287 Y15.489 Z9.990 
G1 X23.440 Y15.344 Z9.990 
G1 X23.623 Y15.270 Z9.990 
G1 X23.689 Y15.260 Z9.990 
G1 X23.759 Y15.257 Z9.990 
G1 X23.973 Y15.294 Z9.990 
G1 X24.140 Y15.395 Z9.990 
G1 X24.185 Y15.439 Z9.990 
G1 X24.227 Y15.490 Z9.990 
G1 X24.335 Y15.696 Z9.990 
G1 X24.400 Y16.123 Z9.990 
G1 X24.363 Y16.454 Z9.990 
G1 X24.227 Y16.755 Z9.990 
G1 X24.073 Y16.902 Z9.990 
G1 X23.891 Y16.976 Z9.990 
G1 X23.827 Y16.985 Z9.990 
G1 X23.759 Y16.989 Z9.990 
G1 X23.543 Y16.952 Z9.990 
G1 X23.375 Y16.851 Z9.990 
G1 X23.330 Y16.807 Z9.990 
G1 X23.289 Y16.757 Z9.990 
G1 X23.180 Y16.551 Z9.990 
G1 X23.116 Y16.123 Z9.990 
G1 X23.116 Y16.123 Z9.985 
G1 X23.152 Y15.789 Z9.985 
G1 X23.287 Y15.489 Z9.985 
G1 X23.440 Y15.344 Z9.985 
G1 X23.623 Y15.270 Z9.985 
G1 X23.689 Y15.260 Z9.985 
G1 X23.759 Y15.257 Z9.985 
G1 X23.973 Y15.294 Z9.985 
G1 X24.140 Y15.395 Z9.985 
G1 X24.185 Y15.439 Z9.985 
G1 X24.227 Y15.490 Z9.985 
G1 X24.335 Y15.696 Z9.985 
G1 X24.400 Y16.123 Z9.985 
G1 X24.363 Y16.454 Z9.985 
G1 X24.227 Y16.755 Z9.985 
G1 X24.073 Y16.902 Z9.985 
G1 X23.891 Y16.976 Z9.985 
G1 X23.827 Y16.985 Z9.985 
G1 X23.759 Y16.989 Z9.985 
G1 X23.543 Y16.952 Z9.985 
G1 X23.375 Y16.851 Z9.985 
G1 X23.330 Y16.807 Z9.985 
G1 X23.289 Y16.757 Z9.985 
G1 X23.180 Y16.551 Z9.985 
G1 X23.116 Y16.123 Z9.985 
G1 X23.116 Y16.123 Z9.980 
G1 X23.152 Y15.789 Z9.980 
G1 X23.287 Y15.489 Z9.980 
G1 X23.440 Y15.344 Z9.980 
G1 X23.623 Y15.270 Z9.980 
G1 X23.689 Y15.260 Z9.980 
G1 X23.759 Y15.257 Z9.980 
G1 X23.973 Y15.294 Z9.980 
G1 X24.140 Y15.395 Z9.980 
G1 X24.185 Y15.439 Z9.980 
G1 X24.227 Y15.490 Z9.980 
G1 X24.335 Y15.696 Z9.980 
G1 X24.400 Y16.123 Z9.980 
G1 X24.363 Y16.454 Z9.980 
G1 X24.227 Y16.755 Z9.980 
G1 X24.073 Y16.902 Z9.980 
G1 X23.891 Y16.976 Z9.980 
G1 X23.827 Y16.985 Z9.980 
G1 X23.759 Y16.989 Z9.980 
G1 X23.543 Y16.952 Z9.980 
G1 X23.375 Y16.851 Z9.980 
G1 X23.330 Y16.807 Z9.980 
G1 X23.289 Y16.757 Z9.980 
G1 X23.180 Y16.551 Z9.980 
G1 X23.116 Y16.123 Z9.980 
G1 X23.116 Y16.123 Z9.975 
G1 X23.152 Y15.789 Z9.975 
G1 X23.287 Y15.489 Z9.975 
G1 X23.440 Y15.344 Z9.975 
G1 X23.623 Y15.270 Z9.975 
G1 X23.689 Y15.260 Z9.975 
G1 X23.759 Y15.257 Z9.975 
G1 X23.973 Y15.294 Z9.975 
G1 X24.140 Y15.395 Z9.975 
G1 X24.185 Y15.439 Z9.975 
G1 X24.227 Y15.490 Z9.975 
G1 X24.335 Y15.696 Z9.975 
G1 X24.400 Y16.123 Z9.975 
G1 X24.363 Y16.454 Z9.975 
G1 X24.227 Y16.755 Z9.975 
G1 X24.073 Y16.902 Z9.975 
G1 X23.891 Y16.976 Z9.975 
G1 X23.827 Y16.985 Z9.975 
G1 X23.759 Y16.989 Z9.975 
G1 X23.543 Y16.952 Z9.975 
G1 X23.375 Y16.851 Z9.975 
G1 X23.330 Y16.807 Z9.975 
G1 X23.289 Y16.757 Z9.975 
G1 X23.180 Y16.551 Z9.975 
G1 X23.116 Y16.123 Z9.975 
G1 X23.116 Y16.123 Z9.970 
G1 X23.152 Y15.789 Z9.970 
G1 X23.287 Y15.489 Z9.970 
G1 X23.440 Y15.344 Z9.970 
G1 X23.623 Y15.270 Z9.970 
G1 X23.689 Y15.260 Z9.970 
G1 X23.759 Y15.257 Z9.970 
G1 X23.973 Y15.294 Z9.970 
G1 X24.140 Y15.395 Z9.970 
G1 X24.185 Y15.439 Z9.970 
G1 X24.227 Y15.490 Z9.970 
G1 X24.335 Y15.696 Z9.970 
G1 X24.400 Y16.123 Z9.970 
G1 X24.363 Y16.454 Z9.970 
G1 X24.227 Y16.755 Z9.970 
G1 X24.073 Y16.902 Z9.970 
G1 X23.891 Y16.976 Z9.970 
G1 X23.827 Y16.985 Z9.970 
G1 X23.759 Y16.989 Z9.970 
G1 X23.543 Y16.952 Z9.970 
G1 X23.375 Y16.851 Z9.970 
G1 X23.330 Y16.807 Z9.970 
G1 X23.289 Y16.757 Z9.970 
G1 X23.180 Y16.551 Z9.970 
G1 X23.116 Y16.123 Z9.970 
G1 X23.116 Y16.123 Z9.965 
G1 X23.152 Y15.789 Z9.965 
G1 X23.287 Y15.489 Z9.965 
G1 X23.440 Y15.344 Z9.965 
G1 X23.623 Y15.270 Z9.965 
G1 X23.689 Y15.260 Z9.965 
G1 X23.759 Y15.257 Z9.965 
G1 X23.973 Y15.294 Z9.965 
G1 X24.140 Y15.395 Z9.965 
G1 X24.185 Y15.439 Z9.965 
G1 X24.227 Y15.490 Z9.965 
G1 X24.335 Y15.696 Z9.965 
G1 X24.400 Y16.123 Z9.965 
G1 X24.363 Y16.454 Z9.965 
G1 X24.227 Y16.755 Z9.965 
G1 X24.073 Y16.902 Z9.965 
G1 X23.891 Y16.976 Z9.965 
G1 X23.827 Y16.985 Z9.965 
G1 X23.759 Y16.989 Z9.965 
G1 X23.543 Y16.952 Z9.965 
G1 X23.375 Y16.851 Z9.965 
G1 X23.330 Y16.807 Z9.965 
G1 X23.289 Y16.757 Z9.965 
G1 X23.180 Y16.551 Z9.965 
G1 X23.116 Y16.123 Z9.965 
G1 X23.116 Y16.123 Z9.960 
G1 X23.152 Y15.789 Z9.960 
G1 X23.287 Y15.489 Z9.960 
G1 X23.440 Y15.344 Z9.960 
G1 X23.623 Y15.270 Z9.960 
G1 X23.689 Y15.260 Z9.960 
G1 X23.759 Y15.257 Z9.960 
G1 X23.973 Y15.294 Z9.960 
G1 X24.140 Y15.395 Z9.960 
G1 X24.185 Y15.439 Z9.960 
G1 X24.227 Y15.490 Z9.960 
G1 X24.335 Y15.696 Z9.960 
G1 X24.400 Y16.123 Z9.960 
G1 X24.363 Y16.454 Z9.960 
G1 X24.227 Y16.755 Z9.960 
G1 X24.073 Y16.902 Z9.960 
G1 X23.891 Y16.976 Z9.960 
G1 X23.827 Y16.985 Z9.960 
G1 X23.759 Y16.989 Z9.960 
G1 X23.543 Y16.952 Z9.960 
G1 X23.375 Y16.851 Z9.960 
G1 X23.330 Y16.807 Z9.960 
G1 X23.289 Y16.757 Z9.960 
G1 X23.180 Y16.551 Z9.960 
G1 X23.116 Y16.123 Z9.960 
G1 X23.116 Y16.123 Z9.955 
G1 X23.152 Y15.789 Z9.955 
G1 X23.287 Y15.489 Z9.955 
G1 X23.440 Y15.344 Z9.955 
G1 X23.623 Y15.270 Z9.955 
G1 X23.689 Y15.260 Z9.955 
G1 X23.759 Y15.257 Z9.955 
G1 X23.973 Y15.294 Z9.955 
G1 X24.140 Y15.395 Z9.955 
G1 X24.185 Y15.439 Z9.955 
G1 X24.227 Y15.490 Z9.955 
G1 X24.335 Y15.696 Z9.955 
G1 X24.400 Y16.123 Z9.955 
G1 X24.363 Y16.454 Z9.955 
G1 X24.227 Y16.755 Z9.955 
G1 X24.073 Y16.902 Z9.955 
G1 X23.891 Y16.976 Z9.955 
G1 X23.827 Y16.985 Z9.955 
G1 X23.759 Y16.989 Z9.955 
G1 X23.543 Y16.952 Z9.955 
G1 X23.375 Y16.851 Z9.955 
G1 X23.330 Y16.807 Z9.955 
G1 X23.289 Y16.757 Z9.955 
G1 X23.180 Y16.551 Z9.955 
G1 X23.116 Y16.123 Z9.955 
G1 X23.116 Y16.123 Z9.950 
G1 X23.152 Y15.789 Z9.950 
G1 X23.287 Y15.489 Z9.950 
G1 X23.440 Y15.344 Z9.950 
G1 X23.623 Y15.270 Z9.950 
G1 X23.689 Y15.260 Z9.950 
G1 X23.759 Y15.257 Z9.950 
G1 X23.973 Y15.294 Z9.950 
G1 X24.140 Y15.395 Z9.950 
G1 X24.185 Y15.439 Z9.950 
G1 X24.227 Y15.490 Z9.950 
G1 X24.335 Y15.696 Z9.950 
G1 X24.400 Y16.123 Z9.950 
G1 X24.363 Y16.454 Z9.950 
G1 X24.227 Y16.755 Z9.950 
G1 X24.073 Y16.902 Z9.950 
G1 X23.891 Y16.976 Z9.950 
G1 X23.827 Y16.985 Z9.950 
G1 X23.759 Y16.989 Z9.950 
G1 X23.543 Y16.952 Z9.950 
G1 X23.375 Y16.851 Z9.950 
G1 X23.330 Y16.807 Z9.950 
G1 X23.289 Y16.757 Z9.950 
G1 X23.180 Y16.551 Z9.950 
G1 X23.116 Y16.123 Z9.950 
G1 X23.116 Y16.123 Z9.945 
G1 X23.152 Y15.789 Z9.945 
G1 X23.287 Y15.489 Z9.945 
G1 X23.440 Y15.344 Z9.945 
G1 X23.623 Y15.270 Z9.945 
G1 X23.689 Y15.260 Z9.945 
G1 X23.759 Y15.257 Z9.945 
G1 X23.973 Y15.294 Z9.945 
G1 X24.140 Y15.395 Z9.945 
G1 X24.185 Y15.439 Z9.945 
G1 X24.227 Y15.490 Z9.945 
G1 X24.335 Y15.696 Z9.945 
G1 X24.400 Y16.123 Z9.945 
G1 X24.363 Y16.454 Z9.945 
G1 X24.227 Y16.755 Z9.945 
G1 X24.073 Y16.902 Z9.945 
G1 X23.891 Y16.976 Z9.945 
G1 X23.827 Y16.985 Z9.945 
G1 X23.759 Y16.989 Z9.945 
G1 X23.543 Y16.952 Z9.945 
G1 X23.375 Y16.851 Z9.945 
G1 X23.330 Y16.807 Z9.945 
G1 X23.289 Y16.757 Z9.945 
G1 X23.180 Y16.551 Z9.945 
G1 X23.116 Y16.123 Z9.945 
G1 X23.116 Y16.123 Z9.940 
G1 X23.152 Y15.789 Z9.940 
G1 X23.287 Y15.489 Z9.940 
G1 X23.440 Y15.344 Z9.940 
G1 X23.623 Y15.270 Z9.940 
G1 X23.689 Y15.260 Z9.940 
G1 X23.759 Y15.257 Z9.940 
G1 X23.973 Y15.294 Z9.940 
G1 X24.140 Y15.395 Z9.940 
G1 X24.185 Y15.439 Z9.940 
G1 X24.227 Y15.490 Z9.940 
G1 X24.335 Y15.696 Z9.940 
G1 X24.400 Y16.123 Z9.940 
G1 X24.363 Y16.454 Z9.940 
G1 X24.227 Y16.755 Z9.940 
G1 X24.073 Y16.902 Z9.940 
G1 X23.891 Y16.976 Z9.940 
G1 X23.827 Y16.985 Z9.940 
G1 X23.759 Y16.989 Z9.940 
G1 X23.543 Y16.952 Z9.940 
G1 X23.375 Y16.851 Z9.940 
G1 X23.330 Y16.807 Z9.940 
G1 X23.289 Y16.757 Z9.940 
G1 X23.180 Y16.551 Z9.940 
G1 X23.116 Y16.123 Z9.940 
G1 X23.116 Y16.123 Z9.935 
G1 X23.152 Y15.789 Z9.935 
G1 X23.287 Y15.489 Z9.935 
G1 X23.440 Y15.344 Z9.935 
G1 X23.623 Y15.270 Z9.935 
G1 X23.689 Y15.260 Z9.935 
G1 X23.759 Y15.257 Z9.935 
G1 X23.973 Y15.294 Z9.935 
G1 X24.140 Y15.395 Z9.935 
G1 X24.185 Y15.439 Z9.935 
G1 X24.227 Y15.490 Z9.935 
G1 X24.335 Y15.696 Z9.935 
G1 X24.400 Y16.123 Z9.935 
G1 X24.363 Y16.454 Z9.935 
G1 X24.227 Y16.755 Z9.935 
G1 X24.073 Y16.902 Z9.935 
G1 X23.891 Y16.976 Z9.935 
G1 X23.827 Y16.985 Z9.935 
G1 X23.759 Y16.989 Z9.935 
G1 X23.543 Y16.952 Z9.935 
G1 X23.375 Y16.851 Z9.935 
G1 X23.330 Y16.807 Z9.935 
G1 X23.289 Y16.757 Z9.935 
G1 X23.180 Y16.551 Z9.935 
G1 X23.116 Y16.123 Z9.935 
G1 X23.116 Y16.123 Z9.930 
G1 X23.152 Y15.789 Z9.930 
G1 X23.287 Y15.489 Z9.930 
G1 X23.440 Y15.344 Z9.930 
G1 X23.623 Y15.270 Z9.930 
G1 X23.689 Y15.260 Z9.930 
G1 X23.759 Y15.257 Z9.930 
G1 X23.973 Y15.294 Z9.930 
G1 X24.140 Y15.395 Z9.930 
G1 X24.185 Y15.439 Z9.930 
G1 X24.227 Y15.490 Z9.930 
G1 X24.335 Y15.696 Z9.930 
G1 X24.400 Y16.123 Z9.930 
G1 X24.363 Y16.454 Z9.930 
G1 X24.227 Y16.755 Z9.930 
G1 X24.073 Y16.902 Z9.930 
G1 X23.891 Y16.976 Z9.930 
G1 X23.827 Y16.985 Z9.930 
G1 X23.759 Y16.989 Z9.930 
G1 X23.543 Y16.952 Z9.930 
G1 X23.375 Y16.851 Z9.930 
G1 X23.330 Y16.807 Z9.930 
G1 X23.289 Y16.757 Z9.930 
G1 X23.180 Y16.551 Z9.930 
G1 X23.116 Y16.123 Z9.930 
G1 X23.116 Y16.123 Z9.925 
G1 X23.152 Y15.789 Z9.925 
G1 X23.287 Y15.489 Z9.925 
G1 X23.440 Y15.344 Z9.925 
G1 X23.623 Y15.270 Z9.925 
G1 X23.689 Y15.260 Z9.925 
G1 X23.759 Y15.257 Z9.925 
G1 X23.973 Y15.294 Z9.925 
G1 X24.140 Y15.395 Z9.925 
G1 X24.185 Y15.439 Z9.925 
G1 X24.227 Y15.490 Z9.925 
G1 X24.335 Y15.696 Z9.925 
G1 X24.400 Y16.123 Z9.925 
G1 X24.363 Y16.454 Z9.925 
G1 X24.227 Y16.755 Z9.925 
G1 X24.073 Y16.902 Z9.925 
G1 X23.891 Y16.976 Z9.925 
G1 X23.827 Y16.985 Z9.925 
G1 X23.759 Y16.989 Z9.925 
G1 X23.543 Y16.952 Z9.925 
G1 X23.375 Y16.851 Z9.925 
G1 X23.330 Y16.807 Z9.925 
G1 X23.289 Y16.757 Z9.925 
G1 X23.180 Y16.551 Z9.925 
G1 X23.116 Y16.123 Z9.925 
G1 X23.116 Y16.123 Z9.920 
G1 X23.152 Y15.789 Z9.920 
G1 X23.287 Y15.489 Z9.920 
G1 X23.440 Y15.344 Z9.920 
G1 X23.623 Y15.270 Z9.920 
G1 X23.689 Y15.260 Z9.920 
G1 X23.759 Y15.257 Z9.920 
G1 X23.973 Y15.294 Z9.920 
G1 X24.140 Y15.395 Z9.920 
G1 X24.185 Y15.439 Z9.920 
G1 X24.227 Y15.490 Z9.920 
G1 X24.335 Y15.696 Z9.920 
G1 X24.400 Y16.123 Z9.920 
G1 X24.363 Y16.454 Z9.920 
G1 X24.227 Y16.755 Z9.920 
G1 X24.073 Y16.902 Z9.920 
G1 X23.891 Y16.976 Z9.920 
G1 X23.827 Y16.985 Z9.920 
G1 X23.759 Y16.989 Z9.920 
G1 X23.543 Y16.952 Z9.920 
G1 X23.375 Y16.851 Z9.920 
G1 X23.330 Y16.807 Z9.920 
G1 X23.289 Y16.757 Z9.920 
G1 X23.180 Y16.551 Z9.920 
G1 X23.116 Y16.123 Z9.920 
G1 X23.116 Y16.123 Z9.915 
G1 X23.152 Y15.789 Z9.915 
G1 X23.287 Y15.489 Z9.915 
G1 X23.440 Y15.344 Z9.915 
G1 X23.623 Y15.270 Z9.915 
G1 X23.689 Y15.260 Z9.915 
G1 X23.759 Y15.257 Z9.915 
G1 X23.973 Y15.294 Z9.915 
G1 X24.140 Y15.395 Z9.915 
G1 X24.185 Y15.439 Z9.915 
G1 X24.227 Y15.490 Z9.915 
G1 X24.335 Y15.696 Z9.915 
G1 X24.400 Y16.123 Z9.915 
G1 X24.363 Y16.454 Z9.915 
G1 X24.227 Y16.755 Z9.915 
G1 X24.073 Y16.902 Z9.915 
G1 X23.891 Y16.976 Z9.915 
G1 X23.827 Y16.985 Z9.915 
G1 X23.759 Y16.989 Z9.915 
G1 X23.543 Y16.952 Z9.915 
G1 X23.375 Y16.851 Z9.915 
G1 X23.330 Y16.807 Z9.915 
G1 X23.289 Y16.757 Z9.915 
G1 X23.180 Y16.551 Z9.915 
G1 X23.116 Y16.123 Z9.915 
G1 X23.116 Y16.123 Z9.910 
G1 X23.152 Y15.789 Z9.910 
G1 X23.287 Y15.489 Z9.910 
G1 X23.440 Y15.344 Z9.910 
G1 X23.623 Y15.270 Z9.910 
G1 X23.689 Y15.260 Z9.910 
G1 X23.759 Y15.257 Z9.910 
G1 X23.973 Y15.294 Z9.910 
G1 X24.140 Y15.395 Z9.910 
G1 X24.185 Y15.439 Z9.910 
G1 X24.227 Y15.490 Z9.910 
G1 X24.335 Y15.696 Z9.910 
G1 X24.400 Y16.123 Z9.910 
G1 X24.363 Y16.454 Z9.910 
G1 X24.227 Y16.755 Z9.910 
G1 X24.073 Y16.902 Z9.910 
G1 X23.891 Y16.976 Z9.910 
G1 X23.827 Y16.985 Z9.910 
G1 X23.759 Y16.989 Z9.910 
G1 X23.543 Y16.952 Z9.910 
G1 X23.375 Y16.851 Z9.910 
G1 X23.330 Y16.807 Z9.910 
G1 X23.289 Y16.757 Z9.910 
G1 X23.180 Y16.551 Z9.910 
G1 X23.116 Y16.123 Z9.910 
G1 X23.116 Y16.123 Z9.905 
G1 X23.152 Y15.789 Z9.905 
G1 X23.287 Y15.489 Z9.905 
G1 X23.440 Y15.344 Z9.905 
G1 X23.623 Y15.270 Z9.905 
G1 X23.689 Y15.260 Z9.905 
G1 X23.759 Y15.257 Z9.905 
G1 X23.973 Y15.294 Z9.905 
G1 X24.140 Y15.395 Z9.905 
G1 X24.185 Y15.439 Z9.905 
G1 X24.227 Y15.490 Z9.905 
G1 X24.335 Y15.696 Z9.905 
G1 X24.400 Y16.123 Z9.905 
G1 X24.363 Y16.454 Z9.905 
G1 X24.227 Y16.755 Z9.905 
G1 X24.073 Y16.902 Z9.905 
G1 X23.891 Y16.976 Z9.905 
G1 X23.827 Y16.985 Z9.905 
G1 X23.759 Y16.989 Z9.905 
G1 X23.543 Y16.952 Z9.905 
G1 X23.375 Y16.851 Z9.905 
G1 X23.330 Y16.807 Z9.905 
G1 X23.289 Y16.757 Z9.905 
G1 X23.180 Y16.551 Z9.905 
G1 X23.116 Y16.123 Z9.905 
G1 X23.116 Y16.123 Z9.900 
G1 X23.152 Y15.789 Z9.900 
G1 X23.287 Y15.489 Z9.900 
G1 X23.440 Y15.344 Z9.900 
G1 X23.623 Y15.270 Z9.900 
G1 X23.689 Y15.260 Z9.900 
G1 X23.759 Y15.257 Z9.900 
G1 X23.973 Y15.294 Z9.900 
G1 X24.140 Y15.395 Z9.900 
G1 X24.185 Y15.439 Z9.900 
G1 X24.227 Y15.490 Z9.900 
G1 X24.335 Y15.696 Z9.900 
G1 X24.400 Y16.123 Z9.900 
G1 X24.363 Y16.454 Z9.900 
G1 X24.227 Y16.755 Z9.900 
G1 X24.073 Y16.902 Z9.900 
G1 X23.891 Y16.976 Z9.900 
G1 X23.827 Y16.985 Z9.900 
G1 X23.759 Y16.989 Z9.900 
G1 X23.543 Y16.952 Z9.900 
G1 X23.375 Y16.851 Z9.900 
G1 X23.330 Y16.807 Z9.900 
G1 X23.289 Y16.757 Z9.900 
G1 X23.180 Y16.551 Z9.900 
G1 X23.116 Y16.123 Z9.900 
G0 Z15.001 
(finish operation: Engrave)
(begin postamble)
M05
G17 G54 G90 G80 G40
M2
