(Exported by FreeCAD)
(Post Processor: script_module)
(Output Time:2025-05-21 11:18:45.438458)
(begin preamble)
G17 G54 G40 G49 G80 G90
G21
(begin operation: Fixture)
(machine units: mm/min)
G54 
(finish operation: Fixture)
(begin operation: TC: Default Tool)
(machine units: mm/min)
(TC: Default Tool) 
M5
M6 T1 
G43 H1 
(finish operation: TC: Default Tool)
(begin operation: Pocket_Shape)
(machine units: mm/min)
(Pocket_Shape) 
G0 Z10.001 
G0 X2.531 Y2.531 
G0 Z8.001 
G1 X2.531 Y2.531 Z4.996 
G1 X2.336 Y2.531 Z4.996 
G1 X2.336 Y2.528 Z4.996 
G1 X2.531 Y2.528 Z4.996 
G1 X2.531 Y2.526 Z4.996 
G1 X2.336 Y2.526 Z4.996 
G1 X2.336 Y2.523 Z4.996 
G1 X2.531 Y2.523 Z4.996 
G1 X2.531 Y2.521 Z4.996 
G1 X2.336 Y2.521 Z4.996 
G1 X2.336 Y2.518 Z4.996 
G1 X2.531 Y2.518 Z4.996 
G1 X2.531 Y2.516 Z4.996 
G1 X2.336 Y2.516 Z4.996 
G1 X2.336 Y2.513 Z4.996 
G1 X2.531 Y2.513 Z4.996 
G1 X2.531 Y2.511 Z4.996 
G1 X2.336 Y2.511 Z4.996 
G1 X2.336 Y2.508 Z4.996 
G1 X2.531 Y2.508 Z4.996 
G1 X2.531 Y2.506 Z4.996 
G1 X2.336 Y2.506 Z4.996 
G1 X2.336 Y2.503 Z4.996 
G1 X2.531 Y2.503 Z4.996 
G1 X2.531 Y2.501 Z4.996 
G1 X2.336 Y2.501 Z4.996 
G1 X2.336 Y2.498 Z4.996 
G1 X2.531 Y2.498 Z4.996 
G1 X2.531 Y2.496 Z4.996 
G1 X2.336 Y2.496 Z4.996 
G1 X2.336 Y2.493 Z4.996 
G1 X2.531 Y2.493 Z4.996 
G1 X2.531 Y2.491 Z4.996 
G1 X2.336 Y2.491 Z4.996 
G1 X2.336 Y2.488 Z4.996 
G1 X2.531 Y2.488 Z4.996 
G1 X2.531 Y2.486 Z4.996 
G1 X2.336 Y2.486 Z4.996 
G1 X2.336 Y2.483 Z4.996 
G1 X2.531 Y2.483 Z4.996 
G1 X2.531 Y2.481 Z4.996 
G1 X2.336 Y2.481 Z4.996 
G1 X2.336 Y2.478 Z4.996 
G1 X2.531 Y2.478 Z4.996 
G1 X2.531 Y2.476 Z4.996 
G1 X2.336 Y2.476 Z4.996 
G1 X2.336 Y2.473 Z4.996 
G1 X2.531 Y2.473 Z4.996 
G1 X2.531 Y2.471 Z4.996 
G1 X2.336 Y2.471 Z4.996 
G1 X2.336 Y2.468 Z4.996 
G1 X2.531 Y2.468 Z4.996 
G1 X2.531 Y2.466 Z4.996 
G1 X2.336 Y2.466 Z4.996 
G1 X2.336 Y2.463 Z4.996 
G1 X2.531 Y2.463 Z4.996 
G1 X2.531 Y2.461 Z4.996 
G1 X2.336 Y2.461 Z4.996 
G1 X2.336 Y2.458 Z4.996 
G1 X2.531 Y2.458 Z4.996 
G1 X2.531 Y2.456 Z4.996 
G1 X2.336 Y2.456 Z4.996 
G1 X2.336 Y2.453 Z4.996 
G1 X2.531 Y2.453 Z4.996 
G1 X2.531 Y2.451 Z4.996 
G1 X2.336 Y2.451 Z4.996 
G1 X2.336 Y2.448 Z4.996 
G1 X2.531 Y2.448 Z4.996 
G1 X2.531 Y2.446 Z4.996 
G1 X2.336 Y2.446 Z4.996 
G1 X2.336 Y2.443 Z4.996 
G1 X2.531 Y2.443 Z4.996 
G1 X2.531 Y2.441 Z4.996 
G1 X2.336 Y2.441 Z4.996 
G1 X2.336 Y2.438 Z4.996 
G1 X2.531 Y2.438 Z4.996 
G1 X2.531 Y2.436 Z4.996 
G1 X2.336 Y2.436 Z4.996 
G1 X2.336 Y2.433 Z4.996 
G1 X2.531 Y2.433 Z4.996 
G1 X2.531 Y2.431 Z4.996 
G1 X2.336 Y2.431 Z4.996 
G1 X2.336 Y2.428 Z4.996 
G1 X2.531 Y2.428 Z4.996 
G1 X2.531 Y2.426 Z4.996 
G1 X2.336 Y2.426 Z4.996 
G1 X2.336 Y2.423 Z4.996 
G1 X2.531 Y2.423 Z4.996 
G1 X2.531 Y2.421 Z4.996 
G1 X2.336 Y2.421 Z4.996 
G1 X2.336 Y2.418 Z4.996 
G1 X2.531 Y2.418 Z4.996 
G1 X2.531 Y2.416 Z4.996 
G1 X2.336 Y2.416 Z4.996 
G1 X2.336 Y2.413 Z4.996 
G1 X2.531 Y2.413 Z4.996 
G1 X2.531 Y2.411 Z4.996 
G1 X2.336 Y2.411 Z4.996 
G1 X2.336 Y2.408 Z4.996 
G1 X2.531 Y2.408 Z4.996 
G1 X2.531 Y2.406 Z4.996 
G1 X2.336 Y2.406 Z4.996 
G1 X2.336 Y2.403 Z4.996 
G1 X2.531 Y2.403 Z4.996 
G1 X2.531 Y2.401 Z4.996 
G1 X2.336 Y2.401 Z4.996 
G1 X2.336 Y2.398 Z4.996 
G1 X2.531 Y2.398 Z4.996 
G1 X2.531 Y2.396 Z4.996 
G1 X2.336 Y2.396 Z4.996 
G1 X2.336 Y2.393 Z4.996 
G1 X2.531 Y2.393 Z4.996 
G1 X2.531 Y2.391 Z4.996 
G1 X2.336 Y2.391 Z4.996 
G1 X2.336 Y2.388 Z4.996 
G1 X2.531 Y2.388 Z4.996 
G1 X2.531 Y2.386 Z4.996 
G1 X2.336 Y2.386 Z4.996 
G1 X2.336 Y2.383 Z4.996 
G1 X2.531 Y2.383 Z4.996 
G1 X2.531 Y2.381 Z4.996 
G1 X2.336 Y2.381 Z4.996 
G1 X2.336 Y2.378 Z4.996 
G1 X2.531 Y2.378 Z4.996 
G1 X2.531 Y2.376 Z4.996 
G1 X2.336 Y2.376 Z4.996 
G1 X2.336 Y2.373 Z4.996 
G1 X2.531 Y2.373 Z4.996 
G1 X2.531 Y2.371 Z4.996 
G1 X2.336 Y2.371 Z4.996 
G1 X2.336 Y2.368 Z4.996 
G1 X2.531 Y2.368 Z4.996 
G1 X2.531 Y2.366 Z4.996 
G1 X2.336 Y2.366 Z4.996 
G1 X2.336 Y2.363 Z4.996 
G1 X2.531 Y2.363 Z4.996 
G1 X2.531 Y2.361 Z4.996 
G1 X2.336 Y2.361 Z4.996 
G1 X2.336 Y2.358 Z4.996 
G1 X2.531 Y2.358 Z4.996 
G1 X2.531 Y2.356 Z4.996 
G1 X2.336 Y2.356 Z4.996 
G1 X2.336 Y2.353 Z4.996 
G1 X2.531 Y2.353 Z4.996 
G1 X2.531 Y2.351 Z4.996 
G1 X2.336 Y2.351 Z4.996 
G1 X2.336 Y2.348 Z4.996 
G1 X2.531 Y2.348 Z4.996 
G1 X2.531 Y2.346 Z4.996 
G1 X2.336 Y2.346 Z4.996 
G1 X2.336 Y2.343 Z4.996 
G1 X2.531 Y2.343 Z4.996 
G1 X2.531 Y2.341 Z4.996 
G1 X2.336 Y2.341 Z4.996 
G1 X2.336 Y2.338 Z4.996 
G1 X2.531 Y2.338 Z4.996 
G1 X2.531 Y2.336 Z4.996 
G1 X2.336 Y2.336 Z4.996 
G1 X2.336 Y2.336 Z4.991 
G1 X2.531 Y2.336 Z4.991 
G1 X2.531 Y2.338 Z4.991 
G1 X2.336 Y2.338 Z4.991 
G1 X2.336 Y2.341 Z4.991 
G1 X2.531 Y2.341 Z4.991 
G1 X2.531 Y2.343 Z4.991 
G1 X2.336 Y2.343 Z4.991 
G1 X2.336 Y2.346 Z4.991 
G1 X2.531 Y2.346 Z4.991 
G1 X2.531 Y2.348 Z4.991 
G1 X2.336 Y2.348 Z4.991 
G1 X2.336 Y2.351 Z4.991 
G1 X2.531 Y2.351 Z4.991 
G1 X2.531 Y2.353 Z4.991 
G1 X2.336 Y2.353 Z4.991 
G1 X2.336 Y2.356 Z4.991 
G1 X2.531 Y2.356 Z4.991 
G1 X2.531 Y2.358 Z4.991 
G1 X2.336 Y2.358 Z4.991 
G1 X2.336 Y2.361 Z4.991 
G1 X2.531 Y2.361 Z4.991 
G1 X2.531 Y2.363 Z4.991 
G1 X2.336 Y2.363 Z4.991 
G1 X2.336 Y2.366 Z4.991 
G1 X2.531 Y2.366 Z4.991 
G1 X2.531 Y2.368 Z4.991 
G1 X2.336 Y2.368 Z4.991 
G1 X2.336 Y2.371 Z4.991 
G1 X2.531 Y2.371 Z4.991 
G1 X2.531 Y2.373 Z4.991 
G1 X2.336 Y2.373 Z4.991 
G1 X2.336 Y2.376 Z4.991 
G1 X2.531 Y2.376 Z4.991 
G1 X2.531 Y2.378 Z4.991 
G1 X2.336 Y2.378 Z4.991 
G1 X2.336 Y2.381 Z4.991 
G1 X2.531 Y2.381 Z4.991 
G1 X2.531 Y2.383 Z4.991 
G1 X2.336 Y2.383 Z4.991 
G1 X2.336 Y2.386 Z4.991 
G1 X2.531 Y2.386 Z4.991 
G1 X2.531 Y2.388 Z4.991 
G1 X2.336 Y2.388 Z4.991 
G1 X2.336 Y2.391 Z4.991 
G1 X2.531 Y2.391 Z4.991 
G1 X2.531 Y2.393 Z4.991 
G1 X2.336 Y2.393 Z4.991 
G1 X2.336 Y2.396 Z4.991 
G1 X2.531 Y2.396 Z4.991 
G1 X2.531 Y2.398 Z4.991 
G1 X2.336 Y2.398 Z4.991 
G1 X2.336 Y2.401 Z4.991 
G1 X2.531 Y2.401 Z4.991 
G1 X2.531 Y2.403 Z4.991 
G1 X2.336 Y2.403 Z4.991 
G1 X2.336 Y2.406 Z4.991 
G1 X2.531 Y2.406 Z4.991 
G1 X2.531 Y2.408 Z4.991 
G1 X2.336 Y2.408 Z4.991 
G1 X2.336 Y2.411 Z4.991 
G1 X2.531 Y2.411 Z4.991 
G1 X2.531 Y2.413 Z4.991 
G1 X2.336 Y2.413 Z4.991 
G1 X2.336 Y2.416 Z4.991 
G1 X2.531 Y2.416 Z4.991 
G1 X2.531 Y2.418 Z4.991 
G1 X2.336 Y2.418 Z4.991 
G1 X2.336 Y2.421 Z4.991 
G1 X2.531 Y2.421 Z4.991 
G1 X2.531 Y2.423 Z4.991 
G1 X2.336 Y2.423 Z4.991 
G1 X2.336 Y2.426 Z4.991 
G1 X2.531 Y2.426 Z4.991 
G1 X2.531 Y2.428 Z4.991 
G1 X2.336 Y2.428 Z4.991 
G1 X2.336 Y2.431 Z4.991 
G1 X2.531 Y2.431 Z4.991 
G1 X2.531 Y2.433 Z4.991 
G1 X2.336 Y2.433 Z4.991 
G1 X2.336 Y2.436 Z4.991 
G1 X2.531 Y2.436 Z4.991 
G1 X2.531 Y2.438 Z4.991 
G1 X2.336 Y2.438 Z4.991 
G1 X2.336 Y2.441 Z4.991 
G1 X2.531 Y2.441 Z4.991 
G1 X2.531 Y2.443 Z4.991 
G1 X2.336 Y2.443 Z4.991 
G1 X2.336 Y2.446 Z4.991 
G1 X2.531 Y2.446 Z4.991 
G1 X2.531 Y2.448 Z4.991 
G1 X2.336 Y2.448 Z4.991 
G1 X2.336 Y2.451 Z4.991 
G1 X2.531 Y2.451 Z4.991 
G1 X2.531 Y2.453 Z4.991 
G1 X2.336 Y2.453 Z4.991 
G1 X2.336 Y2.456 Z4.991 
G1 X2.531 Y2.456 Z4.991 
G1 X2.531 Y2.458 Z4.991 
G1 X2.336 Y2.458 Z4.991 
G1 X2.336 Y2.461 Z4.991 
G1 X2.531 Y2.461 Z4.991 
G1 X2.531 Y2.463 Z4.991 
G1 X2.336 Y2.463 Z4.991 
G1 X2.336 Y2.466 Z4.991 
G1 X2.531 Y2.466 Z4.991 
G1 X2.531 Y2.468 Z4.991 
G1 X2.336 Y2.468 Z4.991 
G1 X2.336 Y2.471 Z4.991 
G1 X2.531 Y2.471 Z4.991 
G1 X2.531 Y2.473 Z4.991 
G1 X2.336 Y2.473 Z4.991 
G1 X2.336 Y2.476 Z4.991 
G1 X2.531 Y2.476 Z4.991 
G1 X2.531 Y2.478 Z4.991 
G1 X2.336 Y2.478 Z4.991 
G1 X2.336 Y2.481 Z4.991 
G1 X2.531 Y2.481 Z4.991 
G1 X2.531 Y2.483 Z4.991 
G1 X2.336 Y2.483 Z4.991 
G1 X2.336 Y2.486 Z4.991 
G1 X2.531 Y2.486 Z4.991 
G1 X2.531 Y2.488 Z4.991 
G1 X2.336 Y2.488 Z4.991 
G1 X2.336 Y2.491 Z4.991 
G1 X2.531 Y2.491 Z4.991 
G1 X2.531 Y2.493 Z4.991 
G1 X2.336 Y2.493 Z4.991 
G1 X2.336 Y2.496 Z4.991 
G1 X2.531 Y2.496 Z4.991 
G1 X2.531 Y2.498 Z4.991 
G1 X2.336 Y2.498 Z4.991 
G1 X2.336 Y2.501 Z4.991 
G1 X2.531 Y2.501 Z4.991 
G1 X2.531 Y2.503 Z4.991 
G1 X2.336 Y2.503 Z4.991 
G1 X2.336 Y2.506 Z4.991 
G1 X2.531 Y2.506 Z4.991 
G1 X2.531 Y2.508 Z4.991 
G1 X2.336 Y2.508 Z4.991 
G1 X2.336 Y2.511 Z4.991 
G1 X2.531 Y2.511 Z4.991 
G1 X2.531 Y2.513 Z4.991 
G1 X2.336 Y2.513 Z4.991 
G1 X2.336 Y2.516 Z4.991 
G1 X2.531 Y2.516 Z4.991 
G1 X2.531 Y2.518 Z4.991 
G1 X2.336 Y2.518 Z4.991 
G1 X2.336 Y2.521 Z4.991 
G1 X2.531 Y2.521 Z4.991 
G1 X2.531 Y2.523 Z4.991 
G1 X2.336 Y2.523 Z4.991 
G1 X2.336 Y2.526 Z4.991 
G1 X2.531 Y2.526 Z4.991 
G1 X2.531 Y2.528 Z4.991 
G1 X2.336 Y2.528 Z4.991 
G1 X2.336 Y2.531 Z4.991 
G1 X2.531 Y2.531 Z4.991 
G1 X2.531 Y2.531 Z4.986 
G1 X2.336 Y2.531 Z4.986 
G1 X2.336 Y2.528 Z4.986 
G1 X2.531 Y2.528 Z4.986 
G1 X2.531 Y2.526 Z4.986 
G1 X2.336 Y2.526 Z4.986 
G1 X2.336 Y2.523 Z4.986 
G1 X2.531 Y2.523 Z4.986 
G1 X2.531 Y2.521 Z4.986 
G1 X2.336 Y2.521 Z4.986 
G1 X2.336 Y2.518 Z4.986 
G1 X2.531 Y2.518 Z4.986 
G1 X2.531 Y2.516 Z4.986 
G1 X2.336 Y2.516 Z4.986 
G1 X2.336 Y2.513 Z4.986 
G1 X2.531 Y2.513 Z4.986 
G1 X2.531 Y2.511 Z4.986 
G1 X2.336 Y2.511 Z4.986 
G1 X2.336 Y2.508 Z4.986 
G1 X2.531 Y2.508 Z4.986 
G1 X2.531 Y2.506 Z4.986 
G1 X2.336 Y2.506 Z4.986 
G1 X2.336 Y2.503 Z4.986 
G1 X2.531 Y2.503 Z4.986 
G1 X2.531 Y2.501 Z4.986 
G1 X2.336 Y2.501 Z4.986 
G1 X2.336 Y2.498 Z4.986 
G1 X2.531 Y2.498 Z4.986 
G1 X2.531 Y2.496 Z4.986 
G1 X2.336 Y2.496 Z4.986 
G1 X2.336 Y2.493 Z4.986 
G1 X2.531 Y2.493 Z4.986 
G1 X2.531 Y2.491 Z4.986 
G1 X2.336 Y2.491 Z4.986 
G1 X2.336 Y2.488 Z4.986 
G1 X2.531 Y2.488 Z4.986 
G1 X2.531 Y2.486 Z4.986 
G1 X2.336 Y2.486 Z4.986 
G1 X2.336 Y2.483 Z4.986 
G1 X2.531 Y2.483 Z4.986 
G1 X2.531 Y2.481 Z4.986 
G1 X2.336 Y2.481 Z4.986 
G1 X2.336 Y2.478 Z4.986 
G1 X2.531 Y2.478 Z4.986 
G1 X2.531 Y2.476 Z4.986 
G1 X2.336 Y2.476 Z4.986 
G1 X2.336 Y2.473 Z4.986 
G1 X2.531 Y2.473 Z4.986 
G1 X2.531 Y2.471 Z4.986 
G1 X2.336 Y2.471 Z4.986 
G1 X2.336 Y2.468 Z4.986 
G1 X2.531 Y2.468 Z4.986 
G1 X2.531 Y2.466 Z4.986 
G1 X2.336 Y2.466 Z4.986 
G1 X2.336 Y2.463 Z4.986 
G1 X2.531 Y2.463 Z4.986 
G1 X2.531 Y2.461 Z4.986 
G1 X2.336 Y2.461 Z4.986 
G1 X2.336 Y2.458 Z4.986 
G1 X2.531 Y2.458 Z4.986 
G1 X2.531 Y2.456 Z4.986 
G1 X2.336 Y2.456 Z4.986 
G1 X2.336 Y2.453 Z4.986 
G1 X2.531 Y2.453 Z4.986 
G1 X2.531 Y2.451 Z4.986 
G1 X2.336 Y2.451 Z4.986 
G1 X2.336 Y2.448 Z4.986 
G1 X2.531 Y2.448 Z4.986 
G1 X2.531 Y2.446 Z4.986 
G1 X2.336 Y2.446 Z4.986 
G1 X2.336 Y2.443 Z4.986 
G1 X2.531 Y2.443 Z4.986 
G1 X2.531 Y2.441 Z4.986 
G1 X2.336 Y2.441 Z4.986 
G1 X2.336 Y2.438 Z4.986 
G1 X2.531 Y2.438 Z4.986 
G1 X2.531 Y2.436 Z4.986 
G1 X2.336 Y2.436 Z4.986 
G1 X2.336 Y2.433 Z4.986 
G1 X2.531 Y2.433 Z4.986 
G1 X2.531 Y2.431 Z4.986 
G1 X2.336 Y2.431 Z4.986 
G1 X2.336 Y2.428 Z4.986 
G1 X2.531 Y2.428 Z4.986 
G1 X2.531 Y2.426 Z4.986 
G1 X2.336 Y2.426 Z4.986 
G1 X2.336 Y2.423 Z4.986 
G1 X2.531 Y2.423 Z4.986 
G1 X2.531 Y2.421 Z4.986 
G1 X2.336 Y2.421 Z4.986 
G1 X2.336 Y2.418 Z4.986 
G1 X2.531 Y2.418 Z4.986 
G1 X2.531 Y2.416 Z4.986 
G1 X2.336 Y2.416 Z4.986 
G1 X2.336 Y2.413 Z4.986 
G1 X2.531 Y2.413 Z4.986 
G1 X2.531 Y2.411 Z4.986 
G1 X2.336 Y2.411 Z4.986 
G1 X2.336 Y2.408 Z4.986 
G1 X2.531 Y2.408 Z4.986 
G1 X2.531 Y2.406 Z4.986 
G1 X2.336 Y2.406 Z4.986 
G1 X2.336 Y2.403 Z4.986 
G1 X2.531 Y2.403 Z4.986 
G1 X2.531 Y2.401 Z4.986 
G1 X2.336 Y2.401 Z4.986 
G1 X2.336 Y2.398 Z4.986 
G1 X2.531 Y2.398 Z4.986 
G1 X2.531 Y2.396 Z4.986 
G1 X2.336 Y2.396 Z4.986 
G1 X2.336 Y2.393 Z4.986 
G1 X2.531 Y2.393 Z4.986 
G1 X2.531 Y2.391 Z4.986 
G1 X2.336 Y2.391 Z4.986 
G1 X2.336 Y2.388 Z4.986 
G1 X2.531 Y2.388 Z4.986 
G1 X2.531 Y2.386 Z4.986 
G1 X2.336 Y2.386 Z4.986 
G1 X2.336 Y2.383 Z4.986 
G1 X2.531 Y2.383 Z4.986 
G1 X2.531 Y2.381 Z4.986 
G1 X2.336 Y2.381 Z4.986 
G1 X2.336 Y2.378 Z4.986 
G1 X2.531 Y2.378 Z4.986 
G1 X2.531 Y2.376 Z4.986 
G1 X2.336 Y2.376 Z4.986 
G1 X2.336 Y2.373 Z4.986 
G1 X2.531 Y2.373 Z4.986 
G1 X2.531 Y2.371 Z4.986 
G1 X2.336 Y2.371 Z4.986 
G1 X2.336 Y2.368 Z4.986 
G1 X2.531 Y2.368 Z4.986 
G1 X2.531 Y2.366 Z4.986 
G1 X2.336 Y2.366 Z4.986 
G1 X2.336 Y2.363 Z4.986 
G1 X2.531 Y2.363 Z4.986 
G1 X2.531 Y2.361 Z4.986 
G1 X2.336 Y2.361 Z4.986 
G1 X2.336 Y2.358 Z4.986 
G1 X2.531 Y2.358 Z4.986 
G1 X2.531 Y2.356 Z4.986 
G1 X2.336 Y2.356 Z4.986 
G1 X2.336 Y2.353 Z4.986 
G1 X2.531 Y2.353 Z4.986 
G1 X2.531 Y2.351 Z4.986 
G1 X2.336 Y2.351 Z4.986 
G1 X2.336 Y2.348 Z4.986 
G1 X2.531 Y2.348 Z4.986 
G1 X2.531 Y2.346 Z4.986 
G1 X2.336 Y2.346 Z4.986 
G1 X2.336 Y2.343 Z4.986 
G1 X2.531 Y2.343 Z4.986 
G1 X2.531 Y2.341 Z4.986 
G1 X2.336 Y2.341 Z4.986 
G1 X2.336 Y2.338 Z4.986 
G1 X2.531 Y2.338 Z4.986 
G1 X2.531 Y2.336 Z4.986 
G1 X2.336 Y2.336 Z4.986 
G1 X2.336 Y2.336 Z4.981 
G1 X2.531 Y2.336 Z4.981 
G1 X2.531 Y2.338 Z4.981 
G1 X2.336 Y2.338 Z4.981 
G1 X2.336 Y2.341 Z4.981 
G1 X2.531 Y2.341 Z4.981 
G1 X2.531 Y2.343 Z4.981 
G1 X2.336 Y2.343 Z4.981 
G1 X2.336 Y2.346 Z4.981 
G1 X2.531 Y2.346 Z4.981 
G1 X2.531 Y2.348 Z4.981 
G1 X2.336 Y2.348 Z4.981 
G1 X2.336 Y2.351 Z4.981 
G1 X2.531 Y2.351 Z4.981 
G1 X2.531 Y2.353 Z4.981 
G1 X2.336 Y2.353 Z4.981 
G1 X2.336 Y2.356 Z4.981 
G1 X2.531 Y2.356 Z4.981 
G1 X2.531 Y2.358 Z4.981 
G1 X2.336 Y2.358 Z4.981 
G1 X2.336 Y2.361 Z4.981 
G1 X2.531 Y2.361 Z4.981 
G1 X2.531 Y2.363 Z4.981 
G1 X2.336 Y2.363 Z4.981 
G1 X2.336 Y2.366 Z4.981 
G1 X2.531 Y2.366 Z4.981 
G1 X2.531 Y2.368 Z4.981 
G1 X2.336 Y2.368 Z4.981 
G1 X2.336 Y2.371 Z4.981 
G1 X2.531 Y2.371 Z4.981 
G1 X2.531 Y2.373 Z4.981 
G1 X2.336 Y2.373 Z4.981 
G1 X2.336 Y2.376 Z4.981 
G1 X2.531 Y2.376 Z4.981 
G1 X2.531 Y2.378 Z4.981 
G1 X2.336 Y2.378 Z4.981 
G1 X2.336 Y2.381 Z4.981 
G1 X2.531 Y2.381 Z4.981 
G1 X2.531 Y2.383 Z4.981 
G1 X2.336 Y2.383 Z4.981 
G1 X2.336 Y2.386 Z4.981 
G1 X2.531 Y2.386 Z4.981 
G1 X2.531 Y2.388 Z4.981 
G1 X2.336 Y2.388 Z4.981 
G1 X2.336 Y2.391 Z4.981 
G1 X2.531 Y2.391 Z4.981 
G1 X2.531 Y2.393 Z4.981 
G1 X2.336 Y2.393 Z4.981 
G1 X2.336 Y2.396 Z4.981 
G1 X2.531 Y2.396 Z4.981 
G1 X2.531 Y2.398 Z4.981 
G1 X2.336 Y2.398 Z4.981 
G1 X2.336 Y2.401 Z4.981 
G1 X2.531 Y2.401 Z4.981 
G1 X2.531 Y2.403 Z4.981 
G1 X2.336 Y2.403 Z4.981 
G1 X2.336 Y2.406 Z4.981 
G1 X2.531 Y2.406 Z4.981 
G1 X2.531 Y2.408 Z4.981 
G1 X2.336 Y2.408 Z4.981 
G1 X2.336 Y2.411 Z4.981 
G1 X2.531 Y2.411 Z4.981 
G1 X2.531 Y2.413 Z4.981 
G1 X2.336 Y2.413 Z4.981 
G1 X2.336 Y2.416 Z4.981 
G1 X2.531 Y2.416 Z4.981 
G1 X2.531 Y2.418 Z4.981 
G1 X2.336 Y2.418 Z4.981 
G1 X2.336 Y2.421 Z4.981 
G1 X2.531 Y2.421 Z4.981 
G1 X2.531 Y2.423 Z4.981 
G1 X2.336 Y2.423 Z4.981 
G1 X2.336 Y2.426 Z4.981 
G1 X2.531 Y2.426 Z4.981 
G1 X2.531 Y2.428 Z4.981 
G1 X2.336 Y2.428 Z4.981 
G1 X2.336 Y2.431 Z4.981 
G1 X2.531 Y2.431 Z4.981 
G1 X2.531 Y2.433 Z4.981 
G1 X2.336 Y2.433 Z4.981 
G1 X2.336 Y2.436 Z4.981 
G1 X2.531 Y2.436 Z4.981 
G1 X2.531 Y2.438 Z4.981 
G1 X2.336 Y2.438 Z4.981 
G1 X2.336 Y2.441 Z4.981 
G1 X2.531 Y2.441 Z4.981 
G1 X2.531 Y2.443 Z4.981 
G1 X2.336 Y2.443 Z4.981 
G1 X2.336 Y2.446 Z4.981 
G1 X2.531 Y2.446 Z4.981 
G1 X2.531 Y2.448 Z4.981 
G1 X2.336 Y2.448 Z4.981 
G1 X2.336 Y2.451 Z4.981 
G1 X2.531 Y2.451 Z4.981 
G1 X2.531 Y2.453 Z4.981 
G1 X2.336 Y2.453 Z4.981 
G1 X2.336 Y2.456 Z4.981 
G1 X2.531 Y2.456 Z4.981 
G1 X2.531 Y2.458 Z4.981 
G1 X2.336 Y2.458 Z4.981 
G1 X2.336 Y2.461 Z4.981 
G1 X2.531 Y2.461 Z4.981 
G1 X2.531 Y2.463 Z4.981 
G1 X2.336 Y2.463 Z4.981 
G1 X2.336 Y2.466 Z4.981 
G1 X2.531 Y2.466 Z4.981 
G1 X2.531 Y2.468 Z4.981 
G1 X2.336 Y2.468 Z4.981 
G1 X2.336 Y2.471 Z4.981 
G1 X2.531 Y2.471 Z4.981 
G1 X2.531 Y2.473 Z4.981 
G1 X2.336 Y2.473 Z4.981 
G1 X2.336 Y2.476 Z4.981 
G1 X2.531 Y2.476 Z4.981 
G1 X2.531 Y2.478 Z4.981 
G1 X2.336 Y2.478 Z4.981 
G1 X2.336 Y2.481 Z4.981 
G1 X2.531 Y2.481 Z4.981 
G1 X2.531 Y2.483 Z4.981 
G1 X2.336 Y2.483 Z4.981 
G1 X2.336 Y2.486 Z4.981 
G1 X2.531 Y2.486 Z4.981 
G1 X2.531 Y2.488 Z4.981 
G1 X2.336 Y2.488 Z4.981 
G1 X2.336 Y2.491 Z4.981 
G1 X2.531 Y2.491 Z4.981 
G1 X2.531 Y2.493 Z4.981 
G1 X2.336 Y2.493 Z4.981 
G1 X2.336 Y2.496 Z4.981 
G1 X2.531 Y2.496 Z4.981 
G1 X2.531 Y2.498 Z4.981 
G1 X2.336 Y2.498 Z4.981 
G1 X2.336 Y2.501 Z4.981 
G1 X2.531 Y2.501 Z4.981 
G1 X2.531 Y2.503 Z4.981 
G1 X2.336 Y2.503 Z4.981 
G1 X2.336 Y2.506 Z4.981 
G1 X2.531 Y2.506 Z4.981 
G1 X2.531 Y2.508 Z4.981 
G1 X2.336 Y2.508 Z4.981 
G1 X2.336 Y2.511 Z4.981 
G1 X2.531 Y2.511 Z4.981 
G1 X2.531 Y2.513 Z4.981 
G1 X2.336 Y2.513 Z4.981 
G1 X2.336 Y2.516 Z4.981 
G1 X2.531 Y2.516 Z4.981 
G1 X2.531 Y2.518 Z4.981 
G1 X2.336 Y2.518 Z4.981 
G1 X2.336 Y2.521 Z4.981 
G1 X2.531 Y2.521 Z4.981 
G1 X2.531 Y2.523 Z4.981 
G1 X2.336 Y2.523 Z4.981 
G1 X2.336 Y2.526 Z4.981 
G1 X2.531 Y2.526 Z4.981 
G1 X2.531 Y2.528 Z4.981 
G1 X2.336 Y2.528 Z4.981 
G1 X2.336 Y2.531 Z4.981 
G1 X2.531 Y2.531 Z4.981 
G1 X2.531 Y2.531 Z4.976 
G1 X2.336 Y2.531 Z4.976 
G1 X2.336 Y2.528 Z4.976 
G1 X2.531 Y2.528 Z4.976 
G1 X2.531 Y2.526 Z4.976 
G1 X2.336 Y2.526 Z4.976 
G1 X2.336 Y2.523 Z4.976 
G1 X2.531 Y2.523 Z4.976 
G1 X2.531 Y2.521 Z4.976 
G1 X2.336 Y2.521 Z4.976 
G1 X2.336 Y2.518 Z4.976 
G1 X2.531 Y2.518 Z4.976 
G1 X2.531 Y2.516 Z4.976 
G1 X2.336 Y2.516 Z4.976 
G1 X2.336 Y2.513 Z4.976 
G1 X2.531 Y2.513 Z4.976 
G1 X2.531 Y2.511 Z4.976 
G1 X2.336 Y2.511 Z4.976 
G1 X2.336 Y2.508 Z4.976 
G1 X2.531 Y2.508 Z4.976 
G1 X2.531 Y2.506 Z4.976 
G1 X2.336 Y2.506 Z4.976 
G1 X2.336 Y2.503 Z4.976 
G1 X2.531 Y2.503 Z4.976 
G1 X2.531 Y2.501 Z4.976 
G1 X2.336 Y2.501 Z4.976 
G1 X2.336 Y2.498 Z4.976 
G1 X2.531 Y2.498 Z4.976 
G1 X2.531 Y2.496 Z4.976 
G1 X2.336 Y2.496 Z4.976 
G1 X2.336 Y2.493 Z4.976 
G1 X2.531 Y2.493 Z4.976 
G1 X2.531 Y2.491 Z4.976 
G1 X2.336 Y2.491 Z4.976 
G1 X2.336 Y2.488 Z4.976 
G1 X2.531 Y2.488 Z4.976 
G1 X2.531 Y2.486 Z4.976 
G1 X2.336 Y2.486 Z4.976 
G1 X2.336 Y2.483 Z4.976 
G1 X2.531 Y2.483 Z4.976 
G1 X2.531 Y2.481 Z4.976 
G1 X2.336 Y2.481 Z4.976 
G1 X2.336 Y2.478 Z4.976 
G1 X2.531 Y2.478 Z4.976 
G1 X2.531 Y2.476 Z4.976 
G1 X2.336 Y2.476 Z4.976 
G1 X2.336 Y2.473 Z4.976 
G1 X2.531 Y2.473 Z4.976 
G1 X2.531 Y2.471 Z4.976 
G1 X2.336 Y2.471 Z4.976 
G1 X2.336 Y2.468 Z4.976 
G1 X2.531 Y2.468 Z4.976 
G1 X2.531 Y2.466 Z4.976 
G1 X2.336 Y2.466 Z4.976 
G1 X2.336 Y2.463 Z4.976 
G1 X2.531 Y2.463 Z4.976 
G1 X2.531 Y2.461 Z4.976 
G1 X2.336 Y2.461 Z4.976 
G1 X2.336 Y2.458 Z4.976 
G1 X2.531 Y2.458 Z4.976 
G1 X2.531 Y2.456 Z4.976 
G1 X2.336 Y2.456 Z4.976 
G1 X2.336 Y2.453 Z4.976 
G1 X2.531 Y2.453 Z4.976 
G1 X2.531 Y2.451 Z4.976 
G1 X2.336 Y2.451 Z4.976 
G1 X2.336 Y2.448 Z4.976 
G1 X2.531 Y2.448 Z4.976 
G1 X2.531 Y2.446 Z4.976 
G1 X2.336 Y2.446 Z4.976 
G1 X2.336 Y2.443 Z4.976 
G1 X2.531 Y2.443 Z4.976 
G1 X2.531 Y2.441 Z4.976 
G1 X2.336 Y2.441 Z4.976 
G1 X2.336 Y2.438 Z4.976 
G1 X2.531 Y2.438 Z4.976 
G1 X2.531 Y2.436 Z4.976 
G1 X2.336 Y2.436 Z4.976 
G1 X2.336 Y2.433 Z4.976 
G1 X2.531 Y2.433 Z4.976 
G1 X2.531 Y2.431 Z4.976 
G1 X2.336 Y2.431 Z4.976 
G1 X2.336 Y2.428 Z4.976 
G1 X2.531 Y2.428 Z4.976 
G1 X2.531 Y2.426 Z4.976 
G1 X2.336 Y2.426 Z4.976 
G1 X2.336 Y2.423 Z4.976 
G1 X2.531 Y2.423 Z4.976 
G1 X2.531 Y2.421 Z4.976 
G1 X2.336 Y2.421 Z4.976 
G1 X2.336 Y2.418 Z4.976 
G1 X2.531 Y2.418 Z4.976 
G1 X2.531 Y2.416 Z4.976 
G1 X2.336 Y2.416 Z4.976 
G1 X2.336 Y2.413 Z4.976 
G1 X2.531 Y2.413 Z4.976 
G1 X2.531 Y2.411 Z4.976 
G1 X2.336 Y2.411 Z4.976 
G1 X2.336 Y2.408 Z4.976 
G1 X2.531 Y2.408 Z4.976 
G1 X2.531 Y2.406 Z4.976 
G1 X2.336 Y2.406 Z4.976 
G1 X2.336 Y2.403 Z4.976 
G1 X2.531 Y2.403 Z4.976 
G1 X2.531 Y2.401 Z4.976 
G1 X2.336 Y2.401 Z4.976 
G1 X2.336 Y2.398 Z4.976 
G1 X2.531 Y2.398 Z4.976 
G1 X2.531 Y2.396 Z4.976 
G1 X2.336 Y2.396 Z4.976 
G1 X2.336 Y2.393 Z4.976 
G1 X2.531 Y2.393 Z4.976 
G1 X2.531 Y2.391 Z4.976 
G1 X2.336 Y2.391 Z4.976 
G1 X2.336 Y2.388 Z4.976 
G1 X2.531 Y2.388 Z4.976 
G1 X2.531 Y2.386 Z4.976 
G1 X2.336 Y2.386 Z4.976 
G1 X2.336 Y2.383 Z4.976 
G1 X2.531 Y2.383 Z4.976 
G1 X2.531 Y2.381 Z4.976 
G1 X2.336 Y2.381 Z4.976 
G1 X2.336 Y2.378 Z4.976 
G1 X2.531 Y2.378 Z4.976 
G1 X2.531 Y2.376 Z4.976 
G1 X2.336 Y2.376 Z4.976 
G1 X2.336 Y2.373 Z4.976 
G1 X2.531 Y2.373 Z4.976 
G1 X2.531 Y2.371 Z4.976 
G1 X2.336 Y2.371 Z4.976 
G1 X2.336 Y2.368 Z4.976 
G1 X2.531 Y2.368 Z4.976 
G1 X2.531 Y2.366 Z4.976 
G1 X2.336 Y2.366 Z4.976 
G1 X2.336 Y2.363 Z4.976 
G1 X2.531 Y2.363 Z4.976 
G1 X2.531 Y2.361 Z4.976 
G1 X2.336 Y2.361 Z4.976 
G1 X2.336 Y2.358 Z4.976 
G1 X2.531 Y2.358 Z4.976 
G1 X2.531 Y2.356 Z4.976 
G1 X2.336 Y2.356 Z4.976 
G1 X2.336 Y2.353 Z4.976 
G1 X2.531 Y2.353 Z4.976 
G1 X2.531 Y2.351 Z4.976 
G1 X2.336 Y2.351 Z4.976 
G1 X2.336 Y2.348 Z4.976 
G1 X2.531 Y2.348 Z4.976 
G1 X2.531 Y2.346 Z4.976 
G1 X2.336 Y2.346 Z4.976 
G1 X2.336 Y2.343 Z4.976 
G1 X2.531 Y2.343 Z4.976 
G1 X2.531 Y2.341 Z4.976 
G1 X2.336 Y2.341 Z4.976 
G1 X2.336 Y2.338 Z4.976 
G1 X2.531 Y2.338 Z4.976 
G1 X2.531 Y2.336 Z4.976 
G1 X2.336 Y2.336 Z4.976 
G1 X2.336 Y2.336 Z4.971 
G1 X2.531 Y2.336 Z4.971 
G1 X2.531 Y2.338 Z4.971 
G1 X2.336 Y2.338 Z4.971 
G1 X2.336 Y2.341 Z4.971 
G1 X2.531 Y2.341 Z4.971 
G1 X2.531 Y2.343 Z4.971 
G1 X2.336 Y2.343 Z4.971 
G1 X2.336 Y2.346 Z4.971 
G1 X2.531 Y2.346 Z4.971 
G1 X2.531 Y2.348 Z4.971 
G1 X2.336 Y2.348 Z4.971 
G1 X2.336 Y2.351 Z4.971 
G1 X2.531 Y2.351 Z4.971 
G1 X2.531 Y2.353 Z4.971 
G1 X2.336 Y2.353 Z4.971 
G1 X2.336 Y2.356 Z4.971 
G1 X2.531 Y2.356 Z4.971 
G1 X2.531 Y2.358 Z4.971 
G1 X2.336 Y2.358 Z4.971 
G1 X2.336 Y2.361 Z4.971 
G1 X2.531 Y2.361 Z4.971 
G1 X2.531 Y2.363 Z4.971 
G1 X2.336 Y2.363 Z4.971 
G1 X2.336 Y2.366 Z4.971 
G1 X2.531 Y2.366 Z4.971 
G1 X2.531 Y2.368 Z4.971 
G1 X2.336 Y2.368 Z4.971 
G1 X2.336 Y2.371 Z4.971 
G1 X2.531 Y2.371 Z4.971 
G1 X2.531 Y2.373 Z4.971 
G1 X2.336 Y2.373 Z4.971 
G1 X2.336 Y2.376 Z4.971 
G1 X2.531 Y2.376 Z4.971 
G1 X2.531 Y2.378 Z4.971 
G1 X2.336 Y2.378 Z4.971 
G1 X2.336 Y2.381 Z4.971 
G1 X2.531 Y2.381 Z4.971 
G1 X2.531 Y2.383 Z4.971 
G1 X2.336 Y2.383 Z4.971 
G1 X2.336 Y2.386 Z4.971 
G1 X2.531 Y2.386 Z4.971 
G1 X2.531 Y2.388 Z4.971 
G1 X2.336 Y2.388 Z4.971 
G1 X2.336 Y2.391 Z4.971 
G1 X2.531 Y2.391 Z4.971 
G1 X2.531 Y2.393 Z4.971 
G1 X2.336 Y2.393 Z4.971 
G1 X2.336 Y2.396 Z4.971 
G1 X2.531 Y2.396 Z4.971 
G1 X2.531 Y2.398 Z4.971 
G1 X2.336 Y2.398 Z4.971 
G1 X2.336 Y2.401 Z4.971 
G1 X2.531 Y2.401 Z4.971 
G1 X2.531 Y2.403 Z4.971 
G1 X2.336 Y2.403 Z4.971 
G1 X2.336 Y2.406 Z4.971 
G1 X2.531 Y2.406 Z4.971 
G1 X2.531 Y2.408 Z4.971 
G1 X2.336 Y2.408 Z4.971 
G1 X2.336 Y2.411 Z4.971 
G1 X2.531 Y2.411 Z4.971 
G1 X2.531 Y2.413 Z4.971 
G1 X2.336 Y2.413 Z4.971 
G1 X2.336 Y2.416 Z4.971 
G1 X2.531 Y2.416 Z4.971 
G1 X2.531 Y2.418 Z4.971 
G1 X2.336 Y2.418 Z4.971 
G1 X2.336 Y2.421 Z4.971 
G1 X2.531 Y2.421 Z4.971 
G1 X2.531 Y2.423 Z4.971 
G1 X2.336 Y2.423 Z4.971 
G1 X2.336 Y2.426 Z4.971 
G1 X2.531 Y2.426 Z4.971 
G1 X2.531 Y2.428 Z4.971 
G1 X2.336 Y2.428 Z4.971 
G1 X2.336 Y2.431 Z4.971 
G1 X2.531 Y2.431 Z4.971 
G1 X2.531 Y2.433 Z4.971 
G1 X2.336 Y2.433 Z4.971 
G1 X2.336 Y2.436 Z4.971 
G1 X2.531 Y2.436 Z4.971 
G1 X2.531 Y2.438 Z4.971 
G1 X2.336 Y2.438 Z4.971 
G1 X2.336 Y2.441 Z4.971 
G1 X2.531 Y2.441 Z4.971 
G1 X2.531 Y2.443 Z4.971 
G1 X2.336 Y2.443 Z4.971 
G1 X2.336 Y2.446 Z4.971 
G1 X2.531 Y2.446 Z4.971 
G1 X2.531 Y2.448 Z4.971 
G1 X2.336 Y2.448 Z4.971 
G1 X2.336 Y2.451 Z4.971 
G1 X2.531 Y2.451 Z4.971 
G1 X2.531 Y2.453 Z4.971 
G1 X2.336 Y2.453 Z4.971 
G1 X2.336 Y2.456 Z4.971 
G1 X2.531 Y2.456 Z4.971 
G1 X2.531 Y2.458 Z4.971 
G1 X2.336 Y2.458 Z4.971 
G1 X2.336 Y2.461 Z4.971 
G1 X2.531 Y2.461 Z4.971 
G1 X2.531 Y2.463 Z4.971 
G1 X2.336 Y2.463 Z4.971 
G1 X2.336 Y2.466 Z4.971 
G1 X2.531 Y2.466 Z4.971 
G1 X2.531 Y2.468 Z4.971 
G1 X2.336 Y2.468 Z4.971 
G1 X2.336 Y2.471 Z4.971 
G1 X2.531 Y2.471 Z4.971 
G1 X2.531 Y2.473 Z4.971 
G1 X2.336 Y2.473 Z4.971 
G1 X2.336 Y2.476 Z4.971 
G1 X2.531 Y2.476 Z4.971 
G1 X2.531 Y2.478 Z4.971 
G1 X2.336 Y2.478 Z4.971 
G1 X2.336 Y2.481 Z4.971 
G1 X2.531 Y2.481 Z4.971 
G1 X2.531 Y2.483 Z4.971 
G1 X2.336 Y2.483 Z4.971 
G1 X2.336 Y2.486 Z4.971 
G1 X2.531 Y2.486 Z4.971 
G1 X2.531 Y2.488 Z4.971 
G1 X2.336 Y2.488 Z4.971 
G1 X2.336 Y2.491 Z4.971 
G1 X2.531 Y2.491 Z4.971 
G1 X2.531 Y2.493 Z4.971 
G1 X2.336 Y2.493 Z4.971 
G1 X2.336 Y2.496 Z4.971 
G1 X2.531 Y2.496 Z4.971 
G1 X2.531 Y2.498 Z4.971 
G1 X2.336 Y2.498 Z4.971 
G1 X2.336 Y2.501 Z4.971 
G1 X2.531 Y2.501 Z4.971 
G1 X2.531 Y2.503 Z4.971 
G1 X2.336 Y2.503 Z4.971 
G1 X2.336 Y2.506 Z4.971 
G1 X2.531 Y2.506 Z4.971 
G1 X2.531 Y2.508 Z4.971 
G1 X2.336 Y2.508 Z4.971 
G1 X2.336 Y2.511 Z4.971 
G1 X2.531 Y2.511 Z4.971 
G1 X2.531 Y2.513 Z4.971 
G1 X2.336 Y2.513 Z4.971 
G1 X2.336 Y2.516 Z4.971 
G1 X2.531 Y2.516 Z4.971 
G1 X2.531 Y2.518 Z4.971 
G1 X2.336 Y2.518 Z4.971 
G1 X2.336 Y2.521 Z4.971 
G1 X2.531 Y2.521 Z4.971 
G1 X2.531 Y2.523 Z4.971 
G1 X2.336 Y2.523 Z4.971 
G1 X2.336 Y2.526 Z4.971 
G1 X2.531 Y2.526 Z4.971 
G1 X2.531 Y2.528 Z4.971 
G1 X2.336 Y2.528 Z4.971 
G1 X2.336 Y2.531 Z4.971 
G1 X2.531 Y2.531 Z4.971 
G1 X2.531 Y2.531 Z4.966 
G1 X2.336 Y2.531 Z4.966 
G1 X2.336 Y2.528 Z4.966 
G1 X2.531 Y2.528 Z4.966 
G1 X2.531 Y2.526 Z4.966 
G1 X2.336 Y2.526 Z4.966 
G1 X2.336 Y2.523 Z4.966 
G1 X2.531 Y2.523 Z4.966 
G1 X2.531 Y2.521 Z4.966 
G1 X2.336 Y2.521 Z4.966 
G1 X2.336 Y2.518 Z4.966 
G1 X2.531 Y2.518 Z4.966 
G1 X2.531 Y2.516 Z4.966 
G1 X2.336 Y2.516 Z4.966 
G1 X2.336 Y2.513 Z4.966 
G1 X2.531 Y2.513 Z4.966 
G1 X2.531 Y2.511 Z4.966 
G1 X2.336 Y2.511 Z4.966 
G1 X2.336 Y2.508 Z4.966 
G1 X2.531 Y2.508 Z4.966 
G1 X2.531 Y2.506 Z4.966 
G1 X2.336 Y2.506 Z4.966 
G1 X2.336 Y2.503 Z4.966 
G1 X2.531 Y2.503 Z4.966 
G1 X2.531 Y2.501 Z4.966 
G1 X2.336 Y2.501 Z4.966 
G1 X2.336 Y2.498 Z4.966 
G1 X2.531 Y2.498 Z4.966 
G1 X2.531 Y2.496 Z4.966 
G1 X2.336 Y2.496 Z4.966 
G1 X2.336 Y2.493 Z4.966 
G1 X2.531 Y2.493 Z4.966 
G1 X2.531 Y2.491 Z4.966 
G1 X2.336 Y2.491 Z4.966 
G1 X2.336 Y2.488 Z4.966 
G1 X2.531 Y2.488 Z4.966 
G1 X2.531 Y2.486 Z4.966 
G1 X2.336 Y2.486 Z4.966 
G1 X2.336 Y2.483 Z4.966 
G1 X2.531 Y2.483 Z4.966 
G1 X2.531 Y2.481 Z4.966 
G1 X2.336 Y2.481 Z4.966 
G1 X2.336 Y2.478 Z4.966 
G1 X2.531 Y2.478 Z4.966 
G1 X2.531 Y2.476 Z4.966 
G1 X2.336 Y2.476 Z4.966 
G1 X2.336 Y2.473 Z4.966 
G1 X2.531 Y2.473 Z4.966 
G1 X2.531 Y2.471 Z4.966 
G1 X2.336 Y2.471 Z4.966 
G1 X2.336 Y2.468 Z4.966 
G1 X2.531 Y2.468 Z4.966 
G1 X2.531 Y2.466 Z4.966 
G1 X2.336 Y2.466 Z4.966 
G1 X2.336 Y2.463 Z4.966 
G1 X2.531 Y2.463 Z4.966 
G1 X2.531 Y2.461 Z4.966 
G1 X2.336 Y2.461 Z4.966 
G1 X2.336 Y2.458 Z4.966 
G1 X2.531 Y2.458 Z4.966 
G1 X2.531 Y2.456 Z4.966 
G1 X2.336 Y2.456 Z4.966 
G1 X2.336 Y2.453 Z4.966 
G1 X2.531 Y2.453 Z4.966 
G1 X2.531 Y2.451 Z4.966 
G1 X2.336 Y2.451 Z4.966 
G1 X2.336 Y2.448 Z4.966 
G1 X2.531 Y2.448 Z4.966 
G1 X2.531 Y2.446 Z4.966 
G1 X2.336 Y2.446 Z4.966 
G1 X2.336 Y2.443 Z4.966 
G1 X2.531 Y2.443 Z4.966 
G1 X2.531 Y2.441 Z4.966 
G1 X2.336 Y2.441 Z4.966 
G1 X2.336 Y2.438 Z4.966 
G1 X2.531 Y2.438 Z4.966 
G1 X2.531 Y2.436 Z4.966 
G1 X2.336 Y2.436 Z4.966 
G1 X2.336 Y2.433 Z4.966 
G1 X2.531 Y2.433 Z4.966 
G1 X2.531 Y2.431 Z4.966 
G1 X2.336 Y2.431 Z4.966 
G1 X2.336 Y2.428 Z4.966 
G1 X2.531 Y2.428 Z4.966 
G1 X2.531 Y2.426 Z4.966 
G1 X2.336 Y2.426 Z4.966 
G1 X2.336 Y2.423 Z4.966 
G1 X2.531 Y2.423 Z4.966 
G1 X2.531 Y2.421 Z4.966 
G1 X2.336 Y2.421 Z4.966 
G1 X2.336 Y2.418 Z4.966 
G1 X2.531 Y2.418 Z4.966 
G1 X2.531 Y2.416 Z4.966 
G1 X2.336 Y2.416 Z4.966 
G1 X2.336 Y2.413 Z4.966 
G1 X2.531 Y2.413 Z4.966 
G1 X2.531 Y2.411 Z4.966 
G1 X2.336 Y2.411 Z4.966 
G1 X2.336 Y2.408 Z4.966 
G1 X2.531 Y2.408 Z4.966 
G1 X2.531 Y2.406 Z4.966 
G1 X2.336 Y2.406 Z4.966 
G1 X2.336 Y2.403 Z4.966 
G1 X2.531 Y2.403 Z4.966 
G1 X2.531 Y2.401 Z4.966 
G1 X2.336 Y2.401 Z4.966 
G1 X2.336 Y2.398 Z4.966 
G1 X2.531 Y2.398 Z4.966 
G1 X2.531 Y2.396 Z4.966 
G1 X2.336 Y2.396 Z4.966 
G1 X2.336 Y2.393 Z4.966 
G1 X2.531 Y2.393 Z4.966 
G1 X2.531 Y2.391 Z4.966 
G1 X2.336 Y2.391 Z4.966 
G1 X2.336 Y2.388 Z4.966 
G1 X2.531 Y2.388 Z4.966 
G1 X2.531 Y2.386 Z4.966 
G1 X2.336 Y2.386 Z4.966 
G1 X2.336 Y2.383 Z4.966 
G1 X2.531 Y2.383 Z4.966 
G1 X2.531 Y2.381 Z4.966 
G1 X2.336 Y2.381 Z4.966 
G1 X2.336 Y2.378 Z4.966 
G1 X2.531 Y2.378 Z4.966 
G1 X2.531 Y2.376 Z4.966 
G1 X2.336 Y2.376 Z4.966 
G1 X2.336 Y2.373 Z4.966 
G1 X2.531 Y2.373 Z4.966 
G1 X2.531 Y2.371 Z4.966 
G1 X2.336 Y2.371 Z4.966 
G1 X2.336 Y2.368 Z4.966 
G1 X2.531 Y2.368 Z4.966 
G1 X2.531 Y2.366 Z4.966 
G1 X2.336 Y2.366 Z4.966 
G1 X2.336 Y2.363 Z4.966 
G1 X2.531 Y2.363 Z4.966 
G1 X2.531 Y2.361 Z4.966 
G1 X2.336 Y2.361 Z4.966 
G1 X2.336 Y2.358 Z4.966 
G1 X2.531 Y2.358 Z4.966 
G1 X2.531 Y2.356 Z4.966 
G1 X2.336 Y2.356 Z4.966 
G1 X2.336 Y2.353 Z4.966 
G1 X2.531 Y2.353 Z4.966 
G1 X2.531 Y2.351 Z4.966 
G1 X2.336 Y2.351 Z4.966 
G1 X2.336 Y2.348 Z4.966 
G1 X2.531 Y2.348 Z4.966 
G1 X2.531 Y2.346 Z4.966 
G1 X2.336 Y2.346 Z4.966 
G1 X2.336 Y2.343 Z4.966 
G1 X2.531 Y2.343 Z4.966 
G1 X2.531 Y2.341 Z4.966 
G1 X2.336 Y2.341 Z4.966 
G1 X2.336 Y2.338 Z4.966 
G1 X2.531 Y2.338 Z4.966 
G1 X2.531 Y2.336 Z4.966 
G1 X2.336 Y2.336 Z4.966 
G1 X2.336 Y2.336 Z4.961 
G1 X2.531 Y2.336 Z4.961 
G1 X2.531 Y2.338 Z4.961 
G1 X2.336 Y2.338 Z4.961 
G1 X2.336 Y2.341 Z4.961 
G1 X2.531 Y2.341 Z4.961 
G1 X2.531 Y2.343 Z4.961 
G1 X2.336 Y2.343 Z4.961 
G1 X2.336 Y2.346 Z4.961 
G1 X2.531 Y2.346 Z4.961 
G1 X2.531 Y2.348 Z4.961 
G1 X2.336 Y2.348 Z4.961 
G1 X2.336 Y2.351 Z4.961 
G1 X2.531 Y2.351 Z4.961 
G1 X2.531 Y2.353 Z4.961 
G1 X2.336 Y2.353 Z4.961 
G1 X2.336 Y2.356 Z4.961 
G1 X2.531 Y2.356 Z4.961 
G1 X2.531 Y2.358 Z4.961 
G1 X2.336 Y2.358 Z4.961 
G1 X2.336 Y2.361 Z4.961 
G1 X2.531 Y2.361 Z4.961 
G1 X2.531 Y2.363 Z4.961 
G1 X2.336 Y2.363 Z4.961 
G1 X2.336 Y2.366 Z4.961 
G1 X2.531 Y2.366 Z4.961 
G1 X2.531 Y2.368 Z4.961 
G1 X2.336 Y2.368 Z4.961 
G1 X2.336 Y2.371 Z4.961 
G1 X2.531 Y2.371 Z4.961 
G1 X2.531 Y2.373 Z4.961 
G1 X2.336 Y2.373 Z4.961 
G1 X2.336 Y2.376 Z4.961 
G1 X2.531 Y2.376 Z4.961 
G1 X2.531 Y2.378 Z4.961 
G1 X2.336 Y2.378 Z4.961 
G1 X2.336 Y2.381 Z4.961 
G1 X2.531 Y2.381 Z4.961 
G1 X2.531 Y2.383 Z4.961 
G1 X2.336 Y2.383 Z4.961 
G1 X2.336 Y2.386 Z4.961 
G1 X2.531 Y2.386 Z4.961 
G1 X2.531 Y2.388 Z4.961 
G1 X2.336 Y2.388 Z4.961 
G1 X2.336 Y2.391 Z4.961 
G1 X2.531 Y2.391 Z4.961 
G1 X2.531 Y2.393 Z4.961 
G1 X2.336 Y2.393 Z4.961 
G1 X2.336 Y2.396 Z4.961 
G1 X2.531 Y2.396 Z4.961 
G1 X2.531 Y2.398 Z4.961 
G1 X2.336 Y2.398 Z4.961 
G1 X2.336 Y2.401 Z4.961 
G1 X2.531 Y2.401 Z4.961 
G1 X2.531 Y2.403 Z4.961 
G1 X2.336 Y2.403 Z4.961 
G1 X2.336 Y2.406 Z4.961 
G1 X2.531 Y2.406 Z4.961 
G1 X2.531 Y2.408 Z4.961 
G1 X2.336 Y2.408 Z4.961 
G1 X2.336 Y2.411 Z4.961 
G1 X2.531 Y2.411 Z4.961 
G1 X2.531 Y2.413 Z4.961 
G1 X2.336 Y2.413 Z4.961 
G1 X2.336 Y2.416 Z4.961 
G1 X2.531 Y2.416 Z4.961 
G1 X2.531 Y2.418 Z4.961 
G1 X2.336 Y2.418 Z4.961 
G1 X2.336 Y2.421 Z4.961 
G1 X2.531 Y2.421 Z4.961 
G1 X2.531 Y2.423 Z4.961 
G1 X2.336 Y2.423 Z4.961 
G1 X2.336 Y2.426 Z4.961 
G1 X2.531 Y2.426 Z4.961 
G1 X2.531 Y2.428 Z4.961 
G1 X2.336 Y2.428 Z4.961 
G1 X2.336 Y2.431 Z4.961 
G1 X2.531 Y2.431 Z4.961 
G1 X2.531 Y2.433 Z4.961 
G1 X2.336 Y2.433 Z4.961 
G1 X2.336 Y2.436 Z4.961 
G1 X2.531 Y2.436 Z4.961 
G1 X2.531 Y2.438 Z4.961 
G1 X2.336 Y2.438 Z4.961 
G1 X2.336 Y2.441 Z4.961 
G1 X2.531 Y2.441 Z4.961 
G1 X2.531 Y2.443 Z4.961 
G1 X2.336 Y2.443 Z4.961 
G1 X2.336 Y2.446 Z4.961 
G1 X2.531 Y2.446 Z4.961 
G1 X2.531 Y2.448 Z4.961 
G1 X2.336 Y2.448 Z4.961 
G1 X2.336 Y2.451 Z4.961 
G1 X2.531 Y2.451 Z4.961 
G1 X2.531 Y2.453 Z4.961 
G1 X2.336 Y2.453 Z4.961 
G1 X2.336 Y2.456 Z4.961 
G1 X2.531 Y2.456 Z4.961 
G1 X2.531 Y2.458 Z4.961 
G1 X2.336 Y2.458 Z4.961 
G1 X2.336 Y2.461 Z4.961 
G1 X2.531 Y2.461 Z4.961 
G1 X2.531 Y2.463 Z4.961 
G1 X2.336 Y2.463 Z4.961 
G1 X2.336 Y2.466 Z4.961 
G1 X2.531 Y2.466 Z4.961 
G1 X2.531 Y2.468 Z4.961 
G1 X2.336 Y2.468 Z4.961 
G1 X2.336 Y2.471 Z4.961 
G1 X2.531 Y2.471 Z4.961 
G1 X2.531 Y2.473 Z4.961 
G1 X2.336 Y2.473 Z4.961 
G1 X2.336 Y2.476 Z4.961 
G1 X2.531 Y2.476 Z4.961 
G1 X2.531 Y2.478 Z4.961 
G1 X2.336 Y2.478 Z4.961 
G1 X2.336 Y2.481 Z4.961 
G1 X2.531 Y2.481 Z4.961 
G1 X2.531 Y2.483 Z4.961 
G1 X2.336 Y2.483 Z4.961 
G1 X2.336 Y2.486 Z4.961 
G1 X2.531 Y2.486 Z4.961 
G1 X2.531 Y2.488 Z4.961 
G1 X2.336 Y2.488 Z4.961 
G1 X2.336 Y2.491 Z4.961 
G1 X2.531 Y2.491 Z4.961 
G1 X2.531 Y2.493 Z4.961 
G1 X2.336 Y2.493 Z4.961 
G1 X2.336 Y2.496 Z4.961 
G1 X2.531 Y2.496 Z4.961 
G1 X2.531 Y2.498 Z4.961 
G1 X2.336 Y2.498 Z4.961 
G1 X2.336 Y2.501 Z4.961 
G1 X2.531 Y2.501 Z4.961 
G1 X2.531 Y2.503 Z4.961 
G1 X2.336 Y2.503 Z4.961 
G1 X2.336 Y2.506 Z4.961 
G1 X2.531 Y2.506 Z4.961 
G1 X2.531 Y2.508 Z4.961 
G1 X2.336 Y2.508 Z4.961 
G1 X2.336 Y2.511 Z4.961 
G1 X2.531 Y2.511 Z4.961 
G1 X2.531 Y2.513 Z4.961 
G1 X2.336 Y2.513 Z4.961 
G1 X2.336 Y2.516 Z4.961 
G1 X2.531 Y2.516 Z4.961 
G1 X2.531 Y2.518 Z4.961 
G1 X2.336 Y2.518 Z4.961 
G1 X2.336 Y2.521 Z4.961 
G1 X2.531 Y2.521 Z4.961 
G1 X2.531 Y2.523 Z4.961 
G1 X2.336 Y2.523 Z4.961 
G1 X2.336 Y2.526 Z4.961 
G1 X2.531 Y2.526 Z4.961 
G1 X2.531 Y2.528 Z4.961 
G1 X2.336 Y2.528 Z4.961 
G1 X2.336 Y2.531 Z4.961 
G1 X2.531 Y2.531 Z4.961 
G1 X2.531 Y2.531 Z4.956 
G1 X2.336 Y2.531 Z4.956 
G1 X2.336 Y2.528 Z4.956 
G1 X2.531 Y2.528 Z4.956 
G1 X2.531 Y2.526 Z4.956 
G1 X2.336 Y2.526 Z4.956 
G1 X2.336 Y2.523 Z4.956 
G1 X2.531 Y2.523 Z4.956 
G1 X2.531 Y2.521 Z4.956 
G1 X2.336 Y2.521 Z4.956 
G1 X2.336 Y2.518 Z4.956 
G1 X2.531 Y2.518 Z4.956 
G1 X2.531 Y2.516 Z4.956 
G1 X2.336 Y2.516 Z4.956 
G1 X2.336 Y2.513 Z4.956 
G1 X2.531 Y2.513 Z4.956 
G1 X2.531 Y2.511 Z4.956 
G1 X2.336 Y2.511 Z4.956 
G1 X2.336 Y2.508 Z4.956 
G1 X2.531 Y2.508 Z4.956 
G1 X2.531 Y2.506 Z4.956 
G1 X2.336 Y2.506 Z4.956 
G1 X2.336 Y2.503 Z4.956 
G1 X2.531 Y2.503 Z4.956 
G1 X2.531 Y2.501 Z4.956 
G1 X2.336 Y2.501 Z4.956 
G1 X2.336 Y2.498 Z4.956 
G1 X2.531 Y2.498 Z4.956 
G1 X2.531 Y2.496 Z4.956 
G1 X2.336 Y2.496 Z4.956 
G1 X2.336 Y2.493 Z4.956 
G1 X2.531 Y2.493 Z4.956 
G1 X2.531 Y2.491 Z4.956 
G1 X2.336 Y2.491 Z4.956 
G1 X2.336 Y2.488 Z4.956 
G1 X2.531 Y2.488 Z4.956 
G1 X2.531 Y2.486 Z4.956 
G1 X2.336 Y2.486 Z4.956 
G1 X2.336 Y2.483 Z4.956 
G1 X2.531 Y2.483 Z4.956 
G1 X2.531 Y2.481 Z4.956 
G1 X2.336 Y2.481 Z4.956 
G1 X2.336 Y2.478 Z4.956 
G1 X2.531 Y2.478 Z4.956 
G1 X2.531 Y2.476 Z4.956 
G1 X2.336 Y2.476 Z4.956 
G1 X2.336 Y2.473 Z4.956 
G1 X2.531 Y2.473 Z4.956 
G1 X2.531 Y2.471 Z4.956 
G1 X2.336 Y2.471 Z4.956 
G1 X2.336 Y2.468 Z4.956 
G1 X2.531 Y2.468 Z4.956 
G1 X2.531 Y2.466 Z4.956 
G1 X2.336 Y2.466 Z4.956 
G1 X2.336 Y2.463 Z4.956 
G1 X2.531 Y2.463 Z4.956 
G1 X2.531 Y2.461 Z4.956 
G1 X2.336 Y2.461 Z4.956 
G1 X2.336 Y2.458 Z4.956 
G1 X2.531 Y2.458 Z4.956 
G1 X2.531 Y2.456 Z4.956 
G1 X2.336 Y2.456 Z4.956 
G1 X2.336 Y2.453 Z4.956 
G1 X2.531 Y2.453 Z4.956 
G1 X2.531 Y2.451 Z4.956 
G1 X2.336 Y2.451 Z4.956 
G1 X2.336 Y2.448 Z4.956 
G1 X2.531 Y2.448 Z4.956 
G1 X2.531 Y2.446 Z4.956 
G1 X2.336 Y2.446 Z4.956 
G1 X2.336 Y2.443 Z4.956 
G1 X2.531 Y2.443 Z4.956 
G1 X2.531 Y2.441 Z4.956 
G1 X2.336 Y2.441 Z4.956 
G1 X2.336 Y2.438 Z4.956 
G1 X2.531 Y2.438 Z4.956 
G1 X2.531 Y2.436 Z4.956 
G1 X2.336 Y2.436 Z4.956 
G1 X2.336 Y2.433 Z4.956 
G1 X2.531 Y2.433 Z4.956 
G1 X2.531 Y2.431 Z4.956 
G1 X2.336 Y2.431 Z4.956 
G1 X2.336 Y2.428 Z4.956 
G1 X2.531 Y2.428 Z4.956 
G1 X2.531 Y2.426 Z4.956 
G1 X2.336 Y2.426 Z4.956 
G1 X2.336 Y2.423 Z4.956 
G1 X2.531 Y2.423 Z4.956 
G1 X2.531 Y2.421 Z4.956 
G1 X2.336 Y2.421 Z4.956 
G1 X2.336 Y2.418 Z4.956 
G1 X2.531 Y2.418 Z4.956 
G1 X2.531 Y2.416 Z4.956 
G1 X2.336 Y2.416 Z4.956 
G1 X2.336 Y2.413 Z4.956 
G1 X2.531 Y2.413 Z4.956 
G1 X2.531 Y2.411 Z4.956 
G1 X2.336 Y2.411 Z4.956 
G1 X2.336 Y2.408 Z4.956 
G1 X2.531 Y2.408 Z4.956 
G1 X2.531 Y2.406 Z4.956 
G1 X2.336 Y2.406 Z4.956 
G1 X2.336 Y2.403 Z4.956 
G1 X2.531 Y2.403 Z4.956 
G1 X2.531 Y2.401 Z4.956 
G1 X2.336 Y2.401 Z4.956 
G1 X2.336 Y2.398 Z4.956 
G1 X2.531 Y2.398 Z4.956 
G1 X2.531 Y2.396 Z4.956 
G1 X2.336 Y2.396 Z4.956 
G1 X2.336 Y2.393 Z4.956 
G1 X2.531 Y2.393 Z4.956 
G1 X2.531 Y2.391 Z4.956 
G1 X2.336 Y2.391 Z4.956 
G1 X2.336 Y2.388 Z4.956 
G1 X2.531 Y2.388 Z4.956 
G1 X2.531 Y2.386 Z4.956 
G1 X2.336 Y2.386 Z4.956 
G1 X2.336 Y2.383 Z4.956 
G1 X2.531 Y2.383 Z4.956 
G1 X2.531 Y2.381 Z4.956 
G1 X2.336 Y2.381 Z4.956 
G1 X2.336 Y2.378 Z4.956 
G1 X2.531 Y2.378 Z4.956 
G1 X2.531 Y2.376 Z4.956 
G1 X2.336 Y2.376 Z4.956 
G1 X2.336 Y2.373 Z4.956 
G1 X2.531 Y2.373 Z4.956 
G1 X2.531 Y2.371 Z4.956 
G1 X2.336 Y2.371 Z4.956 
G1 X2.336 Y2.368 Z4.956 
G1 X2.531 Y2.368 Z4.956 
G1 X2.531 Y2.366 Z4.956 
G1 X2.336 Y2.366 Z4.956 
G1 X2.336 Y2.363 Z4.956 
G1 X2.531 Y2.363 Z4.956 
G1 X2.531 Y2.361 Z4.956 
G1 X2.336 Y2.361 Z4.956 
G1 X2.336 Y2.358 Z4.956 
G1 X2.531 Y2.358 Z4.956 
G1 X2.531 Y2.356 Z4.956 
G1 X2.336 Y2.356 Z4.956 
G1 X2.336 Y2.353 Z4.956 
G1 X2.531 Y2.353 Z4.956 
G1 X2.531 Y2.351 Z4.956 
G1 X2.336 Y2.351 Z4.956 
G1 X2.336 Y2.348 Z4.956 
G1 X2.531 Y2.348 Z4.956 
G1 X2.531 Y2.346 Z4.956 
G1 X2.336 Y2.346 Z4.956 
G1 X2.336 Y2.343 Z4.956 
G1 X2.531 Y2.343 Z4.956 
G1 X2.531 Y2.341 Z4.956 
G1 X2.336 Y2.341 Z4.956 
G1 X2.336 Y2.338 Z4.956 
G1 X2.531 Y2.338 Z4.956 
G1 X2.531 Y2.336 Z4.956 
G1 X2.336 Y2.336 Z4.956 
G1 X2.336 Y2.336 Z4.951 
G1 X2.531 Y2.336 Z4.951 
G1 X2.531 Y2.338 Z4.951 
G1 X2.336 Y2.338 Z4.951 
G1 X2.336 Y2.341 Z4.951 
G1 X2.531 Y2.341 Z4.951 
G1 X2.531 Y2.343 Z4.951 
G1 X2.336 Y2.343 Z4.951 
G1 X2.336 Y2.346 Z4.951 
G1 X2.531 Y2.346 Z4.951 
G1 X2.531 Y2.348 Z4.951 
G1 X2.336 Y2.348 Z4.951 
G1 X2.336 Y2.351 Z4.951 
G1 X2.531 Y2.351 Z4.951 
G1 X2.531 Y2.353 Z4.951 
G1 X2.336 Y2.353 Z4.951 
G1 X2.336 Y2.356 Z4.951 
G1 X2.531 Y2.356 Z4.951 
G1 X2.531 Y2.358 Z4.951 
G1 X2.336 Y2.358 Z4.951 
G1 X2.336 Y2.361 Z4.951 
G1 X2.531 Y2.361 Z4.951 
G1 X2.531 Y2.363 Z4.951 
G1 X2.336 Y2.363 Z4.951 
G1 X2.336 Y2.366 Z4.951 
G1 X2.531 Y2.366 Z4.951 
G1 X2.531 Y2.368 Z4.951 
G1 X2.336 Y2.368 Z4.951 
G1 X2.336 Y2.371 Z4.951 
G1 X2.531 Y2.371 Z4.951 
G1 X2.531 Y2.373 Z4.951 
G1 X2.336 Y2.373 Z4.951 
G1 X2.336 Y2.376 Z4.951 
G1 X2.531 Y2.376 Z4.951 
G1 X2.531 Y2.378 Z4.951 
G1 X2.336 Y2.378 Z4.951 
G1 X2.336 Y2.381 Z4.951 
G1 X2.531 Y2.381 Z4.951 
G1 X2.531 Y2.383 Z4.951 
G1 X2.336 Y2.383 Z4.951 
G1 X2.336 Y2.386 Z4.951 
G1 X2.531 Y2.386 Z4.951 
G1 X2.531 Y2.388 Z4.951 
G1 X2.336 Y2.388 Z4.951 
G1 X2.336 Y2.391 Z4.951 
G1 X2.531 Y2.391 Z4.951 
G1 X2.531 Y2.393 Z4.951 
G1 X2.336 Y2.393 Z4.951 
G1 X2.336 Y2.396 Z4.951 
G1 X2.531 Y2.396 Z4.951 
G1 X2.531 Y2.398 Z4.951 
G1 X2.336 Y2.398 Z4.951 
G1 X2.336 Y2.401 Z4.951 
G1 X2.531 Y2.401 Z4.951 
G1 X2.531 Y2.403 Z4.951 
G1 X2.336 Y2.403 Z4.951 
G1 X2.336 Y2.406 Z4.951 
G1 X2.531 Y2.406 Z4.951 
G1 X2.531 Y2.408 Z4.951 
G1 X2.336 Y2.408 Z4.951 
G1 X2.336 Y2.411 Z4.951 
G1 X2.531 Y2.411 Z4.951 
G1 X2.531 Y2.413 Z4.951 
G1 X2.336 Y2.413 Z4.951 
G1 X2.336 Y2.416 Z4.951 
G1 X2.531 Y2.416 Z4.951 
G1 X2.531 Y2.418 Z4.951 
G1 X2.336 Y2.418 Z4.951 
G1 X2.336 Y2.421 Z4.951 
G1 X2.531 Y2.421 Z4.951 
G1 X2.531 Y2.423 Z4.951 
G1 X2.336 Y2.423 Z4.951 
G1 X2.336 Y2.426 Z4.951 
G1 X2.531 Y2.426 Z4.951 
G1 X2.531 Y2.428 Z4.951 
G1 X2.336 Y2.428 Z4.951 
G1 X2.336 Y2.431 Z4.951 
G1 X2.531 Y2.431 Z4.951 
G1 X2.531 Y2.433 Z4.951 
G1 X2.336 Y2.433 Z4.951 
G1 X2.336 Y2.436 Z4.951 
G1 X2.531 Y2.436 Z4.951 
G1 X2.531 Y2.438 Z4.951 
G1 X2.336 Y2.438 Z4.951 
G1 X2.336 Y2.441 Z4.951 
G1 X2.531 Y2.441 Z4.951 
G1 X2.531 Y2.443 Z4.951 
G1 X2.336 Y2.443 Z4.951 
G1 X2.336 Y2.446 Z4.951 
G1 X2.531 Y2.446 Z4.951 
G1 X2.531 Y2.448 Z4.951 
G1 X2.336 Y2.448 Z4.951 
G1 X2.336 Y2.451 Z4.951 
G1 X2.531 Y2.451 Z4.951 
G1 X2.531 Y2.453 Z4.951 
G1 X2.336 Y2.453 Z4.951 
G1 X2.336 Y2.456 Z4.951 
G1 X2.531 Y2.456 Z4.951 
G1 X2.531 Y2.458 Z4.951 
G1 X2.336 Y2.458 Z4.951 
G1 X2.336 Y2.461 Z4.951 
G1 X2.531 Y2.461 Z4.951 
G1 X2.531 Y2.463 Z4.951 
G1 X2.336 Y2.463 Z4.951 
G1 X2.336 Y2.466 Z4.951 
G1 X2.531 Y2.466 Z4.951 
G1 X2.531 Y2.468 Z4.951 
G1 X2.336 Y2.468 Z4.951 
G1 X2.336 Y2.471 Z4.951 
G1 X2.531 Y2.471 Z4.951 
G1 X2.531 Y2.473 Z4.951 
G1 X2.336 Y2.473 Z4.951 
G1 X2.336 Y2.476 Z4.951 
G1 X2.531 Y2.476 Z4.951 
G1 X2.531 Y2.478 Z4.951 
G1 X2.336 Y2.478 Z4.951 
G1 X2.336 Y2.481 Z4.951 
G1 X2.531 Y2.481 Z4.951 
G1 X2.531 Y2.483 Z4.951 
G1 X2.336 Y2.483 Z4.951 
G1 X2.336 Y2.486 Z4.951 
G1 X2.531 Y2.486 Z4.951 
G1 X2.531 Y2.488 Z4.951 
G1 X2.336 Y2.488 Z4.951 
G1 X2.336 Y2.491 Z4.951 
G1 X2.531 Y2.491 Z4.951 
G1 X2.531 Y2.493 Z4.951 
G1 X2.336 Y2.493 Z4.951 
G1 X2.336 Y2.496 Z4.951 
G1 X2.531 Y2.496 Z4.951 
G1 X2.531 Y2.498 Z4.951 
G1 X2.336 Y2.498 Z4.951 
G1 X2.336 Y2.501 Z4.951 
G1 X2.531 Y2.501 Z4.951 
G1 X2.531 Y2.503 Z4.951 
G1 X2.336 Y2.503 Z4.951 
G1 X2.336 Y2.506 Z4.951 
G1 X2.531 Y2.506 Z4.951 
G1 X2.531 Y2.508 Z4.951 
G1 X2.336 Y2.508 Z4.951 
G1 X2.336 Y2.511 Z4.951 
G1 X2.531 Y2.511 Z4.951 
G1 X2.531 Y2.513 Z4.951 
G1 X2.336 Y2.513 Z4.951 
G1 X2.336 Y2.516 Z4.951 
G1 X2.531 Y2.516 Z4.951 
G1 X2.531 Y2.518 Z4.951 
G1 X2.336 Y2.518 Z4.951 
G1 X2.336 Y2.521 Z4.951 
G1 X2.531 Y2.521 Z4.951 
G1 X2.531 Y2.523 Z4.951 
G1 X2.336 Y2.523 Z4.951 
G1 X2.336 Y2.526 Z4.951 
G1 X2.531 Y2.526 Z4.951 
G1 X2.531 Y2.528 Z4.951 
G1 X2.336 Y2.528 Z4.951 
G1 X2.336 Y2.531 Z4.951 
G1 X2.531 Y2.531 Z4.951 
G1 X2.531 Y2.531 Z4.950 
G1 X2.336 Y2.531 Z4.950 
G1 X2.336 Y2.528 Z4.950 
G1 X2.531 Y2.528 Z4.950 
G1 X2.531 Y2.526 Z4.950 
G1 X2.336 Y2.526 Z4.950 
G1 X2.336 Y2.523 Z4.950 
G1 X2.531 Y2.523 Z4.950 
G1 X2.531 Y2.521 Z4.950 
G1 X2.336 Y2.521 Z4.950 
G1 X2.336 Y2.518 Z4.950 
G1 X2.531 Y2.518 Z4.950 
G1 X2.531 Y2.516 Z4.950 
G1 X2.336 Y2.516 Z4.950 
G1 X2.336 Y2.513 Z4.950 
G1 X2.531 Y2.513 Z4.950 
G1 X2.531 Y2.511 Z4.950 
G1 X2.336 Y2.511 Z4.950 
G1 X2.336 Y2.508 Z4.950 
G1 X2.531 Y2.508 Z4.950 
G1 X2.531 Y2.506 Z4.950 
G1 X2.336 Y2.506 Z4.950 
G1 X2.336 Y2.503 Z4.950 
G1 X2.531 Y2.503 Z4.950 
G1 X2.531 Y2.501 Z4.950 
G1 X2.336 Y2.501 Z4.950 
G1 X2.336 Y2.498 Z4.950 
G1 X2.531 Y2.498 Z4.950 
G1 X2.531 Y2.496 Z4.950 
G1 X2.336 Y2.496 Z4.950 
G1 X2.336 Y2.493 Z4.950 
G1 X2.531 Y2.493 Z4.950 
G1 X2.531 Y2.491 Z4.950 
G1 X2.336 Y2.491 Z4.950 
G1 X2.336 Y2.488 Z4.950 
G1 X2.531 Y2.488 Z4.950 
G1 X2.531 Y2.486 Z4.950 
G1 X2.336 Y2.486 Z4.950 
G1 X2.336 Y2.483 Z4.950 
G1 X2.531 Y2.483 Z4.950 
G1 X2.531 Y2.481 Z4.950 
G1 X2.336 Y2.481 Z4.950 
G1 X2.336 Y2.478 Z4.950 
G1 X2.531 Y2.478 Z4.950 
G1 X2.531 Y2.476 Z4.950 
G1 X2.336 Y2.476 Z4.950 
G1 X2.336 Y2.473 Z4.950 
G1 X2.531 Y2.473 Z4.950 
G1 X2.531 Y2.471 Z4.950 
G1 X2.336 Y2.471 Z4.950 
G1 X2.336 Y2.468 Z4.950 
G1 X2.531 Y2.468 Z4.950 
G1 X2.531 Y2.466 Z4.950 
G1 X2.336 Y2.466 Z4.950 
G1 X2.336 Y2.463 Z4.950 
G1 X2.531 Y2.463 Z4.950 
G1 X2.531 Y2.461 Z4.950 
G1 X2.336 Y2.461 Z4.950 
G1 X2.336 Y2.458 Z4.950 
G1 X2.531 Y2.458 Z4.950 
G1 X2.531 Y2.456 Z4.950 
G1 X2.336 Y2.456 Z4.950 
G1 X2.336 Y2.453 Z4.950 
G1 X2.531 Y2.453 Z4.950 
G1 X2.531 Y2.451 Z4.950 
G1 X2.336 Y2.451 Z4.950 
G1 X2.336 Y2.448 Z4.950 
G1 X2.531 Y2.448 Z4.950 
G1 X2.531 Y2.446 Z4.950 
G1 X2.336 Y2.446 Z4.950 
G1 X2.336 Y2.443 Z4.950 
G1 X2.531 Y2.443 Z4.950 
G1 X2.531 Y2.441 Z4.950 
G1 X2.336 Y2.441 Z4.950 
G1 X2.336 Y2.438 Z4.950 
G1 X2.531 Y2.438 Z4.950 
G1 X2.531 Y2.436 Z4.950 
G1 X2.336 Y2.436 Z4.950 
G1 X2.336 Y2.433 Z4.950 
G1 X2.531 Y2.433 Z4.950 
G1 X2.531 Y2.431 Z4.950 
G1 X2.336 Y2.431 Z4.950 
G1 X2.336 Y2.428 Z4.950 
G1 X2.531 Y2.428 Z4.950 
G1 X2.531 Y2.426 Z4.950 
G1 X2.336 Y2.426 Z4.950 
G1 X2.336 Y2.423 Z4.950 
G1 X2.531 Y2.423 Z4.950 
G1 X2.531 Y2.421 Z4.950 
G1 X2.336 Y2.421 Z4.950 
G1 X2.336 Y2.418 Z4.950 
G1 X2.531 Y2.418 Z4.950 
G1 X2.531 Y2.416 Z4.950 
G1 X2.336 Y2.416 Z4.950 
G1 X2.336 Y2.413 Z4.950 
G1 X2.531 Y2.413 Z4.950 
G1 X2.531 Y2.411 Z4.950 
G1 X2.336 Y2.411 Z4.950 
G1 X2.336 Y2.408 Z4.950 
G1 X2.531 Y2.408 Z4.950 
G1 X2.531 Y2.406 Z4.950 
G1 X2.336 Y2.406 Z4.950 
G1 X2.336 Y2.403 Z4.950 
G1 X2.531 Y2.403 Z4.950 
G1 X2.531 Y2.401 Z4.950 
G1 X2.336 Y2.401 Z4.950 
G1 X2.336 Y2.398 Z4.950 
G1 X2.531 Y2.398 Z4.950 
G1 X2.531 Y2.396 Z4.950 
G1 X2.336 Y2.396 Z4.950 
G1 X2.336 Y2.393 Z4.950 
G1 X2.531 Y2.393 Z4.950 
G1 X2.531 Y2.391 Z4.950 
G1 X2.336 Y2.391 Z4.950 
G1 X2.336 Y2.388 Z4.950 
G1 X2.531 Y2.388 Z4.950 
G1 X2.531 Y2.386 Z4.950 
G1 X2.336 Y2.386 Z4.950 
G1 X2.336 Y2.383 Z4.950 
G1 X2.531 Y2.383 Z4.950 
G1 X2.531 Y2.381 Z4.950 
G1 X2.336 Y2.381 Z4.950 
G1 X2.336 Y2.378 Z4.950 
G1 X2.531 Y2.378 Z4.950 
G1 X2.531 Y2.376 Z4.950 
G1 X2.336 Y2.376 Z4.950 
G1 X2.336 Y2.373 Z4.950 
G1 X2.531 Y2.373 Z4.950 
G1 X2.531 Y2.371 Z4.950 
G1 X2.336 Y2.371 Z4.950 
G1 X2.336 Y2.368 Z4.950 
G1 X2.531 Y2.368 Z4.950 
G1 X2.531 Y2.366 Z4.950 
G1 X2.336 Y2.366 Z4.950 
G1 X2.336 Y2.363 Z4.950 
G1 X2.531 Y2.363 Z4.950 
G1 X2.531 Y2.361 Z4.950 
G1 X2.336 Y2.361 Z4.950 
G1 X2.336 Y2.358 Z4.950 
G1 X2.531 Y2.358 Z4.950 
G1 X2.531 Y2.356 Z4.950 
G1 X2.336 Y2.356 Z4.950 
G1 X2.336 Y2.353 Z4.950 
G1 X2.531 Y2.353 Z4.950 
G1 X2.531 Y2.351 Z4.950 
G1 X2.336 Y2.351 Z4.950 
G1 X2.336 Y2.348 Z4.950 
G1 X2.531 Y2.348 Z4.950 
G1 X2.531 Y2.346 Z4.950 
G1 X2.336 Y2.346 Z4.950 
G1 X2.336 Y2.343 Z4.950 
G1 X2.531 Y2.343 Z4.950 
G1 X2.531 Y2.341 Z4.950 
G1 X2.336 Y2.341 Z4.950 
G1 X2.336 Y2.338 Z4.950 
G1 X2.531 Y2.338 Z4.950 
G1 X2.531 Y2.336 Z4.950 
G1 X2.336 Y2.336 Z4.950 
G0 Z10.001 
G0 Z10.001 
G0 X2.336 Y2.336 
G0 Y4.869 
G0 Y4.869 Z8.001 
G1 X2.336 Y4.869 Z4.996 
G1 X2.531 Y4.869 Z4.996 
G1 X2.531 Y4.872 Z4.996 
G1 X2.336 Y4.872 Z4.996 
G1 X2.336 Y4.874 Z4.996 
G1 X2.531 Y4.874 Z4.996 
G1 X2.531 Y4.877 Z4.996 
G1 X2.336 Y4.877 Z4.996 
G1 X2.336 Y4.879 Z4.996 
G1 X2.531 Y4.879 Z4.996 
G1 X2.531 Y4.882 Z4.996 
G1 X2.336 Y4.882 Z4.996 
G1 X2.336 Y4.884 Z4.996 
G1 X2.531 Y4.884 Z4.996 
G1 X2.531 Y4.887 Z4.996 
G1 X2.336 Y4.887 Z4.996 
G1 X2.336 Y4.889 Z4.996 
G1 X2.531 Y4.889 Z4.996 
G1 X2.531 Y4.892 Z4.996 
G1 X2.336 Y4.892 Z4.996 
G1 X2.336 Y4.894 Z4.996 
G1 X2.531 Y4.894 Z4.996 
G1 X2.531 Y4.897 Z4.996 
G1 X2.336 Y4.897 Z4.996 
G1 X2.336 Y4.899 Z4.996 
G1 X2.531 Y4.899 Z4.996 
G1 X2.531 Y4.902 Z4.996 
G1 X2.336 Y4.902 Z4.996 
G1 X2.336 Y4.904 Z4.996 
G1 X2.531 Y4.904 Z4.996 
G1 X2.531 Y4.907 Z4.996 
G1 X2.336 Y4.907 Z4.996 
G1 X2.336 Y4.909 Z4.996 
G1 X2.531 Y4.909 Z4.996 
G1 X2.531 Y4.912 Z4.996 
G1 X2.336 Y4.912 Z4.996 
G1 X2.336 Y4.914 Z4.996 
G1 X2.531 Y4.914 Z4.996 
G1 X2.531 Y4.917 Z4.996 
G1 X2.336 Y4.917 Z4.996 
G1 X2.336 Y4.919 Z4.996 
G1 X2.531 Y4.919 Z4.996 
G1 X2.531 Y4.922 Z4.996 
G1 X2.336 Y4.922 Z4.996 
G1 X2.336 Y4.924 Z4.996 
G1 X2.531 Y4.924 Z4.996 
G1 X2.531 Y4.927 Z4.996 
G1 X2.336 Y4.927 Z4.996 
G1 X2.336 Y4.929 Z4.996 
G1 X2.531 Y4.929 Z4.996 
G1 X2.531 Y4.932 Z4.996 
G1 X2.336 Y4.932 Z4.996 
G1 X2.336 Y4.934 Z4.996 
G1 X2.531 Y4.934 Z4.996 
G1 X2.531 Y4.937 Z4.996 
G1 X2.336 Y4.937 Z4.996 
G1 X2.336 Y4.939 Z4.996 
G1 X2.531 Y4.939 Z4.996 
G1 X2.531 Y4.942 Z4.996 
G1 X2.336 Y4.942 Z4.996 
G1 X2.336 Y4.944 Z4.996 
G1 X2.531 Y4.944 Z4.996 
G1 X2.531 Y4.947 Z4.996 
G1 X2.336 Y4.947 Z4.996 
G1 X2.336 Y4.949 Z4.996 
G1 X2.531 Y4.949 Z4.996 
G1 X2.531 Y4.952 Z4.996 
G1 X2.336 Y4.952 Z4.996 
G1 X2.336 Y4.954 Z4.996 
G1 X2.531 Y4.954 Z4.996 
G1 X2.531 Y4.957 Z4.996 
G1 X2.336 Y4.957 Z4.996 
G1 X2.336 Y4.959 Z4.996 
G1 X2.531 Y4.959 Z4.996 
G1 X2.531 Y4.962 Z4.996 
G1 X2.336 Y4.962 Z4.996 
G1 X2.336 Y4.964 Z4.996 
G1 X2.531 Y4.964 Z4.996 
G1 X2.531 Y4.967 Z4.996 
G1 X2.336 Y4.967 Z4.996 
G1 X2.336 Y4.969 Z4.996 
G1 X2.531 Y4.969 Z4.996 
G1 X2.531 Y4.972 Z4.996 
G1 X2.336 Y4.972 Z4.996 
G1 X2.336 Y4.974 Z4.996 
G1 X2.531 Y4.974 Z4.996 
G1 X2.531 Y4.977 Z4.996 
G1 X2.336 Y4.977 Z4.996 
G1 X2.336 Y4.979 Z4.996 
G1 X2.531 Y4.979 Z4.996 
G1 X2.531 Y4.982 Z4.996 
G1 X2.336 Y4.982 Z4.996 
G1 X2.336 Y4.984 Z4.996 
G1 X2.531 Y4.984 Z4.996 
G1 X2.531 Y4.987 Z4.996 
G1 X2.336 Y4.987 Z4.996 
G1 X2.336 Y4.989 Z4.996 
G1 X2.531 Y4.989 Z4.996 
G1 X2.531 Y4.992 Z4.996 
G1 X2.336 Y4.992 Z4.996 
G1 X2.336 Y4.994 Z4.996 
G1 X2.531 Y4.994 Z4.996 
G1 X2.531 Y4.997 Z4.996 
G1 X2.336 Y4.997 Z4.996 
G1 X2.336 Y4.999 Z4.996 
G1 X2.531 Y4.999 Z4.996 
G1 X2.531 Y5.002 Z4.996 
G1 X2.336 Y5.002 Z4.996 
G1 X2.336 Y5.004 Z4.996 
G1 X2.531 Y5.004 Z4.996 
G1 X2.531 Y5.007 Z4.996 
G1 X2.336 Y5.007 Z4.996 
G1 X2.336 Y5.009 Z4.996 
G1 X2.531 Y5.009 Z4.996 
G1 X2.531 Y5.012 Z4.996 
G1 X2.336 Y5.012 Z4.996 
G1 X2.336 Y5.014 Z4.996 
G1 X2.531 Y5.014 Z4.996 
G1 X2.531 Y5.017 Z4.996 
G1 X2.336 Y5.017 Z4.996 
G1 X2.336 Y5.019 Z4.996 
G1 X2.531 Y5.019 Z4.996 
G1 X2.531 Y5.022 Z4.996 
G1 X2.336 Y5.022 Z4.996 
G1 X2.336 Y5.024 Z4.996 
G1 X2.531 Y5.024 Z4.996 
G1 X2.531 Y5.027 Z4.996 
G1 X2.336 Y5.027 Z4.996 
G1 X2.336 Y5.029 Z4.996 
G1 X2.531 Y5.029 Z4.996 
G1 X2.531 Y5.032 Z4.996 
G1 X2.336 Y5.032 Z4.996 
G1 X2.336 Y5.034 Z4.996 
G1 X2.531 Y5.034 Z4.996 
G1 X2.531 Y5.037 Z4.996 
G1 X2.336 Y5.037 Z4.996 
G1 X2.336 Y5.039 Z4.996 
G1 X2.531 Y5.039 Z4.996 
G1 X2.531 Y5.042 Z4.996 
G1 X2.336 Y5.042 Z4.996 
G1 X2.336 Y5.044 Z4.996 
G1 X2.531 Y5.044 Z4.996 
G1 X2.531 Y5.047 Z4.996 
G1 X2.336 Y5.047 Z4.996 
G1 X2.336 Y5.049 Z4.996 
G1 X2.531 Y5.049 Z4.996 
G1 X2.531 Y5.052 Z4.996 
G1 X2.336 Y5.052 Z4.996 
G1 X2.336 Y5.054 Z4.996 
G1 X2.531 Y5.054 Z4.996 
G1 X2.531 Y5.057 Z4.996 
G1 X2.336 Y5.057 Z4.996 
G1 X2.336 Y5.059 Z4.996 
G1 X2.531 Y5.059 Z4.996 
G1 X2.531 Y5.062 Z4.996 
G1 X2.336 Y5.062 Z4.996 
G1 X2.336 Y5.064 Z4.996 
G1 X2.531 Y5.064 Z4.996 
G1 X2.531 Y5.064 Z4.991 
G1 X2.336 Y5.064 Z4.991 
G1 X2.336 Y5.062 Z4.991 
G1 X2.531 Y5.062 Z4.991 
G1 X2.531 Y5.059 Z4.991 
G1 X2.336 Y5.059 Z4.991 
G1 X2.336 Y5.057 Z4.991 
G1 X2.531 Y5.057 Z4.991 
G1 X2.531 Y5.054 Z4.991 
G1 X2.336 Y5.054 Z4.991 
G1 X2.336 Y5.052 Z4.991 
G1 X2.531 Y5.052 Z4.991 
G1 X2.531 Y5.049 Z4.991 
G1 X2.336 Y5.049 Z4.991 
G1 X2.336 Y5.047 Z4.991 
G1 X2.531 Y5.047 Z4.991 
G1 X2.531 Y5.044 Z4.991 
G1 X2.336 Y5.044 Z4.991 
G1 X2.336 Y5.042 Z4.991 
G1 X2.531 Y5.042 Z4.991 
G1 X2.531 Y5.039 Z4.991 
G1 X2.336 Y5.039 Z4.991 
G1 X2.336 Y5.037 Z4.991 
G1 X2.531 Y5.037 Z4.991 
G1 X2.531 Y5.034 Z4.991 
G1 X2.336 Y5.034 Z4.991 
G1 X2.336 Y5.032 Z4.991 
G1 X2.531 Y5.032 Z4.991 
G1 X2.531 Y5.029 Z4.991 
G1 X2.336 Y5.029 Z4.991 
G1 X2.336 Y5.027 Z4.991 
G1 X2.531 Y5.027 Z4.991 
G1 X2.531 Y5.024 Z4.991 
G1 X2.336 Y5.024 Z4.991 
G1 X2.336 Y5.022 Z4.991 
G1 X2.531 Y5.022 Z4.991 
G1 X2.531 Y5.019 Z4.991 
G1 X2.336 Y5.019 Z4.991 
G1 X2.336 Y5.017 Z4.991 
G1 X2.531 Y5.017 Z4.991 
G1 X2.531 Y5.014 Z4.991 
G1 X2.336 Y5.014 Z4.991 
G1 X2.336 Y5.012 Z4.991 
G1 X2.531 Y5.012 Z4.991 
G1 X2.531 Y5.009 Z4.991 
G1 X2.336 Y5.009 Z4.991 
G1 X2.336 Y5.007 Z4.991 
G1 X2.531 Y5.007 Z4.991 
G1 X2.531 Y5.004 Z4.991 
G1 X2.336 Y5.004 Z4.991 
G1 X2.336 Y5.002 Z4.991 
G1 X2.531 Y5.002 Z4.991 
G1 X2.531 Y4.999 Z4.991 
G1 X2.336 Y4.999 Z4.991 
G1 X2.336 Y4.997 Z4.991 
G1 X2.531 Y4.997 Z4.991 
G1 X2.531 Y4.994 Z4.991 
G1 X2.336 Y4.994 Z4.991 
G1 X2.336 Y4.992 Z4.991 
G1 X2.531 Y4.992 Z4.991 
G1 X2.531 Y4.989 Z4.991 
G1 X2.336 Y4.989 Z4.991 
G1 X2.336 Y4.987 Z4.991 
G1 X2.531 Y4.987 Z4.991 
G1 X2.531 Y4.984 Z4.991 
G1 X2.336 Y4.984 Z4.991 
G1 X2.336 Y4.982 Z4.991 
G1 X2.531 Y4.982 Z4.991 
G1 X2.531 Y4.979 Z4.991 
G1 X2.336 Y4.979 Z4.991 
G1 X2.336 Y4.977 Z4.991 
G1 X2.531 Y4.977 Z4.991 
G1 X2.531 Y4.974 Z4.991 
G1 X2.336 Y4.974 Z4.991 
G1 X2.336 Y4.972 Z4.991 
G1 X2.531 Y4.972 Z4.991 
G1 X2.531 Y4.969 Z4.991 
G1 X2.336 Y4.969 Z4.991 
G1 X2.336 Y4.967 Z4.991 
G1 X2.531 Y4.967 Z4.991 
G1 X2.531 Y4.964 Z4.991 
G1 X2.336 Y4.964 Z4.991 
G1 X2.336 Y4.962 Z4.991 
G1 X2.531 Y4.962 Z4.991 
G1 X2.531 Y4.959 Z4.991 
G1 X2.336 Y4.959 Z4.991 
G1 X2.336 Y4.957 Z4.991 
G1 X2.531 Y4.957 Z4.991 
G1 X2.531 Y4.954 Z4.991 
G1 X2.336 Y4.954 Z4.991 
G1 X2.336 Y4.952 Z4.991 
G1 X2.531 Y4.952 Z4.991 
G1 X2.531 Y4.949 Z4.991 
G1 X2.336 Y4.949 Z4.991 
G1 X2.336 Y4.947 Z4.991 
G1 X2.531 Y4.947 Z4.991 
G1 X2.531 Y4.944 Z4.991 
G1 X2.336 Y4.944 Z4.991 
G1 X2.336 Y4.942 Z4.991 
G1 X2.531 Y4.942 Z4.991 
G1 X2.531 Y4.939 Z4.991 
G1 X2.336 Y4.939 Z4.991 
G1 X2.336 Y4.937 Z4.991 
G1 X2.531 Y4.937 Z4.991 
G1 X2.531 Y4.934 Z4.991 
G1 X2.336 Y4.934 Z4.991 
G1 X2.336 Y4.932 Z4.991 
G1 X2.531 Y4.932 Z4.991 
G1 X2.531 Y4.929 Z4.991 
G1 X2.336 Y4.929 Z4.991 
G1 X2.336 Y4.927 Z4.991 
G1 X2.531 Y4.927 Z4.991 
G1 X2.531 Y4.924 Z4.991 
G1 X2.336 Y4.924 Z4.991 
G1 X2.336 Y4.922 Z4.991 
G1 X2.531 Y4.922 Z4.991 
G1 X2.531 Y4.919 Z4.991 
G1 X2.336 Y4.919 Z4.991 
G1 X2.336 Y4.917 Z4.991 
G1 X2.531 Y4.917 Z4.991 
G1 X2.531 Y4.914 Z4.991 
G1 X2.336 Y4.914 Z4.991 
G1 X2.336 Y4.912 Z4.991 
G1 X2.531 Y4.912 Z4.991 
G1 X2.531 Y4.909 Z4.991 
G1 X2.336 Y4.909 Z4.991 
G1 X2.336 Y4.907 Z4.991 
G1 X2.531 Y4.907 Z4.991 
G1 X2.531 Y4.904 Z4.991 
G1 X2.336 Y4.904 Z4.991 
G1 X2.336 Y4.902 Z4.991 
G1 X2.531 Y4.902 Z4.991 
G1 X2.531 Y4.899 Z4.991 
G1 X2.336 Y4.899 Z4.991 
G1 X2.336 Y4.897 Z4.991 
G1 X2.531 Y4.897 Z4.991 
G1 X2.531 Y4.894 Z4.991 
G1 X2.336 Y4.894 Z4.991 
G1 X2.336 Y4.892 Z4.991 
G1 X2.531 Y4.892 Z4.991 
G1 X2.531 Y4.889 Z4.991 
G1 X2.336 Y4.889 Z4.991 
G1 X2.336 Y4.887 Z4.991 
G1 X2.531 Y4.887 Z4.991 
G1 X2.531 Y4.884 Z4.991 
G1 X2.336 Y4.884 Z4.991 
G1 X2.336 Y4.882 Z4.991 
G1 X2.531 Y4.882 Z4.991 
G1 X2.531 Y4.879 Z4.991 
G1 X2.336 Y4.879 Z4.991 
G1 X2.336 Y4.877 Z4.991 
G1 X2.531 Y4.877 Z4.991 
G1 X2.531 Y4.874 Z4.991 
G1 X2.336 Y4.874 Z4.991 
G1 X2.336 Y4.872 Z4.991 
G1 X2.531 Y4.872 Z4.991 
G1 X2.531 Y4.869 Z4.991 
G1 X2.336 Y4.869 Z4.991 
G1 X2.336 Y4.869 Z4.986 
G1 X2.531 Y4.869 Z4.986 
G1 X2.531 Y4.872 Z4.986 
G1 X2.336 Y4.872 Z4.986 
G1 X2.336 Y4.874 Z4.986 
G1 X2.531 Y4.874 Z4.986 
G1 X2.531 Y4.877 Z4.986 
G1 X2.336 Y4.877 Z4.986 
G1 X2.336 Y4.879 Z4.986 
G1 X2.531 Y4.879 Z4.986 
G1 X2.531 Y4.882 Z4.986 
G1 X2.336 Y4.882 Z4.986 
G1 X2.336 Y4.884 Z4.986 
G1 X2.531 Y4.884 Z4.986 
G1 X2.531 Y4.887 Z4.986 
G1 X2.336 Y4.887 Z4.986 
G1 X2.336 Y4.889 Z4.986 
G1 X2.531 Y4.889 Z4.986 
G1 X2.531 Y4.892 Z4.986 
G1 X2.336 Y4.892 Z4.986 
G1 X2.336 Y4.894 Z4.986 
G1 X2.531 Y4.894 Z4.986 
G1 X2.531 Y4.897 Z4.986 
G1 X2.336 Y4.897 Z4.986 
G1 X2.336 Y4.899 Z4.986 
G1 X2.531 Y4.899 Z4.986 
G1 X2.531 Y4.902 Z4.986 
G1 X2.336 Y4.902 Z4.986 
G1 X2.336 Y4.904 Z4.986 
G1 X2.531 Y4.904 Z4.986 
G1 X2.531 Y4.907 Z4.986 
G1 X2.336 Y4.907 Z4.986 
G1 X2.336 Y4.909 Z4.986 
G1 X2.531 Y4.909 Z4.986 
G1 X2.531 Y4.912 Z4.986 
G1 X2.336 Y4.912 Z4.986 
G1 X2.336 Y4.914 Z4.986 
G1 X2.531 Y4.914 Z4.986 
G1 X2.531 Y4.917 Z4.986 
G1 X2.336 Y4.917 Z4.986 
G1 X2.336 Y4.919 Z4.986 
G1 X2.531 Y4.919 Z4.986 
G1 X2.531 Y4.922 Z4.986 
G1 X2.336 Y4.922 Z4.986 
G1 X2.336 Y4.924 Z4.986 
G1 X2.531 Y4.924 Z4.986 
G1 X2.531 Y4.927 Z4.986 
G1 X2.336 Y4.927 Z4.986 
G1 X2.336 Y4.929 Z4.986 
G1 X2.531 Y4.929 Z4.986 
G1 X2.531 Y4.932 Z4.986 
G1 X2.336 Y4.932 Z4.986 
G1 X2.336 Y4.934 Z4.986 
G1 X2.531 Y4.934 Z4.986 
G1 X2.531 Y4.937 Z4.986 
G1 X2.336 Y4.937 Z4.986 
G1 X2.336 Y4.939 Z4.986 
G1 X2.531 Y4.939 Z4.986 
G1 X2.531 Y4.942 Z4.986 
G1 X2.336 Y4.942 Z4.986 
G1 X2.336 Y4.944 Z4.986 
G1 X2.531 Y4.944 Z4.986 
G1 X2.531 Y4.947 Z4.986 
G1 X2.336 Y4.947 Z4.986 
G1 X2.336 Y4.949 Z4.986 
G1 X2.531 Y4.949 Z4.986 
G1 X2.531 Y4.952 Z4.986 
G1 X2.336 Y4.952 Z4.986 
G1 X2.336 Y4.954 Z4.986 
G1 X2.531 Y4.954 Z4.986 
G1 X2.531 Y4.957 Z4.986 
G1 X2.336 Y4.957 Z4.986 
G1 X2.336 Y4.959 Z4.986 
G1 X2.531 Y4.959 Z4.986 
G1 X2.531 Y4.962 Z4.986 
G1 X2.336 Y4.962 Z4.986 
G1 X2.336 Y4.964 Z4.986 
G1 X2.531 Y4.964 Z4.986 
G1 X2.531 Y4.967 Z4.986 
G1 X2.336 Y4.967 Z4.986 
G1 X2.336 Y4.969 Z4.986 
G1 X2.531 Y4.969 Z4.986 
G1 X2.531 Y4.972 Z4.986 
G1 X2.336 Y4.972 Z4.986 
G1 X2.336 Y4.974 Z4.986 
G1 X2.531 Y4.974 Z4.986 
G1 X2.531 Y4.977 Z4.986 
G1 X2.336 Y4.977 Z4.986 
G1 X2.336 Y4.979 Z4.986 
G1 X2.531 Y4.979 Z4.986 
G1 X2.531 Y4.982 Z4.986 
G1 X2.336 Y4.982 Z4.986 
G1 X2.336 Y4.984 Z4.986 
G1 X2.531 Y4.984 Z4.986 
G1 X2.531 Y4.987 Z4.986 
G1 X2.336 Y4.987 Z4.986 
G1 X2.336 Y4.989 Z4.986 
G1 X2.531 Y4.989 Z4.986 
G1 X2.531 Y4.992 Z4.986 
G1 X2.336 Y4.992 Z4.986 
G1 X2.336 Y4.994 Z4.986 
G1 X2.531 Y4.994 Z4.986 
G1 X2.531 Y4.997 Z4.986 
G1 X2.336 Y4.997 Z4.986 
G1 X2.336 Y4.999 Z4.986 
G1 X2.531 Y4.999 Z4.986 
G1 X2.531 Y5.002 Z4.986 
G1 X2.336 Y5.002 Z4.986 
G1 X2.336 Y5.004 Z4.986 
G1 X2.531 Y5.004 Z4.986 
G1 X2.531 Y5.007 Z4.986 
G1 X2.336 Y5.007 Z4.986 
G1 X2.336 Y5.009 Z4.986 
G1 X2.531 Y5.009 Z4.986 
G1 X2.531 Y5.012 Z4.986 
G1 X2.336 Y5.012 Z4.986 
G1 X2.336 Y5.014 Z4.986 
G1 X2.531 Y5.014 Z4.986 
G1 X2.531 Y5.017 Z4.986 
G1 X2.336 Y5.017 Z4.986 
G1 X2.336 Y5.019 Z4.986 
G1 X2.531 Y5.019 Z4.986 
G1 X2.531 Y5.022 Z4.986 
G1 X2.336 Y5.022 Z4.986 
G1 X2.336 Y5.024 Z4.986 
G1 X2.531 Y5.024 Z4.986 
G1 X2.531 Y5.027 Z4.986 
G1 X2.336 Y5.027 Z4.986 
G1 X2.336 Y5.029 Z4.986 
G1 X2.531 Y5.029 Z4.986 
G1 X2.531 Y5.032 Z4.986 
G1 X2.336 Y5.032 Z4.986 
G1 X2.336 Y5.034 Z4.986 
G1 X2.531 Y5.034 Z4.986 
G1 X2.531 Y5.037 Z4.986 
G1 X2.336 Y5.037 Z4.986 
G1 X2.336 Y5.039 Z4.986 
G1 X2.531 Y5.039 Z4.986 
G1 X2.531 Y5.042 Z4.986 
G1 X2.336 Y5.042 Z4.986 
G1 X2.336 Y5.044 Z4.986 
G1 X2.531 Y5.044 Z4.986 
G1 X2.531 Y5.047 Z4.986 
G1 X2.336 Y5.047 Z4.986 
G1 X2.336 Y5.049 Z4.986 
G1 X2.531 Y5.049 Z4.986 
G1 X2.531 Y5.052 Z4.986 
G1 X2.336 Y5.052 Z4.986 
G1 X2.336 Y5.054 Z4.986 
G1 X2.531 Y5.054 Z4.986 
G1 X2.531 Y5.057 Z4.986 
G1 X2.336 Y5.057 Z4.986 
G1 X2.336 Y5.059 Z4.986 
G1 X2.531 Y5.059 Z4.986 
G1 X2.531 Y5.062 Z4.986 
G1 X2.336 Y5.062 Z4.986 
G1 X2.336 Y5.064 Z4.986 
G1 X2.531 Y5.064 Z4.986 
G1 X2.531 Y5.064 Z4.981 
G1 X2.336 Y5.064 Z4.981 
G1 X2.336 Y5.062 Z4.981 
G1 X2.531 Y5.062 Z4.981 
G1 X2.531 Y5.059 Z4.981 
G1 X2.336 Y5.059 Z4.981 
G1 X2.336 Y5.057 Z4.981 
G1 X2.531 Y5.057 Z4.981 
G1 X2.531 Y5.054 Z4.981 
G1 X2.336 Y5.054 Z4.981 
G1 X2.336 Y5.052 Z4.981 
G1 X2.531 Y5.052 Z4.981 
G1 X2.531 Y5.049 Z4.981 
G1 X2.336 Y5.049 Z4.981 
G1 X2.336 Y5.047 Z4.981 
G1 X2.531 Y5.047 Z4.981 
G1 X2.531 Y5.044 Z4.981 
G1 X2.336 Y5.044 Z4.981 
G1 X2.336 Y5.042 Z4.981 
G1 X2.531 Y5.042 Z4.981 
G1 X2.531 Y5.039 Z4.981 
G1 X2.336 Y5.039 Z4.981 
G1 X2.336 Y5.037 Z4.981 
G1 X2.531 Y5.037 Z4.981 
G1 X2.531 Y5.034 Z4.981 
G1 X2.336 Y5.034 Z4.981 
G1 X2.336 Y5.032 Z4.981 
G1 X2.531 Y5.032 Z4.981 
G1 X2.531 Y5.029 Z4.981 
G1 X2.336 Y5.029 Z4.981 
G1 X2.336 Y5.027 Z4.981 
G1 X2.531 Y5.027 Z4.981 
G1 X2.531 Y5.024 Z4.981 
G1 X2.336 Y5.024 Z4.981 
G1 X2.336 Y5.022 Z4.981 
G1 X2.531 Y5.022 Z4.981 
G1 X2.531 Y5.019 Z4.981 
G1 X2.336 Y5.019 Z4.981 
G1 X2.336 Y5.017 Z4.981 
G1 X2.531 Y5.017 Z4.981 
G1 X2.531 Y5.014 Z4.981 
G1 X2.336 Y5.014 Z4.981 
G1 X2.336 Y5.012 Z4.981 
G1 X2.531 Y5.012 Z4.981 
G1 X2.531 Y5.009 Z4.981 
G1 X2.336 Y5.009 Z4.981 
G1 X2.336 Y5.007 Z4.981 
G1 X2.531 Y5.007 Z4.981 
G1 X2.531 Y5.004 Z4.981 
G1 X2.336 Y5.004 Z4.981 
G1 X2.336 Y5.002 Z4.981 
G1 X2.531 Y5.002 Z4.981 
G1 X2.531 Y4.999 Z4.981 
G1 X2.336 Y4.999 Z4.981 
G1 X2.336 Y4.997 Z4.981 
G1 X2.531 Y4.997 Z4.981 
G1 X2.531 Y4.994 Z4.981 
G1 X2.336 Y4.994 Z4.981 
G1 X2.336 Y4.992 Z4.981 
G1 X2.531 Y4.992 Z4.981 
G1 X2.531 Y4.989 Z4.981 
G1 X2.336 Y4.989 Z4.981 
G1 X2.336 Y4.987 Z4.981 
G1 X2.531 Y4.987 Z4.981 
G1 X2.531 Y4.984 Z4.981 
G1 X2.336 Y4.984 Z4.981 
G1 X2.336 Y4.982 Z4.981 
G1 X2.531 Y4.982 Z4.981 
G1 X2.531 Y4.979 Z4.981 
G1 X2.336 Y4.979 Z4.981 
G1 X2.336 Y4.977 Z4.981 
G1 X2.531 Y4.977 Z4.981 
G1 X2.531 Y4.974 Z4.981 
G1 X2.336 Y4.974 Z4.981 
G1 X2.336 Y4.972 Z4.981 
G1 X2.531 Y4.972 Z4.981 
G1 X2.531 Y4.969 Z4.981 
G1 X2.336 Y4.969 Z4.981 
G1 X2.336 Y4.967 Z4.981 
G1 X2.531 Y4.967 Z4.981 
G1 X2.531 Y4.964 Z4.981 
G1 X2.336 Y4.964 Z4.981 
G1 X2.336 Y4.962 Z4.981 
G1 X2.531 Y4.962 Z4.981 
G1 X2.531 Y4.959 Z4.981 
G1 X2.336 Y4.959 Z4.981 
G1 X2.336 Y4.957 Z4.981 
G1 X2.531 Y4.957 Z4.981 
G1 X2.531 Y4.954 Z4.981 
G1 X2.336 Y4.954 Z4.981 
G1 X2.336 Y4.952 Z4.981 
G1 X2.531 Y4.952 Z4.981 
G1 X2.531 Y4.949 Z4.981 
G1 X2.336 Y4.949 Z4.981 
G1 X2.336 Y4.947 Z4.981 
G1 X2.531 Y4.947 Z4.981 
G1 X2.531 Y4.944 Z4.981 
G1 X2.336 Y4.944 Z4.981 
G1 X2.336 Y4.942 Z4.981 
G1 X2.531 Y4.942 Z4.981 
G1 X2.531 Y4.939 Z4.981 
G1 X2.336 Y4.939 Z4.981 
G1 X2.336 Y4.937 Z4.981 
G1 X2.531 Y4.937 Z4.981 
G1 X2.531 Y4.934 Z4.981 
G1 X2.336 Y4.934 Z4.981 
G1 X2.336 Y4.932 Z4.981 
G1 X2.531 Y4.932 Z4.981 
G1 X2.531 Y4.929 Z4.981 
G1 X2.336 Y4.929 Z4.981 
G1 X2.336 Y4.927 Z4.981 
G1 X2.531 Y4.927 Z4.981 
G1 X2.531 Y4.924 Z4.981 
G1 X2.336 Y4.924 Z4.981 
G1 X2.336 Y4.922 Z4.981 
G1 X2.531 Y4.922 Z4.981 
G1 X2.531 Y4.919 Z4.981 
G1 X2.336 Y4.919 Z4.981 
G1 X2.336 Y4.917 Z4.981 
G1 X2.531 Y4.917 Z4.981 
G1 X2.531 Y4.914 Z4.981 
G1 X2.336 Y4.914 Z4.981 
G1 X2.336 Y4.912 Z4.981 
G1 X2.531 Y4.912 Z4.981 
G1 X2.531 Y4.909 Z4.981 
G1 X2.336 Y4.909 Z4.981 
G1 X2.336 Y4.907 Z4.981 
G1 X2.531 Y4.907 Z4.981 
G1 X2.531 Y4.904 Z4.981 
G1 X2.336 Y4.904 Z4.981 
G1 X2.336 Y4.902 Z4.981 
G1 X2.531 Y4.902 Z4.981 
G1 X2.531 Y4.899 Z4.981 
G1 X2.336 Y4.899 Z4.981 
G1 X2.336 Y4.897 Z4.981 
G1 X2.531 Y4.897 Z4.981 
G1 X2.531 Y4.894 Z4.981 
G1 X2.336 Y4.894 Z4.981 
G1 X2.336 Y4.892 Z4.981 
G1 X2.531 Y4.892 Z4.981 
G1 X2.531 Y4.889 Z4.981 
G1 X2.336 Y4.889 Z4.981 
G1 X2.336 Y4.887 Z4.981 
G1 X2.531 Y4.887 Z4.981 
G1 X2.531 Y4.884 Z4.981 
G1 X2.336 Y4.884 Z4.981 
G1 X2.336 Y4.882 Z4.981 
G1 X2.531 Y4.882 Z4.981 
G1 X2.531 Y4.879 Z4.981 
G1 X2.336 Y4.879 Z4.981 
G1 X2.336 Y4.877 Z4.981 
G1 X2.531 Y4.877 Z4.981 
G1 X2.531 Y4.874 Z4.981 
G1 X2.336 Y4.874 Z4.981 
G1 X2.336 Y4.872 Z4.981 
G1 X2.531 Y4.872 Z4.981 
G1 X2.531 Y4.869 Z4.981 
G1 X2.336 Y4.869 Z4.981 
G1 X2.336 Y4.869 Z4.976 
G1 X2.531 Y4.869 Z4.976 
G1 X2.531 Y4.872 Z4.976 
G1 X2.336 Y4.872 Z4.976 
G1 X2.336 Y4.874 Z4.976 
G1 X2.531 Y4.874 Z4.976 
G1 X2.531 Y4.877 Z4.976 
G1 X2.336 Y4.877 Z4.976 
G1 X2.336 Y4.879 Z4.976 
G1 X2.531 Y4.879 Z4.976 
G1 X2.531 Y4.882 Z4.976 
G1 X2.336 Y4.882 Z4.976 
G1 X2.336 Y4.884 Z4.976 
G1 X2.531 Y4.884 Z4.976 
G1 X2.531 Y4.887 Z4.976 
G1 X2.336 Y4.887 Z4.976 
G1 X2.336 Y4.889 Z4.976 
G1 X2.531 Y4.889 Z4.976 
G1 X2.531 Y4.892 Z4.976 
G1 X2.336 Y4.892 Z4.976 
G1 X2.336 Y4.894 Z4.976 
G1 X2.531 Y4.894 Z4.976 
G1 X2.531 Y4.897 Z4.976 
G1 X2.336 Y4.897 Z4.976 
G1 X2.336 Y4.899 Z4.976 
G1 X2.531 Y4.899 Z4.976 
G1 X2.531 Y4.902 Z4.976 
G1 X2.336 Y4.902 Z4.976 
G1 X2.336 Y4.904 Z4.976 
G1 X2.531 Y4.904 Z4.976 
G1 X2.531 Y4.907 Z4.976 
G1 X2.336 Y4.907 Z4.976 
G1 X2.336 Y4.909 Z4.976 
G1 X2.531 Y4.909 Z4.976 
G1 X2.531 Y4.912 Z4.976 
G1 X2.336 Y4.912 Z4.976 
G1 X2.336 Y4.914 Z4.976 
G1 X2.531 Y4.914 Z4.976 
G1 X2.531 Y4.917 Z4.976 
G1 X2.336 Y4.917 Z4.976 
G1 X2.336 Y4.919 Z4.976 
G1 X2.531 Y4.919 Z4.976 
G1 X2.531 Y4.922 Z4.976 
G1 X2.336 Y4.922 Z4.976 
G1 X2.336 Y4.924 Z4.976 
G1 X2.531 Y4.924 Z4.976 
G1 X2.531 Y4.927 Z4.976 
G1 X2.336 Y4.927 Z4.976 
G1 X2.336 Y4.929 Z4.976 
G1 X2.531 Y4.929 Z4.976 
G1 X2.531 Y4.932 Z4.976 
G1 X2.336 Y4.932 Z4.976 
G1 X2.336 Y4.934 Z4.976 
G1 X2.531 Y4.934 Z4.976 
G1 X2.531 Y4.937 Z4.976 
G1 X2.336 Y4.937 Z4.976 
G1 X2.336 Y4.939 Z4.976 
G1 X2.531 Y4.939 Z4.976 
G1 X2.531 Y4.942 Z4.976 
G1 X2.336 Y4.942 Z4.976 
G1 X2.336 Y4.944 Z4.976 
G1 X2.531 Y4.944 Z4.976 
G1 X2.531 Y4.947 Z4.976 
G1 X2.336 Y4.947 Z4.976 
G1 X2.336 Y4.949 Z4.976 
G1 X2.531 Y4.949 Z4.976 
G1 X2.531 Y4.952 Z4.976 
G1 X2.336 Y4.952 Z4.976 
G1 X2.336 Y4.954 Z4.976 
G1 X2.531 Y4.954 Z4.976 
G1 X2.531 Y4.957 Z4.976 
G1 X2.336 Y4.957 Z4.976 
G1 X2.336 Y4.959 Z4.976 
G1 X2.531 Y4.959 Z4.976 
G1 X2.531 Y4.962 Z4.976 
G1 X2.336 Y4.962 Z4.976 
G1 X2.336 Y4.964 Z4.976 
G1 X2.531 Y4.964 Z4.976 
G1 X2.531 Y4.967 Z4.976 
G1 X2.336 Y4.967 Z4.976 
G1 X2.336 Y4.969 Z4.976 
G1 X2.531 Y4.969 Z4.976 
G1 X2.531 Y4.972 Z4.976 
G1 X2.336 Y4.972 Z4.976 
G1 X2.336 Y4.974 Z4.976 
G1 X2.531 Y4.974 Z4.976 
G1 X2.531 Y4.977 Z4.976 
G1 X2.336 Y4.977 Z4.976 
G1 X2.336 Y4.979 Z4.976 
G1 X2.531 Y4.979 Z4.976 
G1 X2.531 Y4.982 Z4.976 
G1 X2.336 Y4.982 Z4.976 
G1 X2.336 Y4.984 Z4.976 
G1 X2.531 Y4.984 Z4.976 
G1 X2.531 Y4.987 Z4.976 
G1 X2.336 Y4.987 Z4.976 
G1 X2.336 Y4.989 Z4.976 
G1 X2.531 Y4.989 Z4.976 
G1 X2.531 Y4.992 Z4.976 
G1 X2.336 Y4.992 Z4.976 
G1 X2.336 Y4.994 Z4.976 
G1 X2.531 Y4.994 Z4.976 
G1 X2.531 Y4.997 Z4.976 
G1 X2.336 Y4.997 Z4.976 
G1 X2.336 Y4.999 Z4.976 
G1 X2.531 Y4.999 Z4.976 
G1 X2.531 Y5.002 Z4.976 
G1 X2.336 Y5.002 Z4.976 
G1 X2.336 Y5.004 Z4.976 
G1 X2.531 Y5.004 Z4.976 
G1 X2.531 Y5.007 Z4.976 
G1 X2.336 Y5.007 Z4.976 
G1 X2.336 Y5.009 Z4.976 
G1 X2.531 Y5.009 Z4.976 
G1 X2.531 Y5.012 Z4.976 
G1 X2.336 Y5.012 Z4.976 
G1 X2.336 Y5.014 Z4.976 
G1 X2.531 Y5.014 Z4.976 
G1 X2.531 Y5.017 Z4.976 
G1 X2.336 Y5.017 Z4.976 
G1 X2.336 Y5.019 Z4.976 
G1 X2.531 Y5.019 Z4.976 
G1 X2.531 Y5.022 Z4.976 
G1 X2.336 Y5.022 Z4.976 
G1 X2.336 Y5.024 Z4.976 
G1 X2.531 Y5.024 Z4.976 
G1 X2.531 Y5.027 Z4.976 
G1 X2.336 Y5.027 Z4.976 
G1 X2.336 Y5.029 Z4.976 
G1 X2.531 Y5.029 Z4.976 
G1 X2.531 Y5.032 Z4.976 
G1 X2.336 Y5.032 Z4.976 
G1 X2.336 Y5.034 Z4.976 
G1 X2.531 Y5.034 Z4.976 
G1 X2.531 Y5.037 Z4.976 
G1 X2.336 Y5.037 Z4.976 
G1 X2.336 Y5.039 Z4.976 
G1 X2.531 Y5.039 Z4.976 
G1 X2.531 Y5.042 Z4.976 
G1 X2.336 Y5.042 Z4.976 
G1 X2.336 Y5.044 Z4.976 
G1 X2.531 Y5.044 Z4.976 
G1 X2.531 Y5.047 Z4.976 
G1 X2.336 Y5.047 Z4.976 
G1 X2.336 Y5.049 Z4.976 
G1 X2.531 Y5.049 Z4.976 
G1 X2.531 Y5.052 Z4.976 
G1 X2.336 Y5.052 Z4.976 
G1 X2.336 Y5.054 Z4.976 
G1 X2.531 Y5.054 Z4.976 
G1 X2.531 Y5.057 Z4.976 
G1 X2.336 Y5.057 Z4.976 
G1 X2.336 Y5.059 Z4.976 
G1 X2.531 Y5.059 Z4.976 
G1 X2.531 Y5.062 Z4.976 
G1 X2.336 Y5.062 Z4.976 
G1 X2.336 Y5.064 Z4.976 
G1 X2.531 Y5.064 Z4.976 
G1 X2.531 Y5.064 Z4.971 
G1 X2.336 Y5.064 Z4.971 
G1 X2.336 Y5.062 Z4.971 
G1 X2.531 Y5.062 Z4.971 
G1 X2.531 Y5.059 Z4.971 
G1 X2.336 Y5.059 Z4.971 
G1 X2.336 Y5.057 Z4.971 
G1 X2.531 Y5.057 Z4.971 
G1 X2.531 Y5.054 Z4.971 
G1 X2.336 Y5.054 Z4.971 
G1 X2.336 Y5.052 Z4.971 
G1 X2.531 Y5.052 Z4.971 
G1 X2.531 Y5.049 Z4.971 
G1 X2.336 Y5.049 Z4.971 
G1 X2.336 Y5.047 Z4.971 
G1 X2.531 Y5.047 Z4.971 
G1 X2.531 Y5.044 Z4.971 
G1 X2.336 Y5.044 Z4.971 
G1 X2.336 Y5.042 Z4.971 
G1 X2.531 Y5.042 Z4.971 
G1 X2.531 Y5.039 Z4.971 
G1 X2.336 Y5.039 Z4.971 
G1 X2.336 Y5.037 Z4.971 
G1 X2.531 Y5.037 Z4.971 
G1 X2.531 Y5.034 Z4.971 
G1 X2.336 Y5.034 Z4.971 
G1 X2.336 Y5.032 Z4.971 
G1 X2.531 Y5.032 Z4.971 
G1 X2.531 Y5.029 Z4.971 
G1 X2.336 Y5.029 Z4.971 
G1 X2.336 Y5.027 Z4.971 
G1 X2.531 Y5.027 Z4.971 
G1 X2.531 Y5.024 Z4.971 
G1 X2.336 Y5.024 Z4.971 
G1 X2.336 Y5.022 Z4.971 
G1 X2.531 Y5.022 Z4.971 
G1 X2.531 Y5.019 Z4.971 
G1 X2.336 Y5.019 Z4.971 
G1 X2.336 Y5.017 Z4.971 
G1 X2.531 Y5.017 Z4.971 
G1 X2.531 Y5.014 Z4.971 
G1 X2.336 Y5.014 Z4.971 
G1 X2.336 Y5.012 Z4.971 
G1 X2.531 Y5.012 Z4.971 
G1 X2.531 Y5.009 Z4.971 
G1 X2.336 Y5.009 Z4.971 
G1 X2.336 Y5.007 Z4.971 
G1 X2.531 Y5.007 Z4.971 
G1 X2.531 Y5.004 Z4.971 
G1 X2.336 Y5.004 Z4.971 
G1 X2.336 Y5.002 Z4.971 
G1 X2.531 Y5.002 Z4.971 
G1 X2.531 Y4.999 Z4.971 
G1 X2.336 Y4.999 Z4.971 
G1 X2.336 Y4.997 Z4.971 
G1 X2.531 Y4.997 Z4.971 
G1 X2.531 Y4.994 Z4.971 
G1 X2.336 Y4.994 Z4.971 
G1 X2.336 Y4.992 Z4.971 
G1 X2.531 Y4.992 Z4.971 
G1 X2.531 Y4.989 Z4.971 
G1 X2.336 Y4.989 Z4.971 
G1 X2.336 Y4.987 Z4.971 
G1 X2.531 Y4.987 Z4.971 
G1 X2.531 Y4.984 Z4.971 
G1 X2.336 Y4.984 Z4.971 
G1 X2.336 Y4.982 Z4.971 
G1 X2.531 Y4.982 Z4.971 
G1 X2.531 Y4.979 Z4.971 
G1 X2.336 Y4.979 Z4.971 
G1 X2.336 Y4.977 Z4.971 
G1 X2.531 Y4.977 Z4.971 
G1 X2.531 Y4.974 Z4.971 
G1 X2.336 Y4.974 Z4.971 
G1 X2.336 Y4.972 Z4.971 
G1 X2.531 Y4.972 Z4.971 
G1 X2.531 Y4.969 Z4.971 
G1 X2.336 Y4.969 Z4.971 
G1 X2.336 Y4.967 Z4.971 
G1 X2.531 Y4.967 Z4.971 
G1 X2.531 Y4.964 Z4.971 
G1 X2.336 Y4.964 Z4.971 
G1 X2.336 Y4.962 Z4.971 
G1 X2.531 Y4.962 Z4.971 
G1 X2.531 Y4.959 Z4.971 
G1 X2.336 Y4.959 Z4.971 
G1 X2.336 Y4.957 Z4.971 
G1 X2.531 Y4.957 Z4.971 
G1 X2.531 Y4.954 Z4.971 
G1 X2.336 Y4.954 Z4.971 
G1 X2.336 Y4.952 Z4.971 
G1 X2.531 Y4.952 Z4.971 
G1 X2.531 Y4.949 Z4.971 
G1 X2.336 Y4.949 Z4.971 
G1 X2.336 Y4.947 Z4.971 
G1 X2.531 Y4.947 Z4.971 
G1 X2.531 Y4.944 Z4.971 
G1 X2.336 Y4.944 Z4.971 
G1 X2.336 Y4.942 Z4.971 
G1 X2.531 Y4.942 Z4.971 
G1 X2.531 Y4.939 Z4.971 
G1 X2.336 Y4.939 Z4.971 
G1 X2.336 Y4.937 Z4.971 
G1 X2.531 Y4.937 Z4.971 
G1 X2.531 Y4.934 Z4.971 
G1 X2.336 Y4.934 Z4.971 
G1 X2.336 Y4.932 Z4.971 
G1 X2.531 Y4.932 Z4.971 
G1 X2.531 Y4.929 Z4.971 
G1 X2.336 Y4.929 Z4.971 
G1 X2.336 Y4.927 Z4.971 
G1 X2.531 Y4.927 Z4.971 
G1 X2.531 Y4.924 Z4.971 
G1 X2.336 Y4.924 Z4.971 
G1 X2.336 Y4.922 Z4.971 
G1 X2.531 Y4.922 Z4.971 
G1 X2.531 Y4.919 Z4.971 
G1 X2.336 Y4.919 Z4.971 
G1 X2.336 Y4.917 Z4.971 
G1 X2.531 Y4.917 Z4.971 
G1 X2.531 Y4.914 Z4.971 
G1 X2.336 Y4.914 Z4.971 
G1 X2.336 Y4.912 Z4.971 
G1 X2.531 Y4.912 Z4.971 
G1 X2.531 Y4.909 Z4.971 
G1 X2.336 Y4.909 Z4.971 
G1 X2.336 Y4.907 Z4.971 
G1 X2.531 Y4.907 Z4.971 
G1 X2.531 Y4.904 Z4.971 
G1 X2.336 Y4.904 Z4.971 
G1 X2.336 Y4.902 Z4.971 
G1 X2.531 Y4.902 Z4.971 
G1 X2.531 Y4.899 Z4.971 
G1 X2.336 Y4.899 Z4.971 
G1 X2.336 Y4.897 Z4.971 
G1 X2.531 Y4.897 Z4.971 
G1 X2.531 Y4.894 Z4.971 
G1 X2.336 Y4.894 Z4.971 
G1 X2.336 Y4.892 Z4.971 
G1 X2.531 Y4.892 Z4.971 
G1 X2.531 Y4.889 Z4.971 
G1 X2.336 Y4.889 Z4.971 
G1 X2.336 Y4.887 Z4.971 
G1 X2.531 Y4.887 Z4.971 
G1 X2.531 Y4.884 Z4.971 
G1 X2.336 Y4.884 Z4.971 
G1 X2.336 Y4.882 Z4.971 
G1 X2.531 Y4.882 Z4.971 
G1 X2.531 Y4.879 Z4.971 
G1 X2.336 Y4.879 Z4.971 
G1 X2.336 Y4.877 Z4.971 
G1 X2.531 Y4.877 Z4.971 
G1 X2.531 Y4.874 Z4.971 
G1 X2.336 Y4.874 Z4.971 
G1 X2.336 Y4.872 Z4.971 
G1 X2.531 Y4.872 Z4.971 
G1 X2.531 Y4.869 Z4.971 
G1 X2.336 Y4.869 Z4.971 
G1 X2.336 Y4.869 Z4.966 
G1 X2.531 Y4.869 Z4.966 
G1 X2.531 Y4.872 Z4.966 
G1 X2.336 Y4.872 Z4.966 
G1 X2.336 Y4.874 Z4.966 
G1 X2.531 Y4.874 Z4.966 
G1 X2.531 Y4.877 Z4.966 
G1 X2.336 Y4.877 Z4.966 
G1 X2.336 Y4.879 Z4.966 
G1 X2.531 Y4.879 Z4.966 
G1 X2.531 Y4.882 Z4.966 
G1 X2.336 Y4.882 Z4.966 
G1 X2.336 Y4.884 Z4.966 
G1 X2.531 Y4.884 Z4.966 
G1 X2.531 Y4.887 Z4.966 
G1 X2.336 Y4.887 Z4.966 
G1 X2.336 Y4.889 Z4.966 
G1 X2.531 Y4.889 Z4.966 
G1 X2.531 Y4.892 Z4.966 
G1 X2.336 Y4.892 Z4.966 
G1 X2.336 Y4.894 Z4.966 
G1 X2.531 Y4.894 Z4.966 
G1 X2.531 Y4.897 Z4.966 
G1 X2.336 Y4.897 Z4.966 
G1 X2.336 Y4.899 Z4.966 
G1 X2.531 Y4.899 Z4.966 
G1 X2.531 Y4.902 Z4.966 
G1 X2.336 Y4.902 Z4.966 
G1 X2.336 Y4.904 Z4.966 
G1 X2.531 Y4.904 Z4.966 
G1 X2.531 Y4.907 Z4.966 
G1 X2.336 Y4.907 Z4.966 
G1 X2.336 Y4.909 Z4.966 
G1 X2.531 Y4.909 Z4.966 
G1 X2.531 Y4.912 Z4.966 
G1 X2.336 Y4.912 Z4.966 
G1 X2.336 Y4.914 Z4.966 
G1 X2.531 Y4.914 Z4.966 
G1 X2.531 Y4.917 Z4.966 
G1 X2.336 Y4.917 Z4.966 
G1 X2.336 Y4.919 Z4.966 
G1 X2.531 Y4.919 Z4.966 
G1 X2.531 Y4.922 Z4.966 
G1 X2.336 Y4.922 Z4.966 
G1 X2.336 Y4.924 Z4.966 
G1 X2.531 Y4.924 Z4.966 
G1 X2.531 Y4.927 Z4.966 
G1 X2.336 Y4.927 Z4.966 
G1 X2.336 Y4.929 Z4.966 
G1 X2.531 Y4.929 Z4.966 
G1 X2.531 Y4.932 Z4.966 
G1 X2.336 Y4.932 Z4.966 
G1 X2.336 Y4.934 Z4.966 
G1 X2.531 Y4.934 Z4.966 
G1 X2.531 Y4.937 Z4.966 
G1 X2.336 Y4.937 Z4.966 
G1 X2.336 Y4.939 Z4.966 
G1 X2.531 Y4.939 Z4.966 
G1 X2.531 Y4.942 Z4.966 
G1 X2.336 Y4.942 Z4.966 
G1 X2.336 Y4.944 Z4.966 
G1 X2.531 Y4.944 Z4.966 
G1 X2.531 Y4.947 Z4.966 
G1 X2.336 Y4.947 Z4.966 
G1 X2.336 Y4.949 Z4.966 
G1 X2.531 Y4.949 Z4.966 
G1 X2.531 Y4.952 Z4.966 
G1 X2.336 Y4.952 Z4.966 
G1 X2.336 Y4.954 Z4.966 
G1 X2.531 Y4.954 Z4.966 
G1 X2.531 Y4.957 Z4.966 
G1 X2.336 Y4.957 Z4.966 
G1 X2.336 Y4.959 Z4.966 
G1 X2.531 Y4.959 Z4.966 
G1 X2.531 Y4.962 Z4.966 
G1 X2.336 Y4.962 Z4.966 
G1 X2.336 Y4.964 Z4.966 
G1 X2.531 Y4.964 Z4.966 
G1 X2.531 Y4.967 Z4.966 
G1 X2.336 Y4.967 Z4.966 
G1 X2.336 Y4.969 Z4.966 
G1 X2.531 Y4.969 Z4.966 
G1 X2.531 Y4.972 Z4.966 
G1 X2.336 Y4.972 Z4.966 
G1 X2.336 Y4.974 Z4.966 
G1 X2.531 Y4.974 Z4.966 
G1 X2.531 Y4.977 Z4.966 
G1 X2.336 Y4.977 Z4.966 
G1 X2.336 Y4.979 Z4.966 
G1 X2.531 Y4.979 Z4.966 
G1 X2.531 Y4.982 Z4.966 
G1 X2.336 Y4.982 Z4.966 
G1 X2.336 Y4.984 Z4.966 
G1 X2.531 Y4.984 Z4.966 
G1 X2.531 Y4.987 Z4.966 
G1 X2.336 Y4.987 Z4.966 
G1 X2.336 Y4.989 Z4.966 
G1 X2.531 Y4.989 Z4.966 
G1 X2.531 Y4.992 Z4.966 
G1 X2.336 Y4.992 Z4.966 
G1 X2.336 Y4.994 Z4.966 
G1 X2.531 Y4.994 Z4.966 
G1 X2.531 Y4.997 Z4.966 
G1 X2.336 Y4.997 Z4.966 
G1 X2.336 Y4.999 Z4.966 
G1 X2.531 Y4.999 Z4.966 
G1 X2.531 Y5.002 Z4.966 
G1 X2.336 Y5.002 Z4.966 
G1 X2.336 Y5.004 Z4.966 
G1 X2.531 Y5.004 Z4.966 
G1 X2.531 Y5.007 Z4.966 
G1 X2.336 Y5.007 Z4.966 
G1 X2.336 Y5.009 Z4.966 
G1 X2.531 Y5.009 Z4.966 
G1 X2.531 Y5.012 Z4.966 
G1 X2.336 Y5.012 Z4.966 
G1 X2.336 Y5.014 Z4.966 
G1 X2.531 Y5.014 Z4.966 
G1 X2.531 Y5.017 Z4.966 
G1 X2.336 Y5.017 Z4.966 
G1 X2.336 Y5.019 Z4.966 
G1 X2.531 Y5.019 Z4.966 
G1 X2.531 Y5.022 Z4.966 
G1 X2.336 Y5.022 Z4.966 
G1 X2.336 Y5.024 Z4.966 
G1 X2.531 Y5.024 Z4.966 
G1 X2.531 Y5.027 Z4.966 
G1 X2.336 Y5.027 Z4.966 
G1 X2.336 Y5.029 Z4.966 
G1 X2.531 Y5.029 Z4.966 
G1 X2.531 Y5.032 Z4.966 
G1 X2.336 Y5.032 Z4.966 
G1 X2.336 Y5.034 Z4.966 
G1 X2.531 Y5.034 Z4.966 
G1 X2.531 Y5.037 Z4.966 
G1 X2.336 Y5.037 Z4.966 
G1 X2.336 Y5.039 Z4.966 
G1 X2.531 Y5.039 Z4.966 
G1 X2.531 Y5.042 Z4.966 
G1 X2.336 Y5.042 Z4.966 
G1 X2.336 Y5.044 Z4.966 
G1 X2.531 Y5.044 Z4.966 
G1 X2.531 Y5.047 Z4.966 
G1 X2.336 Y5.047 Z4.966 
G1 X2.336 Y5.049 Z4.966 
G1 X2.531 Y5.049 Z4.966 
G1 X2.531 Y5.052 Z4.966 
G1 X2.336 Y5.052 Z4.966 
G1 X2.336 Y5.054 Z4.966 
G1 X2.531 Y5.054 Z4.966 
G1 X2.531 Y5.057 Z4.966 
G1 X2.336 Y5.057 Z4.966 
G1 X2.336 Y5.059 Z4.966 
G1 X2.531 Y5.059 Z4.966 
G1 X2.531 Y5.062 Z4.966 
G1 X2.336 Y5.062 Z4.966 
G1 X2.336 Y5.064 Z4.966 
G1 X2.531 Y5.064 Z4.966 
G1 X2.531 Y5.064 Z4.961 
G1 X2.336 Y5.064 Z4.961 
G1 X2.336 Y5.062 Z4.961 
G1 X2.531 Y5.062 Z4.961 
G1 X2.531 Y5.059 Z4.961 
G1 X2.336 Y5.059 Z4.961 
G1 X2.336 Y5.057 Z4.961 
G1 X2.531 Y5.057 Z4.961 
G1 X2.531 Y5.054 Z4.961 
G1 X2.336 Y5.054 Z4.961 
G1 X2.336 Y5.052 Z4.961 
G1 X2.531 Y5.052 Z4.961 
G1 X2.531 Y5.049 Z4.961 
G1 X2.336 Y5.049 Z4.961 
G1 X2.336 Y5.047 Z4.961 
G1 X2.531 Y5.047 Z4.961 
G1 X2.531 Y5.044 Z4.961 
G1 X2.336 Y5.044 Z4.961 
G1 X2.336 Y5.042 Z4.961 
G1 X2.531 Y5.042 Z4.961 
G1 X2.531 Y5.039 Z4.961 
G1 X2.336 Y5.039 Z4.961 
G1 X2.336 Y5.037 Z4.961 
G1 X2.531 Y5.037 Z4.961 
G1 X2.531 Y5.034 Z4.961 
G1 X2.336 Y5.034 Z4.961 
G1 X2.336 Y5.032 Z4.961 
G1 X2.531 Y5.032 Z4.961 
G1 X2.531 Y5.029 Z4.961 
G1 X2.336 Y5.029 Z4.961 
G1 X2.336 Y5.027 Z4.961 
G1 X2.531 Y5.027 Z4.961 
G1 X2.531 Y5.024 Z4.961 
G1 X2.336 Y5.024 Z4.961 
G1 X2.336 Y5.022 Z4.961 
G1 X2.531 Y5.022 Z4.961 
G1 X2.531 Y5.019 Z4.961 
G1 X2.336 Y5.019 Z4.961 
G1 X2.336 Y5.017 Z4.961 
G1 X2.531 Y5.017 Z4.961 
G1 X2.531 Y5.014 Z4.961 
G1 X2.336 Y5.014 Z4.961 
G1 X2.336 Y5.012 Z4.961 
G1 X2.531 Y5.012 Z4.961 
G1 X2.531 Y5.009 Z4.961 
G1 X2.336 Y5.009 Z4.961 
G1 X2.336 Y5.007 Z4.961 
G1 X2.531 Y5.007 Z4.961 
G1 X2.531 Y5.004 Z4.961 
G1 X2.336 Y5.004 Z4.961 
G1 X2.336 Y5.002 Z4.961 
G1 X2.531 Y5.002 Z4.961 
G1 X2.531 Y4.999 Z4.961 
G1 X2.336 Y4.999 Z4.961 
G1 X2.336 Y4.997 Z4.961 
G1 X2.531 Y4.997 Z4.961 
G1 X2.531 Y4.994 Z4.961 
G1 X2.336 Y4.994 Z4.961 
G1 X2.336 Y4.992 Z4.961 
G1 X2.531 Y4.992 Z4.961 
G1 X2.531 Y4.989 Z4.961 
G1 X2.336 Y4.989 Z4.961 
G1 X2.336 Y4.987 Z4.961 
G1 X2.531 Y4.987 Z4.961 
G1 X2.531 Y4.984 Z4.961 
G1 X2.336 Y4.984 Z4.961 
G1 X2.336 Y4.982 Z4.961 
G1 X2.531 Y4.982 Z4.961 
G1 X2.531 Y4.979 Z4.961 
G1 X2.336 Y4.979 Z4.961 
G1 X2.336 Y4.977 Z4.961 
G1 X2.531 Y4.977 Z4.961 
G1 X2.531 Y4.974 Z4.961 
G1 X2.336 Y4.974 Z4.961 
G1 X2.336 Y4.972 Z4.961 
G1 X2.531 Y4.972 Z4.961 
G1 X2.531 Y4.969 Z4.961 
G1 X2.336 Y4.969 Z4.961 
G1 X2.336 Y4.967 Z4.961 
G1 X2.531 Y4.967 Z4.961 
G1 X2.531 Y4.964 Z4.961 
G1 X2.336 Y4.964 Z4.961 
G1 X2.336 Y4.962 Z4.961 
G1 X2.531 Y4.962 Z4.961 
G1 X2.531 Y4.959 Z4.961 
G1 X2.336 Y4.959 Z4.961 
G1 X2.336 Y4.957 Z4.961 
G1 X2.531 Y4.957 Z4.961 
G1 X2.531 Y4.954 Z4.961 
G1 X2.336 Y4.954 Z4.961 
G1 X2.336 Y4.952 Z4.961 
G1 X2.531 Y4.952 Z4.961 
G1 X2.531 Y4.949 Z4.961 
G1 X2.336 Y4.949 Z4.961 
G1 X2.336 Y4.947 Z4.961 
G1 X2.531 Y4.947 Z4.961 
G1 X2.531 Y4.944 Z4.961 
G1 X2.336 Y4.944 Z4.961 
G1 X2.336 Y4.942 Z4.961 
G1 X2.531 Y4.942 Z4.961 
G1 X2.531 Y4.939 Z4.961 
G1 X2.336 Y4.939 Z4.961 
G1 X2.336 Y4.937 Z4.961 
G1 X2.531 Y4.937 Z4.961 
G1 X2.531 Y4.934 Z4.961 
G1 X2.336 Y4.934 Z4.961 
G1 X2.336 Y4.932 Z4.961 
G1 X2.531 Y4.932 Z4.961 
G1 X2.531 Y4.929 Z4.961 
G1 X2.336 Y4.929 Z4.961 
G1 X2.336 Y4.927 Z4.961 
G1 X2.531 Y4.927 Z4.961 
G1 X2.531 Y4.924 Z4.961 
G1 X2.336 Y4.924 Z4.961 
G1 X2.336 Y4.922 Z4.961 
G1 X2.531 Y4.922 Z4.961 
G1 X2.531 Y4.919 Z4.961 
G1 X2.336 Y4.919 Z4.961 
G1 X2.336 Y4.917 Z4.961 
G1 X2.531 Y4.917 Z4.961 
G1 X2.531 Y4.914 Z4.961 
G1 X2.336 Y4.914 Z4.961 
G1 X2.336 Y4.912 Z4.961 
G1 X2.531 Y4.912 Z4.961 
G1 X2.531 Y4.909 Z4.961 
G1 X2.336 Y4.909 Z4.961 
G1 X2.336 Y4.907 Z4.961 
G1 X2.531 Y4.907 Z4.961 
G1 X2.531 Y4.904 Z4.961 
G1 X2.336 Y4.904 Z4.961 
G1 X2.336 Y4.902 Z4.961 
G1 X2.531 Y4.902 Z4.961 
G1 X2.531 Y4.899 Z4.961 
G1 X2.336 Y4.899 Z4.961 
G1 X2.336 Y4.897 Z4.961 
G1 X2.531 Y4.897 Z4.961 
G1 X2.531 Y4.894 Z4.961 
G1 X2.336 Y4.894 Z4.961 
G1 X2.336 Y4.892 Z4.961 
G1 X2.531 Y4.892 Z4.961 
G1 X2.531 Y4.889 Z4.961 
G1 X2.336 Y4.889 Z4.961 
G1 X2.336 Y4.887 Z4.961 
G1 X2.531 Y4.887 Z4.961 
G1 X2.531 Y4.884 Z4.961 
G1 X2.336 Y4.884 Z4.961 
G1 X2.336 Y4.882 Z4.961 
G1 X2.531 Y4.882 Z4.961 
G1 X2.531 Y4.879 Z4.961 
G1 X2.336 Y4.879 Z4.961 
G1 X2.336 Y4.877 Z4.961 
G1 X2.531 Y4.877 Z4.961 
G1 X2.531 Y4.874 Z4.961 
G1 X2.336 Y4.874 Z4.961 
G1 X2.336 Y4.872 Z4.961 
G1 X2.531 Y4.872 Z4.961 
G1 X2.531 Y4.869 Z4.961 
G1 X2.336 Y4.869 Z4.961 
G1 X2.336 Y4.869 Z4.956 
G1 X2.531 Y4.869 Z4.956 
G1 X2.531 Y4.872 Z4.956 
G1 X2.336 Y4.872 Z4.956 
G1 X2.336 Y4.874 Z4.956 
G1 X2.531 Y4.874 Z4.956 
G1 X2.531 Y4.877 Z4.956 
G1 X2.336 Y4.877 Z4.956 
G1 X2.336 Y4.879 Z4.956 
G1 X2.531 Y4.879 Z4.956 
G1 X2.531 Y4.882 Z4.956 
G1 X2.336 Y4.882 Z4.956 
G1 X2.336 Y4.884 Z4.956 
G1 X2.531 Y4.884 Z4.956 
G1 X2.531 Y4.887 Z4.956 
G1 X2.336 Y4.887 Z4.956 
G1 X2.336 Y4.889 Z4.956 
G1 X2.531 Y4.889 Z4.956 
G1 X2.531 Y4.892 Z4.956 
G1 X2.336 Y4.892 Z4.956 
G1 X2.336 Y4.894 Z4.956 
G1 X2.531 Y4.894 Z4.956 
G1 X2.531 Y4.897 Z4.956 
G1 X2.336 Y4.897 Z4.956 
G1 X2.336 Y4.899 Z4.956 
G1 X2.531 Y4.899 Z4.956 
G1 X2.531 Y4.902 Z4.956 
G1 X2.336 Y4.902 Z4.956 
G1 X2.336 Y4.904 Z4.956 
G1 X2.531 Y4.904 Z4.956 
G1 X2.531 Y4.907 Z4.956 
G1 X2.336 Y4.907 Z4.956 
G1 X2.336 Y4.909 Z4.956 
G1 X2.531 Y4.909 Z4.956 
G1 X2.531 Y4.912 Z4.956 
G1 X2.336 Y4.912 Z4.956 
G1 X2.336 Y4.914 Z4.956 
G1 X2.531 Y4.914 Z4.956 
G1 X2.531 Y4.917 Z4.956 
G1 X2.336 Y4.917 Z4.956 
G1 X2.336 Y4.919 Z4.956 
G1 X2.531 Y4.919 Z4.956 
G1 X2.531 Y4.922 Z4.956 
G1 X2.336 Y4.922 Z4.956 
G1 X2.336 Y4.924 Z4.956 
G1 X2.531 Y4.924 Z4.956 
G1 X2.531 Y4.927 Z4.956 
G1 X2.336 Y4.927 Z4.956 
G1 X2.336 Y4.929 Z4.956 
G1 X2.531 Y4.929 Z4.956 
G1 X2.531 Y4.932 Z4.956 
G1 X2.336 Y4.932 Z4.956 
G1 X2.336 Y4.934 Z4.956 
G1 X2.531 Y4.934 Z4.956 
G1 X2.531 Y4.937 Z4.956 
G1 X2.336 Y4.937 Z4.956 
G1 X2.336 Y4.939 Z4.956 
G1 X2.531 Y4.939 Z4.956 
G1 X2.531 Y4.942 Z4.956 
G1 X2.336 Y4.942 Z4.956 
G1 X2.336 Y4.944 Z4.956 
G1 X2.531 Y4.944 Z4.956 
G1 X2.531 Y4.947 Z4.956 
G1 X2.336 Y4.947 Z4.956 
G1 X2.336 Y4.949 Z4.956 
G1 X2.531 Y4.949 Z4.956 
G1 X2.531 Y4.952 Z4.956 
G1 X2.336 Y4.952 Z4.956 
G1 X2.336 Y4.954 Z4.956 
G1 X2.531 Y4.954 Z4.956 
G1 X2.531 Y4.957 Z4.956 
G1 X2.336 Y4.957 Z4.956 
G1 X2.336 Y4.959 Z4.956 
G1 X2.531 Y4.959 Z4.956 
G1 X2.531 Y4.962 Z4.956 
G1 X2.336 Y4.962 Z4.956 
G1 X2.336 Y4.964 Z4.956 
G1 X2.531 Y4.964 Z4.956 
G1 X2.531 Y4.967 Z4.956 
G1 X2.336 Y4.967 Z4.956 
G1 X2.336 Y4.969 Z4.956 
G1 X2.531 Y4.969 Z4.956 
G1 X2.531 Y4.972 Z4.956 
G1 X2.336 Y4.972 Z4.956 
G1 X2.336 Y4.974 Z4.956 
G1 X2.531 Y4.974 Z4.956 
G1 X2.531 Y4.977 Z4.956 
G1 X2.336 Y4.977 Z4.956 
G1 X2.336 Y4.979 Z4.956 
G1 X2.531 Y4.979 Z4.956 
G1 X2.531 Y4.982 Z4.956 
G1 X2.336 Y4.982 Z4.956 
G1 X2.336 Y4.984 Z4.956 
G1 X2.531 Y4.984 Z4.956 
G1 X2.531 Y4.987 Z4.956 
G1 X2.336 Y4.987 Z4.956 
G1 X2.336 Y4.989 Z4.956 
G1 X2.531 Y4.989 Z4.956 
G1 X2.531 Y4.992 Z4.956 
G1 X2.336 Y4.992 Z4.956 
G1 X2.336 Y4.994 Z4.956 
G1 X2.531 Y4.994 Z4.956 
G1 X2.531 Y4.997 Z4.956 
G1 X2.336 Y4.997 Z4.956 
G1 X2.336 Y4.999 Z4.956 
G1 X2.531 Y4.999 Z4.956 
G1 X2.531 Y5.002 Z4.956 
G1 X2.336 Y5.002 Z4.956 
G1 X2.336 Y5.004 Z4.956 
G1 X2.531 Y5.004 Z4.956 
G1 X2.531 Y5.007 Z4.956 
G1 X2.336 Y5.007 Z4.956 
G1 X2.336 Y5.009 Z4.956 
G1 X2.531 Y5.009 Z4.956 
G1 X2.531 Y5.012 Z4.956 
G1 X2.336 Y5.012 Z4.956 
G1 X2.336 Y5.014 Z4.956 
G1 X2.531 Y5.014 Z4.956 
G1 X2.531 Y5.017 Z4.956 
G1 X2.336 Y5.017 Z4.956 
G1 X2.336 Y5.019 Z4.956 
G1 X2.531 Y5.019 Z4.956 
G1 X2.531 Y5.022 Z4.956 
G1 X2.336 Y5.022 Z4.956 
G1 X2.336 Y5.024 Z4.956 
G1 X2.531 Y5.024 Z4.956 
G1 X2.531 Y5.027 Z4.956 
G1 X2.336 Y5.027 Z4.956 
G1 X2.336 Y5.029 Z4.956 
G1 X2.531 Y5.029 Z4.956 
G1 X2.531 Y5.032 Z4.956 
G1 X2.336 Y5.032 Z4.956 
G1 X2.336 Y5.034 Z4.956 
G1 X2.531 Y5.034 Z4.956 
G1 X2.531 Y5.037 Z4.956 
G1 X2.336 Y5.037 Z4.956 
G1 X2.336 Y5.039 Z4.956 
G1 X2.531 Y5.039 Z4.956 
G1 X2.531 Y5.042 Z4.956 
G1 X2.336 Y5.042 Z4.956 
G1 X2.336 Y5.044 Z4.956 
G1 X2.531 Y5.044 Z4.956 
G1 X2.531 Y5.047 Z4.956 
G1 X2.336 Y5.047 Z4.956 
G1 X2.336 Y5.049 Z4.956 
G1 X2.531 Y5.049 Z4.956 
G1 X2.531 Y5.052 Z4.956 
G1 X2.336 Y5.052 Z4.956 
G1 X2.336 Y5.054 Z4.956 
G1 X2.531 Y5.054 Z4.956 
G1 X2.531 Y5.057 Z4.956 
G1 X2.336 Y5.057 Z4.956 
G1 X2.336 Y5.059 Z4.956 
G1 X2.531 Y5.059 Z4.956 
G1 X2.531 Y5.062 Z4.956 
G1 X2.336 Y5.062 Z4.956 
G1 X2.336 Y5.064 Z4.956 
G1 X2.531 Y5.064 Z4.956 
G1 X2.531 Y5.064 Z4.951 
G1 X2.336 Y5.064 Z4.951 
G1 X2.336 Y5.062 Z4.951 
G1 X2.531 Y5.062 Z4.951 
G1 X2.531 Y5.059 Z4.951 
G1 X2.336 Y5.059 Z4.951 
G1 X2.336 Y5.057 Z4.951 
G1 X2.531 Y5.057 Z4.951 
G1 X2.531 Y5.054 Z4.951 
G1 X2.336 Y5.054 Z4.951 
G1 X2.336 Y5.052 Z4.951 
G1 X2.531 Y5.052 Z4.951 
G1 X2.531 Y5.049 Z4.951 
G1 X2.336 Y5.049 Z4.951 
G1 X2.336 Y5.047 Z4.951 
G1 X2.531 Y5.047 Z4.951 
G1 X2.531 Y5.044 Z4.951 
G1 X2.336 Y5.044 Z4.951 
G1 X2.336 Y5.042 Z4.951 
G1 X2.531 Y5.042 Z4.951 
G1 X2.531 Y5.039 Z4.951 
G1 X2.336 Y5.039 Z4.951 
G1 X2.336 Y5.037 Z4.951 
G1 X2.531 Y5.037 Z4.951 
G1 X2.531 Y5.034 Z4.951 
G1 X2.336 Y5.034 Z4.951 
G1 X2.336 Y5.032 Z4.951 
G1 X2.531 Y5.032 Z4.951 
G1 X2.531 Y5.029 Z4.951 
G1 X2.336 Y5.029 Z4.951 
G1 X2.336 Y5.027 Z4.951 
G1 X2.531 Y5.027 Z4.951 
G1 X2.531 Y5.024 Z4.951 
G1 X2.336 Y5.024 Z4.951 
G1 X2.336 Y5.022 Z4.951 
G1 X2.531 Y5.022 Z4.951 
G1 X2.531 Y5.019 Z4.951 
G1 X2.336 Y5.019 Z4.951 
G1 X2.336 Y5.017 Z4.951 
G1 X2.531 Y5.017 Z4.951 
G1 X2.531 Y5.014 Z4.951 
G1 X2.336 Y5.014 Z4.951 
G1 X2.336 Y5.012 Z4.951 
G1 X2.531 Y5.012 Z4.951 
G1 X2.531 Y5.009 Z4.951 
G1 X2.336 Y5.009 Z4.951 
G1 X2.336 Y5.007 Z4.951 
G1 X2.531 Y5.007 Z4.951 
G1 X2.531 Y5.004 Z4.951 
G1 X2.336 Y5.004 Z4.951 
G1 X2.336 Y5.002 Z4.951 
G1 X2.531 Y5.002 Z4.951 
G1 X2.531 Y4.999 Z4.951 
G1 X2.336 Y4.999 Z4.951 
G1 X2.336 Y4.997 Z4.951 
G1 X2.531 Y4.997 Z4.951 
G1 X2.531 Y4.994 Z4.951 
G1 X2.336 Y4.994 Z4.951 
G1 X2.336 Y4.992 Z4.951 
G1 X2.531 Y4.992 Z4.951 
G1 X2.531 Y4.989 Z4.951 
G1 X2.336 Y4.989 Z4.951 
G1 X2.336 Y4.987 Z4.951 
G1 X2.531 Y4.987 Z4.951 
G1 X2.531 Y4.984 Z4.951 
G1 X2.336 Y4.984 Z4.951 
G1 X2.336 Y4.982 Z4.951 
G1 X2.531 Y4.982 Z4.951 
G1 X2.531 Y4.979 Z4.951 
G1 X2.336 Y4.979 Z4.951 
G1 X2.336 Y4.977 Z4.951 
G1 X2.531 Y4.977 Z4.951 
G1 X2.531 Y4.974 Z4.951 
G1 X2.336 Y4.974 Z4.951 
G1 X2.336 Y4.972 Z4.951 
G1 X2.531 Y4.972 Z4.951 
G1 X2.531 Y4.969 Z4.951 
G1 X2.336 Y4.969 Z4.951 
G1 X2.336 Y4.967 Z4.951 
G1 X2.531 Y4.967 Z4.951 
G1 X2.531 Y4.964 Z4.951 
G1 X2.336 Y4.964 Z4.951 
G1 X2.336 Y4.962 Z4.951 
G1 X2.531 Y4.962 Z4.951 
G1 X2.531 Y4.959 Z4.951 
G1 X2.336 Y4.959 Z4.951 
G1 X2.336 Y4.957 Z4.951 
G1 X2.531 Y4.957 Z4.951 
G1 X2.531 Y4.954 Z4.951 
G1 X2.336 Y4.954 Z4.951 
G1 X2.336 Y4.952 Z4.951 
G1 X2.531 Y4.952 Z4.951 
G1 X2.531 Y4.949 Z4.951 
G1 X2.336 Y4.949 Z4.951 
G1 X2.336 Y4.947 Z4.951 
G1 X2.531 Y4.947 Z4.951 
G1 X2.531 Y4.944 Z4.951 
G1 X2.336 Y4.944 Z4.951 
G1 X2.336 Y4.942 Z4.951 
G1 X2.531 Y4.942 Z4.951 
G1 X2.531 Y4.939 Z4.951 
G1 X2.336 Y4.939 Z4.951 
G1 X2.336 Y4.937 Z4.951 
G1 X2.531 Y4.937 Z4.951 
G1 X2.531 Y4.934 Z4.951 
G1 X2.336 Y4.934 Z4.951 
G1 X2.336 Y4.932 Z4.951 
G1 X2.531 Y4.932 Z4.951 
G1 X2.531 Y4.929 Z4.951 
G1 X2.336 Y4.929 Z4.951 
G1 X2.336 Y4.927 Z4.951 
G1 X2.531 Y4.927 Z4.951 
G1 X2.531 Y4.924 Z4.951 
G1 X2.336 Y4.924 Z4.951 
G1 X2.336 Y4.922 Z4.951 
G1 X2.531 Y4.922 Z4.951 
G1 X2.531 Y4.919 Z4.951 
G1 X2.336 Y4.919 Z4.951 
G1 X2.336 Y4.917 Z4.951 
G1 X2.531 Y4.917 Z4.951 
G1 X2.531 Y4.914 Z4.951 
G1 X2.336 Y4.914 Z4.951 
G1 X2.336 Y4.912 Z4.951 
G1 X2.531 Y4.912 Z4.951 
G1 X2.531 Y4.909 Z4.951 
G1 X2.336 Y4.909 Z4.951 
G1 X2.336 Y4.907 Z4.951 
G1 X2.531 Y4.907 Z4.951 
G1 X2.531 Y4.904 Z4.951 
G1 X2.336 Y4.904 Z4.951 
G1 X2.336 Y4.902 Z4.951 
G1 X2.531 Y4.902 Z4.951 
G1 X2.531 Y4.899 Z4.951 
G1 X2.336 Y4.899 Z4.951 
G1 X2.336 Y4.897 Z4.951 
G1 X2.531 Y4.897 Z4.951 
G1 X2.531 Y4.894 Z4.951 
G1 X2.336 Y4.894 Z4.951 
G1 X2.336 Y4.892 Z4.951 
G1 X2.531 Y4.892 Z4.951 
G1 X2.531 Y4.889 Z4.951 
G1 X2.336 Y4.889 Z4.951 
G1 X2.336 Y4.887 Z4.951 
G1 X2.531 Y4.887 Z4.951 
G1 X2.531 Y4.884 Z4.951 
G1 X2.336 Y4.884 Z4.951 
G1 X2.336 Y4.882 Z4.951 
G1 X2.531 Y4.882 Z4.951 
G1 X2.531 Y4.879 Z4.951 
G1 X2.336 Y4.879 Z4.951 
G1 X2.336 Y4.877 Z4.951 
G1 X2.531 Y4.877 Z4.951 
G1 X2.531 Y4.874 Z4.951 
G1 X2.336 Y4.874 Z4.951 
G1 X2.336 Y4.872 Z4.951 
G1 X2.531 Y4.872 Z4.951 
G1 X2.531 Y4.869 Z4.951 
G1 X2.336 Y4.869 Z4.951 
G1 X2.336 Y4.869 Z4.950 
G1 X2.531 Y4.869 Z4.950 
G1 X2.531 Y4.872 Z4.950 
G1 X2.336 Y4.872 Z4.950 
G1 X2.336 Y4.874 Z4.950 
G1 X2.531 Y4.874 Z4.950 
G1 X2.531 Y4.877 Z4.950 
G1 X2.336 Y4.877 Z4.950 
G1 X2.336 Y4.879 Z4.950 
G1 X2.531 Y4.879 Z4.950 
G1 X2.531 Y4.882 Z4.950 
G1 X2.336 Y4.882 Z4.950 
G1 X2.336 Y4.884 Z4.950 
G1 X2.531 Y4.884 Z4.950 
G1 X2.531 Y4.887 Z4.950 
G1 X2.336 Y4.887 Z4.950 
G1 X2.336 Y4.889 Z4.950 
G1 X2.531 Y4.889 Z4.950 
G1 X2.531 Y4.892 Z4.950 
G1 X2.336 Y4.892 Z4.950 
G1 X2.336 Y4.894 Z4.950 
G1 X2.531 Y4.894 Z4.950 
G1 X2.531 Y4.897 Z4.950 
G1 X2.336 Y4.897 Z4.950 
G1 X2.336 Y4.899 Z4.950 
G1 X2.531 Y4.899 Z4.950 
G1 X2.531 Y4.902 Z4.950 
G1 X2.336 Y4.902 Z4.950 
G1 X2.336 Y4.904 Z4.950 
G1 X2.531 Y4.904 Z4.950 
G1 X2.531 Y4.907 Z4.950 
G1 X2.336 Y4.907 Z4.950 
G1 X2.336 Y4.909 Z4.950 
G1 X2.531 Y4.909 Z4.950 
G1 X2.531 Y4.912 Z4.950 
G1 X2.336 Y4.912 Z4.950 
G1 X2.336 Y4.914 Z4.950 
G1 X2.531 Y4.914 Z4.950 
G1 X2.531 Y4.917 Z4.950 
G1 X2.336 Y4.917 Z4.950 
G1 X2.336 Y4.919 Z4.950 
G1 X2.531 Y4.919 Z4.950 
G1 X2.531 Y4.922 Z4.950 
G1 X2.336 Y4.922 Z4.950 
G1 X2.336 Y4.924 Z4.950 
G1 X2.531 Y4.924 Z4.950 
G1 X2.531 Y4.927 Z4.950 
G1 X2.336 Y4.927 Z4.950 
G1 X2.336 Y4.929 Z4.950 
G1 X2.531 Y4.929 Z4.950 
G1 X2.531 Y4.932 Z4.950 
G1 X2.336 Y4.932 Z4.950 
G1 X2.336 Y4.934 Z4.950 
G1 X2.531 Y4.934 Z4.950 
G1 X2.531 Y4.937 Z4.950 
G1 X2.336 Y4.937 Z4.950 
G1 X2.336 Y4.939 Z4.950 
G1 X2.531 Y4.939 Z4.950 
G1 X2.531 Y4.942 Z4.950 
G1 X2.336 Y4.942 Z4.950 
G1 X2.336 Y4.944 Z4.950 
G1 X2.531 Y4.944 Z4.950 
G1 X2.531 Y4.947 Z4.950 
G1 X2.336 Y4.947 Z4.950 
G1 X2.336 Y4.949 Z4.950 
G1 X2.531 Y4.949 Z4.950 
G1 X2.531 Y4.952 Z4.950 
G1 X2.336 Y4.952 Z4.950 
G1 X2.336 Y4.954 Z4.950 
G1 X2.531 Y4.954 Z4.950 
G1 X2.531 Y4.957 Z4.950 
G1 X2.336 Y4.957 Z4.950 
G1 X2.336 Y4.959 Z4.950 
G1 X2.531 Y4.959 Z4.950 
G1 X2.531 Y4.962 Z4.950 
G1 X2.336 Y4.962 Z4.950 
G1 X2.336 Y4.964 Z4.950 
G1 X2.531 Y4.964 Z4.950 
G1 X2.531 Y4.967 Z4.950 
G1 X2.336 Y4.967 Z4.950 
G1 X2.336 Y4.969 Z4.950 
G1 X2.531 Y4.969 Z4.950 
G1 X2.531 Y4.972 Z4.950 
G1 X2.336 Y4.972 Z4.950 
G1 X2.336 Y4.974 Z4.950 
G1 X2.531 Y4.974 Z4.950 
G1 X2.531 Y4.977 Z4.950 
G1 X2.336 Y4.977 Z4.950 
G1 X2.336 Y4.979 Z4.950 
G1 X2.531 Y4.979 Z4.950 
G1 X2.531 Y4.982 Z4.950 
G1 X2.336 Y4.982 Z4.950 
G1 X2.336 Y4.984 Z4.950 
G1 X2.531 Y4.984 Z4.950 
G1 X2.531 Y4.987 Z4.950 
G1 X2.336 Y4.987 Z4.950 
G1 X2.336 Y4.989 Z4.950 
G1 X2.531 Y4.989 Z4.950 
G1 X2.531 Y4.992 Z4.950 
G1 X2.336 Y4.992 Z4.950 
G1 X2.336 Y4.994 Z4.950 
G1 X2.531 Y4.994 Z4.950 
G1 X2.531 Y4.997 Z4.950 
G1 X2.336 Y4.997 Z4.950 
G1 X2.336 Y4.999 Z4.950 
G1 X2.531 Y4.999 Z4.950 
G1 X2.531 Y5.002 Z4.950 
G1 X2.336 Y5.002 Z4.950 
G1 X2.336 Y5.004 Z4.950 
G1 X2.531 Y5.004 Z4.950 
G1 X2.531 Y5.007 Z4.950 
G1 X2.336 Y5.007 Z4.950 
G1 X2.336 Y5.009 Z4.950 
G1 X2.531 Y5.009 Z4.950 
G1 X2.531 Y5.012 Z4.950 
G1 X2.336 Y5.012 Z4.950 
G1 X2.336 Y5.014 Z4.950 
G1 X2.531 Y5.014 Z4.950 
G1 X2.531 Y5.017 Z4.950 
G1 X2.336 Y5.017 Z4.950 
G1 X2.336 Y5.019 Z4.950 
G1 X2.531 Y5.019 Z4.950 
G1 X2.531 Y5.022 Z4.950 
G1 X2.336 Y5.022 Z4.950 
G1 X2.336 Y5.024 Z4.950 
G1 X2.531 Y5.024 Z4.950 
G1 X2.531 Y5.027 Z4.950 
G1 X2.336 Y5.027 Z4.950 
G1 X2.336 Y5.029 Z4.950 
G1 X2.531 Y5.029 Z4.950 
G1 X2.531 Y5.032 Z4.950 
G1 X2.336 Y5.032 Z4.950 
G1 X2.336 Y5.034 Z4.950 
G1 X2.531 Y5.034 Z4.950 
G1 X2.531 Y5.037 Z4.950 
G1 X2.336 Y5.037 Z4.950 
G1 X2.336 Y5.039 Z4.950 
G1 X2.531 Y5.039 Z4.950 
G1 X2.531 Y5.042 Z4.950 
G1 X2.336 Y5.042 Z4.950 
G1 X2.336 Y5.044 Z4.950 
G1 X2.531 Y5.044 Z4.950 
G1 X2.531 Y5.047 Z4.950 
G1 X2.336 Y5.047 Z4.950 
G1 X2.336 Y5.049 Z4.950 
G1 X2.531 Y5.049 Z4.950 
G1 X2.531 Y5.052 Z4.950 
G1 X2.336 Y5.052 Z4.950 
G1 X2.336 Y5.054 Z4.950 
G1 X2.531 Y5.054 Z4.950 
G1 X2.531 Y5.057 Z4.950 
G1 X2.336 Y5.057 Z4.950 
G1 X2.336 Y5.059 Z4.950 
G1 X2.531 Y5.059 Z4.950 
G1 X2.531 Y5.062 Z4.950 
G1 X2.336 Y5.062 Z4.950 
G1 X2.336 Y5.064 Z4.950 
G1 X2.531 Y5.064 Z4.950 
G0 Z10.001 
G0 Z10.001 
G0 X2.531 Y5.064 
G0 X2.336 Y7.403 
G0 X2.336 Y7.403 Z8.001 
G1 X2.336 Y7.403 Z4.996 
G1 X2.531 Y7.403 Z4.996 
G1 X2.531 Y7.405 Z4.996 
G1 X2.336 Y7.405 Z4.996 
G1 X2.336 Y7.408 Z4.996 
G1 X2.531 Y7.408 Z4.996 
G1 X2.531 Y7.410 Z4.996 
G1 X2.336 Y7.410 Z4.996 
G1 X2.336 Y7.413 Z4.996 
G1 X2.531 Y7.413 Z4.996 
G1 X2.531 Y7.415 Z4.996 
G1 X2.336 Y7.415 Z4.996 
G1 X2.336 Y7.418 Z4.996 
G1 X2.531 Y7.418 Z4.996 
G1 X2.531 Y7.420 Z4.996 
G1 X2.336 Y7.420 Z4.996 
G1 X2.336 Y7.423 Z4.996 
G1 X2.531 Y7.423 Z4.996 
G1 X2.531 Y7.425 Z4.996 
G1 X2.336 Y7.425 Z4.996 
G1 X2.336 Y7.428 Z4.996 
G1 X2.531 Y7.428 Z4.996 
G1 X2.531 Y7.430 Z4.996 
G1 X2.336 Y7.430 Z4.996 
G1 X2.336 Y7.433 Z4.996 
G1 X2.531 Y7.433 Z4.996 
G1 X2.531 Y7.435 Z4.996 
G1 X2.336 Y7.435 Z4.996 
G1 X2.336 Y7.438 Z4.996 
G1 X2.531 Y7.438 Z4.996 
G1 X2.531 Y7.440 Z4.996 
G1 X2.336 Y7.440 Z4.996 
G1 X2.336 Y7.443 Z4.996 
G1 X2.531 Y7.443 Z4.996 
G1 X2.531 Y7.445 Z4.996 
G1 X2.336 Y7.445 Z4.996 
G1 X2.336 Y7.448 Z4.996 
G1 X2.531 Y7.448 Z4.996 
G1 X2.531 Y7.450 Z4.996 
G1 X2.336 Y7.450 Z4.996 
G1 X2.336 Y7.453 Z4.996 
G1 X2.531 Y7.453 Z4.996 
G1 X2.531 Y7.455 Z4.996 
G1 X2.336 Y7.455 Z4.996 
G1 X2.336 Y7.458 Z4.996 
G1 X2.531 Y7.458 Z4.996 
G1 X2.531 Y7.460 Z4.996 
G1 X2.336 Y7.460 Z4.996 
G1 X2.336 Y7.463 Z4.996 
G1 X2.531 Y7.463 Z4.996 
G1 X2.531 Y7.465 Z4.996 
G1 X2.336 Y7.465 Z4.996 
G1 X2.336 Y7.468 Z4.996 
G1 X2.531 Y7.468 Z4.996 
G1 X2.531 Y7.470 Z4.996 
G1 X2.336 Y7.470 Z4.996 
G1 X2.336 Y7.473 Z4.996 
G1 X2.531 Y7.473 Z4.996 
G1 X2.531 Y7.475 Z4.996 
G1 X2.336 Y7.475 Z4.996 
G1 X2.336 Y7.478 Z4.996 
G1 X2.531 Y7.478 Z4.996 
G1 X2.531 Y7.480 Z4.996 
G1 X2.336 Y7.480 Z4.996 
G1 X2.336 Y7.483 Z4.996 
G1 X2.531 Y7.483 Z4.996 
G1 X2.531 Y7.485 Z4.996 
G1 X2.336 Y7.485 Z4.996 
G1 X2.336 Y7.488 Z4.996 
G1 X2.531 Y7.488 Z4.996 
G1 X2.531 Y7.490 Z4.996 
G1 X2.336 Y7.490 Z4.996 
G1 X2.336 Y7.493 Z4.996 
G1 X2.531 Y7.493 Z4.996 
G1 X2.531 Y7.495 Z4.996 
G1 X2.336 Y7.495 Z4.996 
G1 X2.336 Y7.498 Z4.996 
G1 X2.531 Y7.498 Z4.996 
G1 X2.531 Y7.500 Z4.996 
G1 X2.336 Y7.500 Z4.996 
G1 X2.336 Y7.503 Z4.996 
G1 X2.531 Y7.503 Z4.996 
G1 X2.531 Y7.505 Z4.996 
G1 X2.336 Y7.505 Z4.996 
G1 X2.336 Y7.508 Z4.996 
G1 X2.531 Y7.508 Z4.996 
G1 X2.531 Y7.510 Z4.996 
G1 X2.336 Y7.510 Z4.996 
G1 X2.336 Y7.513 Z4.996 
G1 X2.531 Y7.513 Z4.996 
G1 X2.531 Y7.515 Z4.996 
G1 X2.336 Y7.515 Z4.996 
G1 X2.336 Y7.518 Z4.996 
G1 X2.531 Y7.518 Z4.996 
G1 X2.531 Y7.520 Z4.996 
G1 X2.336 Y7.520 Z4.996 
G1 X2.336 Y7.523 Z4.996 
G1 X2.531 Y7.523 Z4.996 
G1 X2.531 Y7.525 Z4.996 
G1 X2.336 Y7.525 Z4.996 
G1 X2.336 Y7.528 Z4.996 
G1 X2.531 Y7.528 Z4.996 
G1 X2.531 Y7.530 Z4.996 
G1 X2.336 Y7.530 Z4.996 
G1 X2.336 Y7.533 Z4.996 
G1 X2.531 Y7.533 Z4.996 
G1 X2.531 Y7.535 Z4.996 
G1 X2.336 Y7.535 Z4.996 
G1 X2.336 Y7.538 Z4.996 
G1 X2.531 Y7.538 Z4.996 
G1 X2.531 Y7.540 Z4.996 
G1 X2.336 Y7.540 Z4.996 
G1 X2.336 Y7.543 Z4.996 
G1 X2.531 Y7.543 Z4.996 
G1 X2.531 Y7.545 Z4.996 
G1 X2.336 Y7.545 Z4.996 
G1 X2.336 Y7.548 Z4.996 
G1 X2.531 Y7.548 Z4.996 
G1 X2.531 Y7.550 Z4.996 
G1 X2.336 Y7.550 Z4.996 
G1 X2.336 Y7.553 Z4.996 
G1 X2.531 Y7.553 Z4.996 
G1 X2.531 Y7.555 Z4.996 
G1 X2.336 Y7.555 Z4.996 
G1 X2.336 Y7.558 Z4.996 
G1 X2.531 Y7.558 Z4.996 
G1 X2.531 Y7.560 Z4.996 
G1 X2.336 Y7.560 Z4.996 
G1 X2.336 Y7.563 Z4.996 
G1 X2.531 Y7.563 Z4.996 
G1 X2.531 Y7.565 Z4.996 
G1 X2.336 Y7.565 Z4.996 
G1 X2.336 Y7.568 Z4.996 
G1 X2.531 Y7.568 Z4.996 
G1 X2.531 Y7.570 Z4.996 
G1 X2.336 Y7.570 Z4.996 
G1 X2.336 Y7.573 Z4.996 
G1 X2.531 Y7.573 Z4.996 
G1 X2.531 Y7.575 Z4.996 
G1 X2.336 Y7.575 Z4.996 
G1 X2.336 Y7.578 Z4.996 
G1 X2.531 Y7.578 Z4.996 
G1 X2.531 Y7.580 Z4.996 
G1 X2.336 Y7.580 Z4.996 
G1 X2.336 Y7.583 Z4.996 
G1 X2.531 Y7.583 Z4.996 
G1 X2.531 Y7.585 Z4.996 
G1 X2.336 Y7.585 Z4.996 
G1 X2.336 Y7.588 Z4.996 
G1 X2.531 Y7.588 Z4.996 
G1 X2.531 Y7.590 Z4.996 
G1 X2.336 Y7.590 Z4.996 
G1 X2.336 Y7.593 Z4.996 
G1 X2.531 Y7.593 Z4.996 
G1 X2.531 Y7.595 Z4.996 
G1 X2.336 Y7.595 Z4.996 
G1 X2.336 Y7.597 Z4.996 
G1 X2.531 Y7.597 Z4.996 
G1 X2.531 Y7.597 Z4.991 
G1 X2.336 Y7.597 Z4.991 
G1 X2.336 Y7.595 Z4.991 
G1 X2.531 Y7.595 Z4.991 
G1 X2.531 Y7.593 Z4.991 
G1 X2.336 Y7.593 Z4.991 
G1 X2.336 Y7.590 Z4.991 
G1 X2.531 Y7.590 Z4.991 
G1 X2.531 Y7.588 Z4.991 
G1 X2.336 Y7.588 Z4.991 
G1 X2.336 Y7.585 Z4.991 
G1 X2.531 Y7.585 Z4.991 
G1 X2.531 Y7.583 Z4.991 
G1 X2.336 Y7.583 Z4.991 
G1 X2.336 Y7.580 Z4.991 
G1 X2.531 Y7.580 Z4.991 
G1 X2.531 Y7.578 Z4.991 
G1 X2.336 Y7.578 Z4.991 
G1 X2.336 Y7.575 Z4.991 
G1 X2.531 Y7.575 Z4.991 
G1 X2.531 Y7.573 Z4.991 
G1 X2.336 Y7.573 Z4.991 
G1 X2.336 Y7.570 Z4.991 
G1 X2.531 Y7.570 Z4.991 
G1 X2.531 Y7.568 Z4.991 
G1 X2.336 Y7.568 Z4.991 
G1 X2.336 Y7.565 Z4.991 
G1 X2.531 Y7.565 Z4.991 
G1 X2.531 Y7.563 Z4.991 
G1 X2.336 Y7.563 Z4.991 
G1 X2.336 Y7.560 Z4.991 
G1 X2.531 Y7.560 Z4.991 
G1 X2.531 Y7.558 Z4.991 
G1 X2.336 Y7.558 Z4.991 
G1 X2.336 Y7.555 Z4.991 
G1 X2.531 Y7.555 Z4.991 
G1 X2.531 Y7.553 Z4.991 
G1 X2.336 Y7.553 Z4.991 
G1 X2.336 Y7.550 Z4.991 
G1 X2.531 Y7.550 Z4.991 
G1 X2.531 Y7.548 Z4.991 
G1 X2.336 Y7.548 Z4.991 
G1 X2.336 Y7.545 Z4.991 
G1 X2.531 Y7.545 Z4.991 
G1 X2.531 Y7.543 Z4.991 
G1 X2.336 Y7.543 Z4.991 
G1 X2.336 Y7.540 Z4.991 
G1 X2.531 Y7.540 Z4.991 
G1 X2.531 Y7.538 Z4.991 
G1 X2.336 Y7.538 Z4.991 
G1 X2.336 Y7.535 Z4.991 
G1 X2.531 Y7.535 Z4.991 
G1 X2.531 Y7.533 Z4.991 
G1 X2.336 Y7.533 Z4.991 
G1 X2.336 Y7.530 Z4.991 
G1 X2.531 Y7.530 Z4.991 
G1 X2.531 Y7.528 Z4.991 
G1 X2.336 Y7.528 Z4.991 
G1 X2.336 Y7.525 Z4.991 
G1 X2.531 Y7.525 Z4.991 
G1 X2.531 Y7.523 Z4.991 
G1 X2.336 Y7.523 Z4.991 
G1 X2.336 Y7.520 Z4.991 
G1 X2.531 Y7.520 Z4.991 
G1 X2.531 Y7.518 Z4.991 
G1 X2.336 Y7.518 Z4.991 
G1 X2.336 Y7.515 Z4.991 
G1 X2.531 Y7.515 Z4.991 
G1 X2.531 Y7.513 Z4.991 
G1 X2.336 Y7.513 Z4.991 
G1 X2.336 Y7.510 Z4.991 
G1 X2.531 Y7.510 Z4.991 
G1 X2.531 Y7.508 Z4.991 
G1 X2.336 Y7.508 Z4.991 
G1 X2.336 Y7.505 Z4.991 
G1 X2.531 Y7.505 Z4.991 
G1 X2.531 Y7.503 Z4.991 
G1 X2.336 Y7.503 Z4.991 
G1 X2.336 Y7.500 Z4.991 
G1 X2.531 Y7.500 Z4.991 
G1 X2.531 Y7.498 Z4.991 
G1 X2.336 Y7.498 Z4.991 
G1 X2.336 Y7.495 Z4.991 
G1 X2.531 Y7.495 Z4.991 
G1 X2.531 Y7.493 Z4.991 
G1 X2.336 Y7.493 Z4.991 
G1 X2.336 Y7.490 Z4.991 
G1 X2.531 Y7.490 Z4.991 
G1 X2.531 Y7.488 Z4.991 
G1 X2.336 Y7.488 Z4.991 
G1 X2.336 Y7.485 Z4.991 
G1 X2.531 Y7.485 Z4.991 
G1 X2.531 Y7.483 Z4.991 
G1 X2.336 Y7.483 Z4.991 
G1 X2.336 Y7.480 Z4.991 
G1 X2.531 Y7.480 Z4.991 
G1 X2.531 Y7.478 Z4.991 
G1 X2.336 Y7.478 Z4.991 
G1 X2.336 Y7.475 Z4.991 
G1 X2.531 Y7.475 Z4.991 
G1 X2.531 Y7.473 Z4.991 
G1 X2.336 Y7.473 Z4.991 
G1 X2.336 Y7.470 Z4.991 
G1 X2.531 Y7.470 Z4.991 
G1 X2.531 Y7.468 Z4.991 
G1 X2.336 Y7.468 Z4.991 
G1 X2.336 Y7.465 Z4.991 
G1 X2.531 Y7.465 Z4.991 
G1 X2.531 Y7.463 Z4.991 
G1 X2.336 Y7.463 Z4.991 
G1 X2.336 Y7.460 Z4.991 
G1 X2.531 Y7.460 Z4.991 
G1 X2.531 Y7.458 Z4.991 
G1 X2.336 Y7.458 Z4.991 
G1 X2.336 Y7.455 Z4.991 
G1 X2.531 Y7.455 Z4.991 
G1 X2.531 Y7.453 Z4.991 
G1 X2.336 Y7.453 Z4.991 
G1 X2.336 Y7.450 Z4.991 
G1 X2.531 Y7.450 Z4.991 
G1 X2.531 Y7.448 Z4.991 
G1 X2.336 Y7.448 Z4.991 
G1 X2.336 Y7.445 Z4.991 
G1 X2.531 Y7.445 Z4.991 
G1 X2.531 Y7.443 Z4.991 
G1 X2.336 Y7.443 Z4.991 
G1 X2.336 Y7.440 Z4.991 
G1 X2.531 Y7.440 Z4.991 
G1 X2.531 Y7.438 Z4.991 
G1 X2.336 Y7.438 Z4.991 
G1 X2.336 Y7.435 Z4.991 
G1 X2.531 Y7.435 Z4.991 
G1 X2.531 Y7.433 Z4.991 
G1 X2.336 Y7.433 Z4.991 
G1 X2.336 Y7.430 Z4.991 
G1 X2.531 Y7.430 Z4.991 
G1 X2.531 Y7.428 Z4.991 
G1 X2.336 Y7.428 Z4.991 
G1 X2.336 Y7.425 Z4.991 
G1 X2.531 Y7.425 Z4.991 
G1 X2.531 Y7.423 Z4.991 
G1 X2.336 Y7.423 Z4.991 
G1 X2.336 Y7.420 Z4.991 
G1 X2.531 Y7.420 Z4.991 
G1 X2.531 Y7.418 Z4.991 
G1 X2.336 Y7.418 Z4.991 
G1 X2.336 Y7.415 Z4.991 
G1 X2.531 Y7.415 Z4.991 
G1 X2.531 Y7.413 Z4.991 
G1 X2.336 Y7.413 Z4.991 
G1 X2.336 Y7.410 Z4.991 
G1 X2.531 Y7.410 Z4.991 
G1 X2.531 Y7.408 Z4.991 
G1 X2.336 Y7.408 Z4.991 
G1 X2.336 Y7.405 Z4.991 
G1 X2.531 Y7.405 Z4.991 
G1 X2.531 Y7.403 Z4.991 
G1 X2.336 Y7.403 Z4.991 
G1 X2.336 Y7.403 Z4.986 
G1 X2.531 Y7.403 Z4.986 
G1 X2.531 Y7.405 Z4.986 
G1 X2.336 Y7.405 Z4.986 
G1 X2.336 Y7.408 Z4.986 
G1 X2.531 Y7.408 Z4.986 
G1 X2.531 Y7.410 Z4.986 
G1 X2.336 Y7.410 Z4.986 
G1 X2.336 Y7.413 Z4.986 
G1 X2.531 Y7.413 Z4.986 
G1 X2.531 Y7.415 Z4.986 
G1 X2.336 Y7.415 Z4.986 
G1 X2.336 Y7.418 Z4.986 
G1 X2.531 Y7.418 Z4.986 
G1 X2.531 Y7.420 Z4.986 
G1 X2.336 Y7.420 Z4.986 
G1 X2.336 Y7.423 Z4.986 
G1 X2.531 Y7.423 Z4.986 
G1 X2.531 Y7.425 Z4.986 
G1 X2.336 Y7.425 Z4.986 
G1 X2.336 Y7.428 Z4.986 
G1 X2.531 Y7.428 Z4.986 
G1 X2.531 Y7.430 Z4.986 
G1 X2.336 Y7.430 Z4.986 
G1 X2.336 Y7.433 Z4.986 
G1 X2.531 Y7.433 Z4.986 
G1 X2.531 Y7.435 Z4.986 
G1 X2.336 Y7.435 Z4.986 
G1 X2.336 Y7.438 Z4.986 
G1 X2.531 Y7.438 Z4.986 
G1 X2.531 Y7.440 Z4.986 
G1 X2.336 Y7.440 Z4.986 
G1 X2.336 Y7.443 Z4.986 
G1 X2.531 Y7.443 Z4.986 
G1 X2.531 Y7.445 Z4.986 
G1 X2.336 Y7.445 Z4.986 
G1 X2.336 Y7.448 Z4.986 
G1 X2.531 Y7.448 Z4.986 
G1 X2.531 Y7.450 Z4.986 
G1 X2.336 Y7.450 Z4.986 
G1 X2.336 Y7.453 Z4.986 
G1 X2.531 Y7.453 Z4.986 
G1 X2.531 Y7.455 Z4.986 
G1 X2.336 Y7.455 Z4.986 
G1 X2.336 Y7.458 Z4.986 
G1 X2.531 Y7.458 Z4.986 
G1 X2.531 Y7.460 Z4.986 
G1 X2.336 Y7.460 Z4.986 
G1 X2.336 Y7.463 Z4.986 
G1 X2.531 Y7.463 Z4.986 
G1 X2.531 Y7.465 Z4.986 
G1 X2.336 Y7.465 Z4.986 
G1 X2.336 Y7.468 Z4.986 
G1 X2.531 Y7.468 Z4.986 
G1 X2.531 Y7.470 Z4.986 
G1 X2.336 Y7.470 Z4.986 
G1 X2.336 Y7.473 Z4.986 
G1 X2.531 Y7.473 Z4.986 
G1 X2.531 Y7.475 Z4.986 
G1 X2.336 Y7.475 Z4.986 
G1 X2.336 Y7.478 Z4.986 
G1 X2.531 Y7.478 Z4.986 
G1 X2.531 Y7.480 Z4.986 
G1 X2.336 Y7.480 Z4.986 
G1 X2.336 Y7.483 Z4.986 
G1 X2.531 Y7.483 Z4.986 
G1 X2.531 Y7.485 Z4.986 
G1 X2.336 Y7.485 Z4.986 
G1 X2.336 Y7.488 Z4.986 
G1 X2.531 Y7.488 Z4.986 
G1 X2.531 Y7.490 Z4.986 
G1 X2.336 Y7.490 Z4.986 
G1 X2.336 Y7.493 Z4.986 
G1 X2.531 Y7.493 Z4.986 
G1 X2.531 Y7.495 Z4.986 
G1 X2.336 Y7.495 Z4.986 
G1 X2.336 Y7.498 Z4.986 
G1 X2.531 Y7.498 Z4.986 
G1 X2.531 Y7.500 Z4.986 
G1 X2.336 Y7.500 Z4.986 
G1 X2.336 Y7.503 Z4.986 
G1 X2.531 Y7.503 Z4.986 
G1 X2.531 Y7.505 Z4.986 
G1 X2.336 Y7.505 Z4.986 
G1 X2.336 Y7.508 Z4.986 
G1 X2.531 Y7.508 Z4.986 
G1 X2.531 Y7.510 Z4.986 
G1 X2.336 Y7.510 Z4.986 
G1 X2.336 Y7.513 Z4.986 
G1 X2.531 Y7.513 Z4.986 
G1 X2.531 Y7.515 Z4.986 
G1 X2.336 Y7.515 Z4.986 
G1 X2.336 Y7.518 Z4.986 
G1 X2.531 Y7.518 Z4.986 
G1 X2.531 Y7.520 Z4.986 
G1 X2.336 Y7.520 Z4.986 
G1 X2.336 Y7.523 Z4.986 
G1 X2.531 Y7.523 Z4.986 
G1 X2.531 Y7.525 Z4.986 
G1 X2.336 Y7.525 Z4.986 
G1 X2.336 Y7.528 Z4.986 
G1 X2.531 Y7.528 Z4.986 
G1 X2.531 Y7.530 Z4.986 
G1 X2.336 Y7.530 Z4.986 
G1 X2.336 Y7.533 Z4.986 
G1 X2.531 Y7.533 Z4.986 
G1 X2.531 Y7.535 Z4.986 
G1 X2.336 Y7.535 Z4.986 
G1 X2.336 Y7.538 Z4.986 
G1 X2.531 Y7.538 Z4.986 
G1 X2.531 Y7.540 Z4.986 
G1 X2.336 Y7.540 Z4.986 
G1 X2.336 Y7.543 Z4.986 
G1 X2.531 Y7.543 Z4.986 
G1 X2.531 Y7.545 Z4.986 
G1 X2.336 Y7.545 Z4.986 
G1 X2.336 Y7.548 Z4.986 
G1 X2.531 Y7.548 Z4.986 
G1 X2.531 Y7.550 Z4.986 
G1 X2.336 Y7.550 Z4.986 
G1 X2.336 Y7.553 Z4.986 
G1 X2.531 Y7.553 Z4.986 
G1 X2.531 Y7.555 Z4.986 
G1 X2.336 Y7.555 Z4.986 
G1 X2.336 Y7.558 Z4.986 
G1 X2.531 Y7.558 Z4.986 
G1 X2.531 Y7.560 Z4.986 
G1 X2.336 Y7.560 Z4.986 
G1 X2.336 Y7.563 Z4.986 
G1 X2.531 Y7.563 Z4.986 
G1 X2.531 Y7.565 Z4.986 
G1 X2.336 Y7.565 Z4.986 
G1 X2.336 Y7.568 Z4.986 
G1 X2.531 Y7.568 Z4.986 
G1 X2.531 Y7.570 Z4.986 
G1 X2.336 Y7.570 Z4.986 
G1 X2.336 Y7.573 Z4.986 
G1 X2.531 Y7.573 Z4.986 
G1 X2.531 Y7.575 Z4.986 
G1 X2.336 Y7.575 Z4.986 
G1 X2.336 Y7.578 Z4.986 
G1 X2.531 Y7.578 Z4.986 
G1 X2.531 Y7.580 Z4.986 
G1 X2.336 Y7.580 Z4.986 
G1 X2.336 Y7.583 Z4.986 
G1 X2.531 Y7.583 Z4.986 
G1 X2.531 Y7.585 Z4.986 
G1 X2.336 Y7.585 Z4.986 
G1 X2.336 Y7.588 Z4.986 
G1 X2.531 Y7.588 Z4.986 
G1 X2.531 Y7.590 Z4.986 
G1 X2.336 Y7.590 Z4.986 
G1 X2.336 Y7.593 Z4.986 
G1 X2.531 Y7.593 Z4.986 
G1 X2.531 Y7.595 Z4.986 
G1 X2.336 Y7.595 Z4.986 
G1 X2.336 Y7.597 Z4.986 
G1 X2.531 Y7.597 Z4.986 
G1 X2.531 Y7.597 Z4.981 
G1 X2.336 Y7.597 Z4.981 
G1 X2.336 Y7.595 Z4.981 
G1 X2.531 Y7.595 Z4.981 
G1 X2.531 Y7.593 Z4.981 
G1 X2.336 Y7.593 Z4.981 
G1 X2.336 Y7.590 Z4.981 
G1 X2.531 Y7.590 Z4.981 
G1 X2.531 Y7.588 Z4.981 
G1 X2.336 Y7.588 Z4.981 
G1 X2.336 Y7.585 Z4.981 
G1 X2.531 Y7.585 Z4.981 
G1 X2.531 Y7.583 Z4.981 
G1 X2.336 Y7.583 Z4.981 
G1 X2.336 Y7.580 Z4.981 
G1 X2.531 Y7.580 Z4.981 
G1 X2.531 Y7.578 Z4.981 
G1 X2.336 Y7.578 Z4.981 
G1 X2.336 Y7.575 Z4.981 
G1 X2.531 Y7.575 Z4.981 
G1 X2.531 Y7.573 Z4.981 
G1 X2.336 Y7.573 Z4.981 
G1 X2.336 Y7.570 Z4.981 
G1 X2.531 Y7.570 Z4.981 
