(Exported by FreeCAD)
(Post Processor: script_module)
(Output Time:2025-06-18 15:28:04.851485)
(begin preamble)
G17 G54 G40 G49 G80 G90
G21
(begin operation: Fixture)
(machine units: mm/min)
G54 
(finish operation: Fixture)
(begin operation: TC: Default Tool)
(machine units: mm/min)
(TC: Default Tool) 
M5
M6 T1 
G43 H1 
(finish operation: TC: Default Tool)
(begin operation: Pocket_Shape)
(machine units: mm/min)
(Pocket_Shape) 
G0 Z10.001 
G0 X14.997 Y12.511 
G0 Z8.001 
G1 X14.997 Y12.511 Z4.999 
G1 X0.003 Y12.511 Z4.999 
G0 Z10.001 
G0 Y12.508 Z10.001 
G0 Y12.508 Z8.001 
G1 X0.003 Y12.508 Z4.999 
G1 X14.997 Y12.508 Z4.999 
G0 Z10.001 
G0 Y12.506 Z10.001 
G0 Y12.506 Z8.001 
G1 X14.997 Y12.506 Z4.999 
G1 X0.003 Y12.506 Z4.999 
G0 Z10.001 
G0 Y12.503 Z10.001 
G0 Y12.503 Z8.001 
G1 X0.003 Y12.503 Z4.999 
G1 X14.997 Y12.503 Z4.999 
G0 Z10.001 
G0 Y12.501 Z10.001 
G0 Y12.501 Z8.001 
G1 X14.997 Y12.501 Z4.999 
G1 X0.003 Y12.501 Z4.999 
G0 Z10.001 
G0 Y12.498 Z10.001 
G0 Y12.498 Z8.001 
G1 X0.003 Y12.498 Z4.999 
G1 X14.997 Y12.498 Z4.999 
G0 Z10.001 
G0 Y12.496 Z10.001 
G0 Y12.496 Z8.001 
G1 X14.997 Y12.496 Z4.999 
G1 X0.003 Y12.496 Z4.999 
G0 Z10.001 
G0 Y12.493 Z10.001 
G0 Y12.493 Z8.001 
G1 X0.003 Y12.493 Z4.999 
G1 X14.997 Y12.493 Z4.999 
G0 Z10.001 
G0 Y12.491 Z10.001 
G0 Y12.491 Z8.001 
G1 X14.997 Y12.491 Z4.999 
G1 X0.003 Y12.491 Z4.999 
G0 Z10.001 
G0 Y12.488 Z10.001 
G0 Y12.488 Z8.001 
G1 X0.003 Y12.488 Z4.999 
G1 X14.997 Y12.488 Z4.999 
G0 Z10.001 
G0 Y10.011 Z10.001 
G0 Y10.011 Z8.001 
G1 X14.997 Y10.011 Z4.999 
G1 X0.003 Y10.011 Z4.999 
G0 Z10.001 
G0 Y10.008 Z10.001 
G0 Y10.008 Z8.001 
G1 X0.003 Y10.008 Z4.999 
G1 X14.997 Y10.008 Z4.999 
G0 Z10.001 
G0 Y10.006 Z10.001 
G0 Y10.006 Z8.001 
G1 X14.997 Y10.006 Z4.999 
G1 X0.003 Y10.006 Z4.999 
G0 Z10.001 
G0 Y10.003 Z10.001 
G0 Y10.003 Z8.001 
G1 X0.003 Y10.003 Z4.999 
G1 X14.997 Y10.003 Z4.999 
G0 Z10.001 
G0 Y10.001 Z10.001 
G0 Y10.001 Z8.001 
G1 X14.997 Y10.001 Z4.999 
G1 X0.003 Y10.001 Z4.999 
G0 Z10.001 
G0 Y9.998 Z10.001 
G0 Y9.998 Z8.001 
G1 X0.003 Y9.998 Z4.999 
G1 X14.997 Y9.998 Z4.999 
G0 Z10.001 
G0 Y9.996 Z10.001 
G0 Y9.996 Z8.001 
G1 X14.997 Y9.996 Z4.999 
G1 X0.003 Y9.996 Z4.999 
G0 Z10.001 
G0 Y9.993 Z10.001 
G0 Y9.993 Z8.001 
G1 X0.003 Y9.993 Z4.999 
G1 X14.997 Y9.993 Z4.999 
G0 Z10.001 
G0 Y9.991 Z10.001 
G0 Y9.991 Z8.001 
G1 X14.997 Y9.991 Z4.999 
G1 X0.003 Y9.991 Z4.999 
G0 Z10.001 
G0 Y9.988 Z10.001 
G0 Y9.988 Z8.001 
G1 X0.003 Y9.988 Z4.999 
G1 X14.997 Y9.988 Z4.999 
G0 Z10.001 
G0 Y7.511 Z10.001 
G0 Y7.511 Z8.001 
G1 X14.997 Y7.511 Z4.999 
G1 X0.003 Y7.511 Z4.999 
G0 Z10.001 
G0 Y7.508 Z10.001 
G0 Y7.508 Z8.001 
G1 X0.003 Y7.508 Z4.999 
G1 X14.997 Y7.508 Z4.999 
G0 Z10.001 
G0 Y7.506 Z10.001 
G0 Y7.506 Z8.001 
G1 X14.997 Y7.506 Z4.999 
G1 X0.003 Y7.506 Z4.999 
G0 Z10.001 
G0 Y7.503 Z10.001 
G0 Y7.503 Z8.001 
G1 X0.003 Y7.503 Z4.999 
G1 X14.997 Y7.503 Z4.999 
G0 Z10.001 
G0 Y7.501 Z10.001 
G0 Y7.501 Z8.001 
G1 X14.997 Y7.501 Z4.999 
G1 X0.003 Y7.501 Z4.999 
G0 Z10.001 
G0 Y7.498 Z10.001 
G0 Y7.498 Z8.001 
G1 X0.003 Y7.498 Z4.999 
G1 X14.997 Y7.498 Z4.999 
G0 Z10.001 
G0 Y7.496 Z10.001 
G0 Y7.496 Z8.001 
G1 X14.997 Y7.496 Z4.999 
G1 X0.003 Y7.496 Z4.999 
G0 Z10.001 
G0 Y7.493 Z10.001 
G0 Y7.493 Z8.001 
G1 X0.003 Y7.493 Z4.999 
G1 X14.997 Y7.493 Z4.999 
G0 Z10.001 
G0 Y7.491 Z10.001 
G0 Y7.491 Z8.001 
G1 X14.997 Y7.491 Z4.999 
G1 X0.003 Y7.491 Z4.999 
G0 Z10.001 
G0 Y7.488 Z10.001 
G0 Y7.488 Z8.001 
G1 X0.003 Y7.488 Z4.999 
G1 X14.997 Y7.488 Z4.999 
G0 Z10.001 
G0 Y5.011 Z10.001 
G0 Y5.011 Z8.001 
G1 X14.997 Y5.011 Z4.999 
G1 X0.003 Y5.011 Z4.999 
G0 Z10.001 
G0 Y5.008 Z10.001 
G0 Y5.008 Z8.001 
G1 X0.003 Y5.008 Z4.999 
G1 X14.997 Y5.008 Z4.999 
G0 Z10.001 
G0 Y5.006 Z10.001 
G0 Y5.006 Z8.001 
G1 X14.997 Y5.006 Z4.999 
G1 X0.003 Y5.006 Z4.999 
G0 Z10.001 
G0 Y5.003 Z10.001 
G0 Y5.003 Z8.001 
G1 X0.003 Y5.003 Z4.999 
G1 X14.997 Y5.003 Z4.999 
G0 Z10.001 
G0 Y5.001 Z10.001 
G0 Y5.001 Z8.001 
G1 X14.997 Y5.001 Z4.999 
G1 X0.003 Y5.001 Z4.999 
G0 Z10.001 
G0 Y4.998 Z10.001 
G0 Y4.998 Z8.001 
G1 X0.003 Y4.998 Z4.999 
G1 X14.997 Y4.998 Z4.999 
G0 Z10.001 
G0 Y4.996 Z10.001 
G0 Y4.996 Z8.001 
G1 X14.997 Y4.996 Z4.999 
G1 X0.003 Y4.996 Z4.999 
G0 Z10.001 
G0 Y4.993 Z10.001 
G0 Y4.993 Z8.001 
G1 X0.003 Y4.993 Z4.999 
G1 X14.997 Y4.993 Z4.999 
G0 Z10.001 
G0 Y4.991 Z10.001 
G0 Y4.991 Z8.001 
G1 X14.997 Y4.991 Z4.999 
G1 X0.003 Y4.991 Z4.999 
G0 Z10.001 
G0 Y4.988 Z10.001 
G0 Y4.988 Z8.001 
G1 X0.003 Y4.988 Z4.999 
G1 X14.997 Y4.988 Z4.999 
G0 Z10.001 
G0 Y2.511 Z10.001 
G0 Y2.511 Z8.001 
G1 X14.997 Y2.511 Z4.999 
G1 X0.003 Y2.511 Z4.999 
G0 Z10.001 
G0 Y2.508 Z10.001 
G0 Y2.508 Z8.001 
G1 X0.003 Y2.508 Z4.999 
G1 X14.997 Y2.508 Z4.999 
G0 Z10.001 
G0 Y2.506 Z10.001 
G0 Y2.506 Z8.001 
G1 X14.997 Y2.506 Z4.999 
G1 X0.003 Y2.506 Z4.999 
G0 Z10.001 
G0 Y2.503 Z10.001 
G0 Y2.503 Z8.001 
G1 X0.003 Y2.503 Z4.999 
G1 X14.997 Y2.503 Z4.999 
G0 Z10.001 
G0 Y2.501 Z10.001 
G0 Y2.501 Z8.001 
G1 X14.997 Y2.501 Z4.999 
G1 X0.003 Y2.501 Z4.999 
G0 Z10.001 
G0 Y2.498 Z10.001 
G0 Y2.498 Z8.001 
G1 X0.003 Y2.498 Z4.999 
G1 X14.997 Y2.498 Z4.999 
G0 Z10.001 
G0 Y2.496 Z10.001 
G0 Y2.496 Z8.001 
G1 X14.997 Y2.496 Z4.999 
G1 X0.003 Y2.496 Z4.999 
G0 Z10.001 
G0 Y2.493 Z10.001 
G0 Y2.493 Z8.001 
G1 X0.003 Y2.493 Z4.999 
G1 X14.997 Y2.493 Z4.999 
G0 Z10.001 
G0 Y2.491 Z10.001 
G0 Y2.491 Z8.001 
G1 X14.997 Y2.491 Z4.999 
G1 X0.003 Y2.491 Z4.999 
G0 Z10.001 
G0 Y2.488 Z10.001 
G0 Y2.488 Z8.001 
G1 X0.003 Y2.488 Z4.999 
G1 X14.997 Y2.488 Z4.999 
G0 Z10.001 
G0 X12.513 Y2.513 Z10.001 
G0 X12.513 Y2.513 Z8.001 
G1 X12.513 Y2.513 Z4.999 
G1 X12.487 Y2.513 Z4.999 
G0 Z10.001 
G0 X12.487 Y2.516 Z10.001 
G0 X12.487 Y2.516 Z8.001 
G1 X12.487 Y2.516 Z4.999 
G1 X12.512 Y2.516 Z4.999 
G0 Z10.001 
G0 Y2.518 Z10.001 
G0 Y2.518 Z8.001 
G1 X12.512 Y2.518 Z4.999 
G1 X12.487 Y2.518 Z4.999 
G0 Z10.001 
G0 Y2.521 Z10.001 
G0 Y2.521 Z8.001 
G1 X12.487 Y2.521 Z4.999 
G1 X12.512 Y2.521 Z4.999 
G0 Z10.001 
G0 Y2.523 Z10.001 
G0 Y2.523 Z8.001 
G1 X12.512 Y2.523 Z4.999 
G1 X12.487 Y2.523 Z4.999 
G0 Z10.001 
G0 Y2.526 Z10.001 
G0 Y2.526 Z8.001 
G1 X12.487 Y2.526 Z4.999 
G1 X12.512 Y2.526 Z4.999 
G0 Z10.001 
G0 Y2.528 Z10.001 
G0 Y2.528 Z8.001 
G1 X12.512 Y2.528 Z4.999 
G1 X12.487 Y2.528 Z4.999 
G0 Z10.001 
G0 Y2.531 Z10.001 
G0 Y2.531 Z8.001 
G1 X12.487 Y2.531 Z4.999 
G1 X12.512 Y2.531 Z4.999 
G0 Z10.001 
G0 Y2.533 Z10.001 
G0 Y2.533 Z8.001 
G1 X12.512 Y2.533 Z4.999 
G1 X12.487 Y2.533 Z4.999 
G0 Z10.001 
G0 Y2.536 Z10.001 
G0 Y2.536 Z8.001 
G1 X12.487 Y2.536 Z4.999 
G1 X12.512 Y2.536 Z4.999 
G0 Z10.001 
G0 Y2.538 Z10.001 
G0 Y2.538 Z8.001 
G1 X12.512 Y2.538 Z4.999 
G1 X12.487 Y2.538 Z4.999 
G0 Z10.001 
G0 Y2.541 Z10.001 
G0 Y2.541 Z8.001 
G1 X12.487 Y2.541 Z4.999 
G1 X12.512 Y2.541 Z4.999 
G0 Z10.001 
G0 Y2.543 Z10.001 
G0 Y2.543 Z8.001 
G1 X12.512 Y2.543 Z4.999 
G1 X12.487 Y2.543 Z4.999 
G0 Z10.001 
G0 Y2.546 Z10.001 
G0 Y2.546 Z8.001 
G1 X12.487 Y2.546 Z4.999 
G1 X12.512 Y2.546 Z4.999 
G0 Z10.001 
G0 Y2.548 Z10.001 
G0 Y2.548 Z8.001 
G1 X12.512 Y2.548 Z4.999 
G1 X12.487 Y2.548 Z4.999 
G0 Z10.001 
G0 Y2.551 Z10.001 
G0 Y2.551 Z8.001 
G1 X12.487 Y2.551 Z4.999 
G1 X12.512 Y2.551 Z4.999 
G0 Z10.001 
G0 Y2.553 Z10.001 
G0 Y2.553 Z8.001 
G1 X12.512 Y2.553 Z4.999 
G1 X12.487 Y2.553 Z4.999 
G0 Z10.001 
G0 Y2.556 Z10.001 
G0 Y2.556 Z8.001 
G1 X12.487 Y2.556 Z4.999 
G1 X12.512 Y2.556 Z4.999 
G0 Z10.001 
G0 Y2.558 Z10.001 
G0 Y2.558 Z8.001 
G1 X12.512 Y2.558 Z4.999 
G1 X12.487 Y2.558 Z4.999 
G0 Z10.001 
G0 Y2.561 Z10.001 
G0 Y2.561 Z8.001 
G1 X12.487 Y2.561 Z4.999 
G1 X12.512 Y2.561 Z4.999 
G0 Z10.001 
G0 Y2.563 Z10.001 
G0 Y2.563 Z8.001 
G1 X12.512 Y2.563 Z4.999 
G1 X12.487 Y2.563 Z4.999 
G0 Z10.001 
G0 Y2.566 Z10.001 
G0 Y2.566 Z8.001 
G1 X12.487 Y2.566 Z4.999 
G1 X12.512 Y2.566 Z4.999 
G0 Z10.001 
G0 Y2.568 Z10.001 
G0 Y2.568 Z8.001 
G1 X12.512 Y2.568 Z4.999 
G1 X12.487 Y2.568 Z4.999 
G0 Z10.001 
G0 Y2.571 Z10.001 
G0 Y2.571 Z8.001 
G1 X12.487 Y2.571 Z4.999 
G1 X12.512 Y2.571 Z4.999 
G0 Z10.001 
G0 Y2.573 Z10.001 
G0 Y2.573 Z8.001 
G1 X12.512 Y2.573 Z4.999 
G1 X12.487 Y2.573 Z4.999 
G0 Z10.001 
G0 Y2.576 Z10.001 
G0 Y2.576 Z8.001 
G1 X12.487 Y2.576 Z4.999 
G1 X12.512 Y2.576 Z4.999 
G0 Z10.001 
G0 Y2.578 Z10.001 
G0 Y2.578 Z8.001 
G1 X12.512 Y2.578 Z4.999 
G1 X12.487 Y2.578 Z4.999 
G0 Z10.001 
G0 Y2.581 Z10.001 
G0 Y2.581 Z8.001 
G1 X12.487 Y2.581 Z4.999 
G1 X12.512 Y2.581 Z4.999 
G0 Z10.001 
G0 Y2.583 Z10.001 
G0 Y2.583 Z8.001 
G1 X12.512 Y2.583 Z4.999 
G1 X12.487 Y2.583 Z4.999 
G0 Z10.001 
G0 Y2.586 Z10.001 
G0 Y2.586 Z8.001 
G1 X12.487 Y2.586 Z4.999 
G1 X12.512 Y2.586 Z4.999 
G0 Z10.001 
G0 Y2.588 Z10.001 
G0 Y2.588 Z8.001 
G1 X12.512 Y2.588 Z4.999 
G1 X12.487 Y2.588 Z4.999 
G0 Z10.001 
G0 Y2.591 Z10.001 
G0 Y2.591 Z8.001 
G1 X12.487 Y2.591 Z4.999 
G1 X12.512 Y2.591 Z4.999 
G0 Z10.001 
G0 Y2.593 Z10.001 
G0 Y2.593 Z8.001 
G1 X12.512 Y2.593 Z4.999 
G1 X12.487 Y2.593 Z4.999 
G0 Z10.001 
G0 Y2.596 Z10.001 
G0 Y2.596 Z8.001 
G1 X12.487 Y2.596 Z4.999 
G1 X12.512 Y2.596 Z4.999 
G0 Z10.001 
G0 Y2.598 Z10.001 
G0 Y2.598 Z8.001 
G1 X12.512 Y2.598 Z4.999 
G1 X12.487 Y2.598 Z4.999 
G0 Z10.001 
G0 Y2.601 Z10.001 
G0 Y2.601 Z8.001 
G1 X12.487 Y2.601 Z4.999 
G1 X12.512 Y2.601 Z4.999 
G0 Z10.001 
G0 Y2.603 Z10.001 
G0 Y2.603 Z8.001 
G1 X12.512 Y2.603 Z4.999 
G1 X12.487 Y2.603 Z4.999 
G0 Z10.001 
G0 Y2.606 Z10.001 
G0 Y2.606 Z8.001 
G1 X12.487 Y2.606 Z4.999 
G1 X12.512 Y2.606 Z4.999 
G0 Z10.001 
G0 Y2.608 Z10.001 
G0 Y2.608 Z8.001 
G1 X12.512 Y2.608 Z4.999 
G1 X12.487 Y2.608 Z4.999 
G0 Z10.001 
G0 Y2.611 Z10.001 
G0 Y2.611 Z8.001 
G1 X12.487 Y2.611 Z4.999 
G1 X12.512 Y2.611 Z4.999 
G0 Z10.001 
G0 Y2.613 Z10.001 
G0 Y2.613 Z8.001 
G1 X12.512 Y2.613 Z4.999 
G1 X12.487 Y2.613 Z4.999 
G0 Z10.001 
G0 Y2.616 Z10.001 
G0 Y2.616 Z8.001 
G1 X12.487 Y2.616 Z4.999 
G1 X12.512 Y2.616 Z4.999 
G0 Z10.001 
G0 Y2.618 Z10.001 
G0 Y2.618 Z8.001 
G1 X12.512 Y2.618 Z4.999 
G1 X12.487 Y2.618 Z4.999 
G0 Z10.001 
G0 Y2.621 Z10.001 
G0 Y2.621 Z8.001 
G1 X12.487 Y2.621 Z4.999 
G1 X12.512 Y2.621 Z4.999 
G0 Z10.001 
G0 Y2.623 Z10.001 
G0 Y2.623 Z8.001 
G1 X12.512 Y2.623 Z4.999 
G1 X12.487 Y2.623 Z4.999 
G0 Z10.001 
G0 Y2.626 Z10.001 
G0 Y2.626 Z8.001 
G1 X12.487 Y2.626 Z4.999 
G1 X12.512 Y2.626 Z4.999 
G0 Z10.001 
G0 Y2.628 Z10.001 
G0 Y2.628 Z8.001 
G1 X12.512 Y2.628 Z4.999 
G1 X12.487 Y2.628 Z4.999 
G0 Z10.001 
G0 Y2.631 Z10.001 
G0 Y2.631 Z8.001 
G1 X12.487 Y2.631 Z4.999 
G1 X12.512 Y2.631 Z4.999 
G0 Z10.001 
G0 Y2.633 Z10.001 
G0 Y2.633 Z8.001 
G1 X12.512 Y2.633 Z4.999 
G1 X12.487 Y2.633 Z4.999 
G0 Z10.001 
G0 Y2.636 Z10.001 
G0 Y2.636 Z8.001 
G1 X12.487 Y2.636 Z4.999 
G1 X12.512 Y2.636 Z4.999 
G0 Z10.001 
G0 Y2.638 Z10.001 
G0 Y2.638 Z8.001 
G1 X12.512 Y2.638 Z4.999 
G1 X12.487 Y2.638 Z4.999 
G0 Z10.001 
G0 Y2.641 Z10.001 
G0 Y2.641 Z8.001 
G1 X12.487 Y2.641 Z4.999 
G1 X12.512 Y2.641 Z4.999 
G0 Z10.001 
G0 Y2.643 Z10.001 
G0 Y2.643 Z8.001 
G1 X12.512 Y2.643 Z4.999 
G1 X12.487 Y2.643 Z4.999 
G0 Z10.001 
G0 Y2.646 Z10.001 
G0 Y2.646 Z8.001 
G1 X12.487 Y2.646 Z4.999 
G1 X12.512 Y2.646 Z4.999 
G0 Z10.001 
G0 Y2.648 Z10.001 
G0 Y2.648 Z8.001 
G1 X12.512 Y2.648 Z4.999 
G1 X12.487 Y2.648 Z4.999 
G0 Z10.001 
G0 Y2.651 Z10.001 
G0 Y2.651 Z8.001 
G1 X12.487 Y2.651 Z4.999 
G1 X12.512 Y2.651 Z4.999 
G0 Z10.001 
G0 Y2.653 Z10.001 
G0 Y2.653 Z8.001 
G1 X12.512 Y2.653 Z4.999 
G1 X12.487 Y2.653 Z4.999 
G0 Z10.001 
G0 Y2.656 Z10.001 
G0 Y2.656 Z8.001 
G1 X12.487 Y2.656 Z4.999 
G1 X12.512 Y2.656 Z4.999 
G0 Z10.001 
G0 Y2.658 Z10.001 
G0 Y2.658 Z8.001 
G1 X12.512 Y2.658 Z4.999 
G1 X12.487 Y2.658 Z4.999 
G0 Z10.001 
G0 Y2.661 Z10.001 
G0 Y2.661 Z8.001 
G1 X12.487 Y2.661 Z4.999 
G1 X12.512 Y2.661 Z4.999 
G0 Z10.001 
G0 Y2.663 Z10.001 
G0 Y2.663 Z8.001 
G1 X12.512 Y2.663 Z4.999 
G1 X12.487 Y2.663 Z4.999 
G0 Z10.001 
G0 Y2.666 Z10.001 
G0 Y2.666 Z8.001 
G1 X12.487 Y2.666 Z4.999 
G1 X12.512 Y2.666 Z4.999 
G0 Z10.001 
G0 Y2.668 Z10.001 
G0 Y2.668 Z8.001 
G1 X12.512 Y2.668 Z4.999 
G1 X12.487 Y2.668 Z4.999 
G0 Z10.001 
G0 Y2.671 Z10.001 
G0 Y2.671 Z8.001 
G1 X12.487 Y2.671 Z4.999 
G1 X12.512 Y2.671 Z4.999 
G0 Z10.001 
G0 Y2.673 Z10.001 
G0 Y2.673 Z8.001 
G1 X12.512 Y2.673 Z4.999 
G1 X12.487 Y2.673 Z4.999 
G0 Z10.001 
G0 Y2.676 Z10.001 
G0 Y2.676 Z8.001 
G1 X12.487 Y2.676 Z4.999 
G1 X12.512 Y2.676 Z4.999 
G0 Z10.001 
G0 Y2.678 Z10.001 
G0 Y2.678 Z8.001 
G1 X12.512 Y2.678 Z4.999 
G1 X12.487 Y2.678 Z4.999 
G0 Z10.001 
G0 Y2.681 Z10.001 
G0 Y2.681 Z8.001 
G1 X12.487 Y2.681 Z4.999 
G1 X12.512 Y2.681 Z4.999 
G0 Z10.001 
G0 Y2.683 Z10.001 
G0 Y2.683 Z8.001 
G1 X12.512 Y2.683 Z4.999 
G1 X12.487 Y2.683 Z4.999 
G0 Z10.001 
G0 Y2.686 Z10.001 
G0 Y2.686 Z8.001 
G1 X12.487 Y2.686 Z4.999 
G1 X12.512 Y2.686 Z4.999 
G0 Z10.001 
G0 Y2.688 Z10.001 
G0 Y2.688 Z8.001 
G1 X12.512 Y2.688 Z4.999 
G1 X12.487 Y2.688 Z4.999 
G0 Z10.001 
G0 Y2.691 Z10.001 
G0 Y2.691 Z8.001 
G1 X12.487 Y2.691 Z4.999 
G1 X12.512 Y2.691 Z4.999 
G0 Z10.001 
G0 Y2.693 Z10.001 
G0 Y2.693 Z8.001 
G1 X12.512 Y2.693 Z4.999 
G1 X12.487 Y2.693 Z4.999 
G0 Z10.001 
G0 Y2.696 Z10.001 
G0 Y2.696 Z8.001 
G1 X12.487 Y2.696 Z4.999 
G1 X12.512 Y2.696 Z4.999 
G0 Z10.001 
G0 Y2.698 Z10.001 
G0 Y2.698 Z8.001 
G1 X12.512 Y2.698 Z4.999 
G1 X12.487 Y2.698 Z4.999 
G0 Z10.001 
G0 Y2.701 Z10.001 
G0 Y2.701 Z8.001 
G1 X12.487 Y2.701 Z4.999 
G1 X12.512 Y2.701 Z4.999 
G0 Z10.001 
G0 Y2.703 Z10.001 
G0 Y2.703 Z8.001 
G1 X12.512 Y2.703 Z4.999 
G1 X12.487 Y2.703 Z4.999 
G0 Z10.001 
G0 Y2.706 Z10.001 
G0 Y2.706 Z8.001 
G1 X12.487 Y2.706 Z4.999 
G1 X12.512 Y2.706 Z4.999 
G0 Z10.001 
G0 Y2.708 Z10.001 
G0 Y2.708 Z8.001 
G1 X12.512 Y2.708 Z4.999 
G1 X12.487 Y2.708 Z4.999 
G0 Z10.001 
G0 Y2.711 Z10.001 
G0 Y2.711 Z8.001 
G1 X12.487 Y2.711 Z4.999 
G1 X12.512 Y2.711 Z4.999 
G0 Z10.001 
G0 Y2.713 Z10.001 
G0 Y2.713 Z8.001 
G1 X12.512 Y2.713 Z4.999 
G1 X12.487 Y2.713 Z4.999 
G0 Z10.001 
G0 Y2.716 Z10.001 
G0 Y2.716 Z8.001 
G1 X12.487 Y2.716 Z4.999 
G1 X12.512 Y2.716 Z4.999 
G0 Z10.001 
G0 Y2.718 Z10.001 
G0 Y2.718 Z8.001 
G1 X12.512 Y2.718 Z4.999 
G1 X12.487 Y2.718 Z4.999 
G0 Z10.001 
G0 Y2.721 Z10.001 
G0 Y2.721 Z8.001 
G1 X12.487 Y2.721 Z4.999 
G1 X12.512 Y2.721 Z4.999 
G0 Z10.001 
G0 Y2.723 Z10.001 
G0 Y2.723 Z8.001 
G1 X12.512 Y2.723 Z4.999 
G1 X12.487 Y2.723 Z4.999 
G0 Z10.001 
G0 Y2.726 Z10.001 
G0 Y2.726 Z8.001 
G1 X12.487 Y2.726 Z4.999 
G1 X12.512 Y2.726 Z4.999 
G0 Z10.001 
G0 Y2.728 Z10.001 
G0 Y2.728 Z8.001 
G1 X12.512 Y2.728 Z4.999 
G1 X12.487 Y2.728 Z4.999 
G0 Z10.001 
G0 Y2.731 Z10.001 
G0 Y2.731 Z8.001 
G1 X12.487 Y2.731 Z4.999 
G1 X12.512 Y2.731 Z4.999 
G0 Z10.001 
G0 Y2.733 Z10.001 
G0 Y2.733 Z8.001 
G1 X12.512 Y2.733 Z4.999 
G1 X12.487 Y2.733 Z4.999 
G0 Z10.001 
G0 Y2.736 Z10.001 
G0 Y2.736 Z8.001 
G1 X12.487 Y2.736 Z4.999 
G1 X12.512 Y2.736 Z4.999 
G0 Z10.001 
G0 Y2.738 Z10.001 
G0 Y2.738 Z8.001 
G1 X12.512 Y2.738 Z4.999 
G1 X12.487 Y2.738 Z4.999 
G0 Z10.001 
G0 Y2.741 Z10.001 
G0 Y2.741 Z8.001 
G1 X12.487 Y2.741 Z4.999 
G1 X12.512 Y2.741 Z4.999 
G0 Z10.001 
G0 Y2.743 Z10.001 
G0 Y2.743 Z8.001 
G1 X12.512 Y2.743 Z4.999 
G1 X12.487 Y2.743 Z4.999 
G0 Z10.001 
G0 Y2.746 Z10.001 
G0 Y2.746 Z8.001 
G1 X12.487 Y2.746 Z4.999 
G1 X12.512 Y2.746 Z4.999 
G0 Z10.001 
G0 Y2.748 Z10.001 
G0 Y2.748 Z8.001 
G1 X12.512 Y2.748 Z4.999 
G1 X12.487 Y2.748 Z4.999 
G0 Z10.001 
G0 Y2.751 Z10.001 
G0 Y2.751 Z8.001 
G1 X12.487 Y2.751 Z4.999 
G1 X12.512 Y2.751 Z4.999 
G0 Z10.001 
G0 Y2.753 Z10.001 
G0 Y2.753 Z8.001 
G1 X12.512 Y2.753 Z4.999 
G1 X12.487 Y2.753 Z4.999 
G0 Z10.001 
G0 Y2.756 Z10.001 
G0 Y2.756 Z8.001 
G1 X12.487 Y2.756 Z4.999 
G1 X12.512 Y2.756 Z4.999 
G0 Z10.001 
G0 Y2.758 Z10.001 
G0 Y2.758 Z8.001 
G1 X12.512 Y2.758 Z4.999 
G1 X12.487 Y2.758 Z4.999 
G0 Z10.001 
G0 Y2.761 Z10.001 
G0 Y2.761 Z8.001 
G1 X12.487 Y2.761 Z4.999 
G1 X12.512 Y2.761 Z4.999 
G0 Z10.001 
G0 Y2.763 Z10.001 
G0 Y2.763 Z8.001 
G1 X12.512 Y2.763 Z4.999 
G1 X12.487 Y2.763 Z4.999 
G0 Z10.001 
G0 Y2.766 Z10.001 
G0 Y2.766 Z8.001 
G1 X12.487 Y2.766 Z4.999 
G1 X12.512 Y2.766 Z4.999 
G0 Z10.001 
G0 Y2.768 Z10.001 
G0 Y2.768 Z8.001 
G1 X12.512 Y2.768 Z4.999 
G1 X12.487 Y2.768 Z4.999 
G0 Z10.001 
G0 Y2.771 Z10.001 
G0 Y2.771 Z8.001 
G1 X12.487 Y2.771 Z4.999 
G1 X12.512 Y2.771 Z4.999 
G0 Z10.001 
G0 Y2.773 Z10.001 
G0 Y2.773 Z8.001 
G1 X12.512 Y2.773 Z4.999 
G1 X12.487 Y2.773 Z4.999 
G0 Z10.001 
G0 Y2.776 Z10.001 
G0 Y2.776 Z8.001 
G1 X12.487 Y2.776 Z4.999 
G1 X12.512 Y2.776 Z4.999 
G0 Z10.001 
G0 Y2.778 Z10.001 
G0 Y2.778 Z8.001 
G1 X12.512 Y2.778 Z4.999 
G1 X12.487 Y2.778 Z4.999 
G0 Z10.001 
G0 Y2.781 Z10.001 
G0 Y2.781 Z8.001 
G1 X12.487 Y2.781 Z4.999 
G1 X12.512 Y2.781 Z4.999 
G0 Z10.001 
G0 Y2.783 Z10.001 
G0 Y2.783 Z8.001 
G1 X12.512 Y2.783 Z4.999 
G1 X12.487 Y2.783 Z4.999 
G0 Z10.001 
G0 Y2.786 Z10.001 
G0 Y2.786 Z8.001 
G1 X12.487 Y2.786 Z4.999 
G1 X12.512 Y2.786 Z4.999 
G0 Z10.001 
G0 Y2.788 Z10.001 
G0 Y2.788 Z8.001 
G1 X12.512 Y2.788 Z4.999 
G1 X12.487 Y2.788 Z4.999 
G0 Z10.001 
G0 Y2.791 Z10.001 
G0 Y2.791 Z8.001 
G1 X12.487 Y2.791 Z4.999 
G1 X12.512 Y2.791 Z4.999 
G0 Z10.001 
G0 Y2.793 Z10.001 
G0 Y2.793 Z8.001 
G1 X12.512 Y2.793 Z4.999 
G1 X12.487 Y2.793 Z4.999 
G0 Z10.001 
G0 Y2.796 Z10.001 
G0 Y2.796 Z8.001 
G1 X12.487 Y2.796 Z4.999 
G1 X12.512 Y2.796 Z4.999 
G0 Z10.001 
G0 Y2.798 Z10.001 
G0 Y2.798 Z8.001 
G1 X12.512 Y2.798 Z4.999 
G1 X12.487 Y2.798 Z4.999 
G0 Z10.001 
G0 Y2.801 Z10.001 
G0 Y2.801 Z8.001 
G1 X12.487 Y2.801 Z4.999 
G1 X12.512 Y2.801 Z4.999 
G0 Z10.001 
G0 Y2.803 Z10.001 
G0 Y2.803 Z8.001 
G1 X12.512 Y2.803 Z4.999 
G1 X12.487 Y2.803 Z4.999 
G0 Z10.001 
G0 Y2.806 Z10.001 
G0 Y2.806 Z8.001 
G1 X12.487 Y2.806 Z4.999 
G1 X12.512 Y2.806 Z4.999 
G0 Z10.001 
G0 Y2.808 Z10.001 
G0 Y2.808 Z8.001 
G1 X12.512 Y2.808 Z4.999 
G1 X12.487 Y2.808 Z4.999 
G0 Z10.001 
G0 Y2.811 Z10.001 
G0 Y2.811 Z8.001 
G1 X12.487 Y2.811 Z4.999 
G1 X12.512 Y2.811 Z4.999 
G0 Z10.001 
G0 Y2.813 Z10.001 
G0 Y2.813 Z8.001 
G1 X12.512 Y2.813 Z4.999 
G1 X12.487 Y2.813 Z4.999 
G0 Z10.001 
G0 Y2.816 Z10.001 
G0 Y2.816 Z8.001 
G1 X12.487 Y2.816 Z4.999 
G1 X12.512 Y2.816 Z4.999 
G0 Z10.001 
G0 Y2.818 Z10.001 
G0 Y2.818 Z8.001 
G1 X12.512 Y2.818 Z4.999 
G1 X12.487 Y2.818 Z4.999 
G0 Z10.001 
G0 Y2.821 Z10.001 
G0 Y2.821 Z8.001 
G1 X12.487 Y2.821 Z4.999 
G1 X12.512 Y2.821 Z4.999 
G0 Z10.001 
G0 Y2.823 Z10.001 
G0 Y2.823 Z8.001 
G1 X12.512 Y2.823 Z4.999 
G1 X12.487 Y2.823 Z4.999 
G0 Z10.001 
G0 Y2.826 Z10.001 
G0 Y2.826 Z8.001 
G1 X12.487 Y2.826 Z4.999 
G1 X12.512 Y2.826 Z4.999 
G0 Z10.001 
G0 Y2.828 Z10.001 
G0 Y2.828 Z8.001 
G1 X12.512 Y2.828 Z4.999 
G1 X12.487 Y2.828 Z4.999 
G0 Z10.001 
G0 Y2.831 Z10.001 
G0 Y2.831 Z8.001 
G1 X12.487 Y2.831 Z4.999 
G1 X12.512 Y2.831 Z4.999 
G0 Z10.001 
G0 Y2.833 Z10.001 
G0 Y2.833 Z8.001 
G1 X12.512 Y2.833 Z4.999 
G1 X12.487 Y2.833 Z4.999 
G0 Z10.001 
G0 Y2.836 Z10.001 
G0 Y2.836 Z8.001 
G1 X12.487 Y2.836 Z4.999 
G1 X12.512 Y2.836 Z4.999 
G0 Z10.001 
G0 Y2.838 Z10.001 
G0 Y2.838 Z8.001 
G1 X12.512 Y2.838 Z4.999 
G1 X12.487 Y2.838 Z4.999 
G0 Z10.001 
G0 Y2.841 Z10.001 
G0 Y2.841 Z8.001 
G1 X12.487 Y2.841 Z4.999 
G1 X12.512 Y2.841 Z4.999 
G0 Z10.001 
G0 Y2.843 Z10.001 
G0 Y2.843 Z8.001 
G1 X12.512 Y2.843 Z4.999 
G1 X12.487 Y2.843 Z4.999 
G0 Z10.001 
G0 Y2.846 Z10.001 
G0 Y2.846 Z8.001 
G1 X12.487 Y2.846 Z4.999 
G1 X12.512 Y2.846 Z4.999 
G0 Z10.001 
G0 Y2.848 Z10.001 
G0 Y2.848 Z8.001 
G1 X12.512 Y2.848 Z4.999 
G1 X12.487 Y2.848 Z4.999 
G0 Z10.001 
G0 Y2.851 Z10.001 
G0 Y2.851 Z8.001 
G1 X12.487 Y2.851 Z4.999 
G1 X12.512 Y2.851 Z4.999 
G0 Z10.001 
G0 Y2.853 Z10.001 
G0 Y2.853 Z8.001 
G1 X12.512 Y2.853 Z4.999 
G1 X12.487 Y2.853 Z4.999 
G0 Z10.001 
G0 Y2.856 Z10.001 
G0 Y2.856 Z8.001 
G1 X12.487 Y2.856 Z4.999 
G1 X12.512 Y2.856 Z4.999 
G0 Z10.001 
G0 Y2.858 Z10.001 
G0 Y2.858 Z8.001 
G1 X12.512 Y2.858 Z4.999 
G1 X12.487 Y2.858 Z4.999 
G0 Z10.001 
G0 Y2.861 Z10.001 
G0 Y2.861 Z8.001 
G1 X12.487 Y2.861 Z4.999 
G1 X12.512 Y2.861 Z4.999 
G0 Z10.001 
G0 Y2.863 Z10.001 
G0 Y2.863 Z8.001 
G1 X12.512 Y2.863 Z4.999 
G1 X12.487 Y2.863 Z4.999 
G0 Z10.001 
G0 Y2.866 Z10.001 
G0 Y2.866 Z8.001 
G1 X12.487 Y2.866 Z4.999 
G1 X12.512 Y2.866 Z4.999 
G0 Z10.001 
G0 Y2.868 Z10.001 
G0 Y2.868 Z8.001 
G1 X12.512 Y2.868 Z4.999 
G1 X12.487 Y2.868 Z4.999 
G0 Z10.001 
G0 Y2.871 Z10.001 
G0 Y2.871 Z8.001 
G1 X12.487 Y2.871 Z4.999 
G1 X12.512 Y2.871 Z4.999 
G0 Z10.001 
G0 Y2.873 Z10.001 
G0 Y2.873 Z8.001 
G1 X12.512 Y2.873 Z4.999 
G1 X12.487 Y2.873 Z4.999 
G0 Z10.001 
G0 Y2.876 Z10.001 
G0 Y2.876 Z8.001 
G1 X12.487 Y2.876 Z4.999 
G1 X12.512 Y2.876 Z4.999 
G0 Z10.001 
G0 Y2.878 Z10.001 
G0 Y2.878 Z8.001 
G1 X12.512 Y2.878 Z4.999 
G1 X12.487 Y2.878 Z4.999 
G0 Z10.001 
G0 Y2.881 Z10.001 
G0 Y2.881 Z8.001 
G1 X12.487 Y2.881 Z4.999 
G1 X12.512 Y2.881 Z4.999 
G0 Z10.001 
G0 Y2.883 Z10.001 
G0 Y2.883 Z8.001 
G1 X12.512 Y2.883 Z4.999 
G1 X12.487 Y2.883 Z4.999 
G0 Z10.001 
G0 Y2.886 Z10.001 
G0 Y2.886 Z8.001 
G1 X12.487 Y2.886 Z4.999 
G1 X12.512 Y2.886 Z4.999 
G0 Z10.001 
G0 Y2.888 Z10.001 
G0 Y2.888 Z8.001 
G1 X12.512 Y2.888 Z4.999 
G1 X12.487 Y2.888 Z4.999 
G0 Z10.001 
G0 Y2.891 Z10.001 
G0 Y2.891 Z8.001 
G1 X12.487 Y2.891 Z4.999 
G1 X12.512 Y2.891 Z4.999 
G0 Z10.001 
G0 Y2.893 Z10.001 
G0 Y2.893 Z8.001 
G1 X12.512 Y2.893 Z4.999 
G1 X12.487 Y2.893 Z4.999 
G0 Z10.001 
G0 Y2.896 Z10.001 
G0 Y2.896 Z8.001 
G1 X12.487 Y2.896 Z4.999 
G1 X12.512 Y2.896 Z4.999 
G0 Z10.001 
G0 Y2.898 Z10.001 
G0 Y2.898 Z8.001 
G1 X12.512 Y2.898 Z4.999 
G1 X12.487 Y2.898 Z4.999 
G0 Z10.001 
G0 Y2.901 Z10.001 
G0 Y2.901 Z8.001 
G1 X12.487 Y2.901 Z4.999 
G1 X12.512 Y2.901 Z4.999 
G0 Z10.001 
G0 Y2.903 Z10.001 
G0 Y2.903 Z8.001 
G1 X12.512 Y2.903 Z4.999 
G1 X12.487 Y2.903 Z4.999 
G0 Z10.001 
G0 Y2.906 Z10.001 
G0 Y2.906 Z8.001 
G1 X12.487 Y2.906 Z4.999 
G1 X12.512 Y2.906 Z4.999 
G0 Z10.001 
G0 Y2.908 Z10.001 
G0 Y2.908 Z8.001 
G1 X12.512 Y2.908 Z4.999 
G1 X12.487 Y2.908 Z4.999 
G0 Z10.001 
G0 Y2.911 Z10.001 
G0 Y2.911 Z8.001 
G1 X12.487 Y2.911 Z4.999 
G1 X12.512 Y2.911 Z4.999 
G0 Z10.001 
G0 Y2.913 Z10.001 
G0 Y2.913 Z8.001 
G1 X12.512 Y2.913 Z4.999 
G1 X12.487 Y2.913 Z4.999 
G0 Z10.001 
G0 Y2.916 Z10.001 
G0 Y2.916 Z8.001 
G1 X12.487 Y2.916 Z4.999 
G1 X12.512 Y2.916 Z4.999 
G0 Z10.001 
G0 Y2.918 Z10.001 
G0 Y2.918 Z8.001 
G1 X12.512 Y2.918 Z4.999 
G1 X12.487 Y2.918 Z4.999 
G0 Z10.001 
G0 Y2.921 Z10.001 
G0 Y2.921 Z8.001 
G1 X12.487 Y2.921 Z4.999 
G1 X12.512 Y2.921 Z4.999 
G0 Z10.001 
G0 Y2.923 Z10.001 
G0 Y2.923 Z8.001 
G1 X12.512 Y2.923 Z4.999 
G1 X12.487 Y2.923 Z4.999 
G0 Z10.001 
G0 Y2.926 Z10.001 
G0 Y2.926 Z8.001 
G1 X12.487 Y2.926 Z4.999 
G1 X12.512 Y2.926 Z4.999 
G0 Z10.001 
G0 Y2.928 Z10.001 
G0 Y2.928 Z8.001 
G1 X12.512 Y2.928 Z4.999 
G1 X12.487 Y2.928 Z4.999 
G0 Z10.001 
G0 Y2.931 Z10.001 
G0 Y2.931 Z8.001 
G1 X12.487 Y2.931 Z4.999 
G1 X12.512 Y2.931 Z4.999 
G0 Z10.001 
G0 Y2.933 Z10.001 
G0 Y2.933 Z8.001 
G1 X12.512 Y2.933 Z4.999 
G1 X12.487 Y2.933 Z4.999 
G0 Z10.001 
G0 Y2.936 Z10.001 
G0 Y2.936 Z8.001 
G1 X12.487 Y2.936 Z4.999 
G1 X12.512 Y2.936 Z4.999 
G0 Z10.001 
G0 Y2.938 Z10.001 
G0 Y2.938 Z8.001 
G1 X12.512 Y2.938 Z4.999 
G1 X12.487 Y2.938 Z4.999 
G0 Z10.001 
G0 Y2.941 Z10.001 
G0 Y2.941 Z8.001 
G1 X12.487 Y2.941 Z4.999 
G1 X12.512 Y2.941 Z4.999 
G0 Z10.001 
G0 Y2.943 Z10.001 
G0 Y2.943 Z8.001 
G1 X12.512 Y2.943 Z4.999 
G1 X12.487 Y2.943 Z4.999 
G0 Z10.001 
G0 Y2.946 Z10.001 
G0 Y2.946 Z8.001 
G1 X12.487 Y2.946 Z4.999 
G1 X12.512 Y2.946 Z4.999 
G0 Z10.001 
G0 Y2.948 Z10.001 
G0 Y2.948 Z8.001 
G1 X12.512 Y2.948 Z4.999 
G1 X12.487 Y2.948 Z4.999 
G0 Z10.001 
G0 Y2.951 Z10.001 
G0 Y2.951 Z8.001 
G1 X12.487 Y2.951 Z4.999 
G1 X12.512 Y2.951 Z4.999 
G0 Z10.001 
G0 Y2.953 Z10.001 
G0 Y2.953 Z8.001 
G1 X12.512 Y2.953 Z4.999 
G1 X12.487 Y2.953 Z4.999 
G0 Z10.001 
G0 Y2.956 Z10.001 
G0 Y2.956 Z8.001 
G1 X12.487 Y2.956 Z4.999 
G1 X12.512 Y2.956 Z4.999 
G0 Z10.001 
G0 Y2.958 Z10.001 
G0 Y2.958 Z8.001 
G1 X12.512 Y2.958 Z4.999 
G1 X12.487 Y2.958 Z4.999 
G0 Z10.001 
G0 Y2.961 Z10.001 
G0 Y2.961 Z8.001 
G1 X12.487 Y2.961 Z4.999 
G1 X12.512 Y2.961 Z4.999 
G0 Z10.001 
G0 Y2.963 Z10.001 
G0 Y2.963 Z8.001 
G1 X12.512 Y2.963 Z4.999 
G1 X12.487 Y2.963 Z4.999 
G0 Z10.001 
G0 Y2.966 Z10.001 
G0 Y2.966 Z8.001 
G1 X12.487 Y2.966 Z4.999 
G1 X12.512 Y2.966 Z4.999 
G0 Z10.001 
G0 Y2.968 Z10.001 
G0 Y2.968 Z8.001 
G1 X12.512 Y2.968 Z4.999 
G1 X12.487 Y2.968 Z4.999 
G0 Z10.001 
G0 Y2.971 Z10.001 
G0 Y2.971 Z8.001 
G1 X12.487 Y2.971 Z4.999 
G1 X12.512 Y2.971 Z4.999 
G0 Z10.001 
G0 Y2.973 Z10.001 
G0 Y2.973 Z8.001 
G1 X12.512 Y2.973 Z4.999 
G1 X12.487 Y2.973 Z4.999 
G0 Z10.001 
G0 Y2.976 Z10.001 
G0 Y2.976 Z8.001 
G1 X12.487 Y2.976 Z4.999 
G1 X12.512 Y2.976 Z4.999 
G0 Z10.001 
G0 Y2.978 Z10.001 
G0 Y2.978 Z8.001 
G1 X12.512 Y2.978 Z4.999 
G1 X12.487 Y2.978 Z4.999 
G0 Z10.001 
G0 Y2.981 Z10.001 
G0 Y2.981 Z8.001 
G1 X12.487 Y2.981 Z4.999 
G1 X12.512 Y2.981 Z4.999 
G0 Z10.001 
G0 Y2.983 Z10.001 
G0 Y2.983 Z8.001 
G1 X12.512 Y2.983 Z4.999 
G1 X12.487 Y2.983 Z4.999 
G0 Z10.001 
G0 Y2.986 Z10.001 
G0 Y2.986 Z8.001 
G1 X12.487 Y2.986 Z4.999 
G1 X12.512 Y2.986 Z4.999 
G0 Z10.001 
G0 Y2.988 Z10.001 
G0 Y2.988 Z8.001 
G1 X12.512 Y2.988 Z4.999 
G1 X12.487 Y2.988 Z4.999 
G0 Z10.001 
G0 Y2.991 Z10.001 
G0 Y2.991 Z8.001 
G1 X12.487 Y2.991 Z4.999 
G1 X12.512 Y2.991 Z4.999 
G0 Z10.001 
G0 Y2.993 Z10.001 
G0 Y2.993 Z8.001 
G1 X12.512 Y2.993 Z4.999 
G1 X12.487 Y2.993 Z4.999 
G0 Z10.001 
G0 Y2.996 Z10.001 
G0 Y2.996 Z8.001 
G1 X12.487 Y2.996 Z4.999 
G1 X12.512 Y2.996 Z4.999 
G0 Z10.001 
G0 Y2.998 Z10.001 
G0 Y2.998 Z8.001 
G1 X12.512 Y2.998 Z4.999 
G1 X12.487 Y2.998 Z4.999 
G0 Z10.001 
G0 Y3.001 Z10.001 
G0 Y3.001 Z8.001 
G1 X12.487 Y3.001 Z4.999 
G1 X12.512 Y3.001 Z4.999 
G0 Z10.001 
G0 Y3.003 Z10.001 
G0 Y3.003 Z8.001 
G1 X12.512 Y3.003 Z4.999 
G1 X12.487 Y3.003 Z4.999 
G0 Z10.001 
G0 Y3.006 Z10.001 
G0 Y3.006 Z8.001 
G1 X12.487 Y3.006 Z4.999 
G1 X12.512 Y3.006 Z4.999 
G0 Z10.001 
G0 Y3.008 Z10.001 
G0 Y3.008 Z8.001 
G1 X12.512 Y3.008 Z4.999 
G1 X12.487 Y3.008 Z4.999 
G0 Z10.001 
G0 Y3.011 Z10.001 
G0 Y3.011 Z8.001 
G1 X12.487 Y3.011 Z4.999 
G1 X12.512 Y3.011 Z4.999 
G0 Z10.001 
G0 Y3.013 Z10.001 
G0 Y3.013 Z8.001 
G1 X12.512 Y3.013 Z4.999 
G1 X12.487 Y3.013 Z4.999 
G0 Z10.001 
G0 Y3.016 Z10.001 
G0 Y3.016 Z8.001 
G1 X12.487 Y3.016 Z4.999 
G1 X12.512 Y3.016 Z4.999 
G0 Z10.001 
G0 Y3.018 Z10.001 
G0 Y3.018 Z8.001 
G1 X12.512 Y3.018 Z4.999 
G1 X12.487 Y3.018 Z4.999 
G0 Z10.001 
G0 Y3.021 Z10.001 
G0 Y3.021 Z8.001 
G1 X12.487 Y3.021 Z4.999 
G1 X12.512 Y3.021 Z4.999 
G0 Z10.001 
G0 Y3.023 Z10.001 
G0 Y3.023 Z8.001 
G1 X12.512 Y3.023 Z4.999 
G1 X12.487 Y3.023 Z4.999 
G0 Z10.001 
G0 Y3.026 Z10.001 
G0 Y3.026 Z8.001 
G1 X12.487 Y3.026 Z4.999 
G1 X12.512 Y3.026 Z4.999 
G0 Z10.001 
G0 Y3.028 Z10.001 
G0 Y3.028 Z8.001 
G1 X12.512 Y3.028 Z4.999 
G1 X12.487 Y3.028 Z4.999 
G0 Z10.001 
G0 Y3.031 Z10.001 
G0 Y3.031 Z8.001 
G1 X12.487 Y3.031 Z4.999 
G1 X12.512 Y3.031 Z4.999 
G0 Z10.001 
G0 Y3.033 Z10.001 
G0 Y3.033 Z8.001 
G1 X12.512 Y3.033 Z4.999 
G1 X12.487 Y3.033 Z4.999 
G0 Z10.001 
G0 Y3.036 Z10.001 
G0 Y3.036 Z8.001 
G1 X12.487 Y3.036 Z4.999 
G1 X12.512 Y3.036 Z4.999 
G0 Z10.001 
G0 Y3.038 Z10.001 
G0 Y3.038 Z8.001 
G1 X12.512 Y3.038 Z4.999 
G1 X12.487 Y3.038 Z4.999 
G0 Z10.001 
G0 Y3.041 Z10.001 
G0 Y3.041 Z8.001 
G1 X12.487 Y3.041 Z4.999 
G1 X12.512 Y3.041 Z4.999 
G0 Z10.001 
G0 Y3.043 Z10.001 
G0 Y3.043 Z8.001 
G1 X12.512 Y3.043 Z4.999 
G1 X12.487 Y3.043 Z4.999 
G0 Z10.001 
G0 Y3.046 Z10.001 
G0 Y3.046 Z8.001 
G1 X12.487 Y3.046 Z4.999 
G1 X12.512 Y3.046 Z4.999 
G0 Z10.001 
G0 Y3.048 Z10.001 
G0 Y3.048 Z8.001 
G1 X12.512 Y3.048 Z4.999 
G1 X12.487 Y3.048 Z4.999 
G0 Z10.001 
G0 Y3.051 Z10.001 
G0 Y3.051 Z8.001 
G1 X12.487 Y3.051 Z4.999 
G1 X12.512 Y3.051 Z4.999 
G0 Z10.001 
G0 Y3.053 Z10.001 
G0 Y3.053 Z8.001 
G1 X12.512 Y3.053 Z4.999 
G1 X12.487 Y3.053 Z4.999 
G0 Z10.001 
G0 Y3.056 Z10.001 
G0 Y3.056 Z8.001 
G1 X12.487 Y3.056 Z4.999 
G1 X12.512 Y3.056 Z4.999 
G0 Z10.001 
G0 Y3.058 Z10.001 
G0 Y3.058 Z8.001 
G1 X12.512 Y3.058 Z4.999 
G1 X12.487 Y3.058 Z4.999 
G0 Z10.001 
G0 Y3.061 Z10.001 
G0 Y3.061 Z8.001 
G1 X12.487 Y3.061 Z4.999 
G1 X12.512 Y3.061 Z4.999 
G0 Z10.001 
G0 Y3.063 Z10.001 
G0 Y3.063 Z8.001 
G1 X12.512 Y3.063 Z4.999 
G1 X12.487 Y3.063 Z4.999 
G0 Z10.001 
G0 Y3.066 Z10.001 
G0 Y3.066 Z8.001 
G1 X12.487 Y3.066 Z4.999 
G1 X12.512 Y3.066 Z4.999 
G0 Z10.001 
G0 Y3.068 Z10.001 
G0 Y3.068 Z8.001 
G1 X12.512 Y3.068 Z4.999 
G1 X12.487 Y3.068 Z4.999 
G0 Z10.001 
G0 Y3.071 Z10.001 
G0 Y3.071 Z8.001 
G1 X12.487 Y3.071 Z4.999 
G1 X12.512 Y3.071 Z4.999 
G0 Z10.001 
G0 Y3.073 Z10.001 
G0 Y3.073 Z8.001 
G1 X12.512 Y3.073 Z4.999 
G1 X12.487 Y3.073 Z4.999 
G0 Z10.001 
G0 Y3.076 Z10.001 
G0 Y3.076 Z8.001 
G1 X12.487 Y3.076 Z4.999 
G1 X12.512 Y3.076 Z4.999 
G0 Z10.001 
G0 Y3.078 Z10.001 
G0 Y3.078 Z8.001 
G1 X12.512 Y3.078 Z4.999 
G1 X12.487 Y3.078 Z4.999 
G0 Z10.001 
G0 Y3.081 Z10.001 
G0 Y3.081 Z8.001 
G1 X12.487 Y3.081 Z4.999 
G1 X12.512 Y3.081 Z4.999 
G0 Z10.001 
G0 Y3.083 Z10.001 
G0 Y3.083 Z8.001 
G1 X12.512 Y3.083 Z4.999 
G1 X12.487 Y3.083 Z4.999 
G0 Z10.001 
G0 Y3.086 Z10.001 
G0 Y3.086 Z8.001 
G1 X12.487 Y3.086 Z4.999 
G1 X12.512 Y3.086 Z4.999 
G0 Z10.001 
G0 Y3.088 Z10.001 
G0 Y3.088 Z8.001 
G1 X12.512 Y3.088 Z4.999 
G1 X12.487 Y3.088 Z4.999 
G0 Z10.001 
G0 Y3.091 Z10.001 
G0 Y3.091 Z8.001 
G1 X12.487 Y3.091 Z4.999 
G1 X12.512 Y3.091 Z4.999 
G0 Z10.001 
G0 Y3.093 Z10.001 
G0 Y3.093 Z8.001 
G1 X12.512 Y3.093 Z4.999 
G1 X12.487 Y3.093 Z4.999 
G0 Z10.001 
G0 Y3.096 Z10.001 
G0 Y3.096 Z8.001 
G1 X12.487 Y3.096 Z4.999 
G1 X12.512 Y3.096 Z4.999 
G0 Z10.001 
G0 Y3.098 Z10.001 
G0 Y3.098 Z8.001 
G1 X12.512 Y3.098 Z4.999 
G1 X12.487 Y3.098 Z4.999 
G0 Z10.001 
G0 Y3.101 Z10.001 
G0 Y3.101 Z8.001 
G1 X12.487 Y3.101 Z4.999 
G1 X12.512 Y3.101 Z4.999 
G0 Z10.001 
G0 Y3.103 Z10.001 
G0 Y3.103 Z8.001 
G1 X12.512 Y3.103 Z4.999 
G1 X12.487 Y3.103 Z4.999 
G0 Z10.001 
G0 Y3.106 Z10.001 
G0 Y3.106 Z8.001 
G1 X12.487 Y3.106 Z4.999 
G1 X12.512 Y3.106 Z4.999 
G0 Z10.001 
G0 Y3.108 Z10.001 
G0 Y3.108 Z8.001 
G1 X12.512 Y3.108 Z4.999 
G1 X12.487 Y3.108 Z4.999 
G0 Z10.001 
G0 Y3.111 Z10.001 
G0 Y3.111 Z8.001 
G1 X12.487 Y3.111 Z4.999 
G1 X12.512 Y3.111 Z4.999 
G0 Z10.001 
G0 Y3.113 Z10.001 
G0 Y3.113 Z8.001 
G1 X12.512 Y3.113 Z4.999 
G1 X12.487 Y3.113 Z4.999 
G0 Z10.001 
G0 Y3.116 Z10.001 
G0 Y3.116 Z8.001 
G1 X12.487 Y3.116 Z4.999 
G1 X12.512 Y3.116 Z4.999 
G0 Z10.001 
G0 Y3.118 Z10.001 
G0 Y3.118 Z8.001 
G1 X12.512 Y3.118 Z4.999 
G1 X12.487 Y3.118 Z4.999 
G0 Z10.001 
G0 Y3.121 Z10.001 
G0 Y3.121 Z8.001 
G1 X12.487 Y3.121 Z4.999 
G1 X12.512 Y3.121 Z4.999 
G0 Z10.001 
G0 Y3.123 Z10.001 
G0 Y3.123 Z8.001 
G1 X12.512 Y3.123 Z4.999 
G1 X12.487 Y3.123 Z4.999 
G0 Z10.001 
G0 Y3.126 Z10.001 
G0 Y3.126 Z8.001 
G1 X12.487 Y3.126 Z4.999 
G1 X12.512 Y3.126 Z4.999 
G0 Z10.001 
G0 Y3.128 Z10.001 
G0 Y3.128 Z8.001 
G1 X12.512 Y3.128 Z4.999 
G1 X12.487 Y3.128 Z4.999 
G0 Z10.001 
G0 Y3.131 Z10.001 
G0 Y3.131 Z8.001 
G1 X12.487 Y3.131 Z4.999 
G1 X12.512 Y3.131 Z4.999 
G0 Z10.001 
G0 Y3.133 Z10.001 
G0 Y3.133 Z8.001 
G1 X12.512 Y3.133 Z4.999 
G1 X12.487 Y3.133 Z4.999 
G0 Z10.001 
G0 Y3.136 Z10.001 
G0 Y3.136 Z8.001 
G1 X12.487 Y3.136 Z4.999 
G1 X12.512 Y3.136 Z4.999 
G0 Z10.001 
G0 Y3.138 Z10.001 
G0 Y3.138 Z8.001 
G1 X12.512 Y3.138 Z4.999 
G1 X12.487 Y3.138 Z4.999 
G0 Z10.001 
G0 Y3.141 Z10.001 
G0 Y3.141 Z8.001 
G1 X12.487 Y3.141 Z4.999 
G1 X12.512 Y3.141 Z4.999 
G0 Z10.001 
G0 Y3.143 Z10.001 
G0 Y3.143 Z8.001 
G1 X12.512 Y3.143 Z4.999 
G1 X12.487 Y3.143 Z4.999 
G0 Z10.001 
G0 Y3.146 Z10.001 
G0 Y3.146 Z8.001 
G1 X12.487 Y3.146 Z4.999 
G1 X12.512 Y3.146 Z4.999 
G0 Z10.001 
G0 Y3.148 Z10.001 
G0 Y3.148 Z8.001 
G1 X12.512 Y3.148 Z4.999 
G1 X12.487 Y3.148 Z4.999 
G0 Z10.001 
G0 Y3.151 Z10.001 
G0 Y3.151 Z8.001 
G1 X12.487 Y3.151 Z4.999 
G1 X12.512 Y3.151 Z4.999 
G0 Z10.001 
G0 Y3.153 Z10.001 
G0 Y3.153 Z8.001 
G1 X12.512 Y3.153 Z4.999 
G1 X12.487 Y3.153 Z4.999 
G0 Z10.001 
G0 Y3.156 Z10.001 
G0 Y3.156 Z8.001 
G1 X12.487 Y3.156 Z4.999 
G1 X12.512 Y3.156 Z4.999 
G0 Z10.001 
G0 Y3.158 Z10.001 
G0 Y3.158 Z8.001 
G1 X12.512 Y3.158 Z4.999 
G1 X12.487 Y3.158 Z4.999 
G0 Z10.001 
G0 Y3.161 Z10.001 
G0 Y3.161 Z8.001 
G1 X12.487 Y3.161 Z4.999 
G1 X12.512 Y3.161 Z4.999 
G0 Z10.001 
G0 Y3.163 Z10.001 
G0 Y3.163 Z8.001 
G1 X12.512 Y3.163 Z4.999 
G1 X12.487 Y3.163 Z4.999 
G0 Z10.001 
G0 Y3.166 Z10.001 
G0 Y3.166 Z8.001 
G1 X12.487 Y3.166 Z4.999 
G1 X12.512 Y3.166 Z4.999 
G0 Z10.001 
G0 Y3.168 Z10.001 
G0 Y3.168 Z8.001 
G1 X12.512 Y3.168 Z4.999 
G1 X12.487 Y3.168 Z4.999 
G0 Z10.001 
G0 Y3.171 Z10.001 
G0 Y3.171 Z8.001 
G1 X12.487 Y3.171 Z4.999 
G1 X12.512 Y3.171 Z4.999 
G0 Z10.001 
G0 Y3.173 Z10.001 
G0 Y3.173 Z8.001 
G1 X12.512 Y3.173 Z4.999 
G1 X12.487 Y3.173 Z4.999 
G0 Z10.001 
G0 Y3.176 Z10.001 
G0 Y3.176 Z8.001 
G1 X12.487 Y3.176 Z4.999 
G1 X12.512 Y3.176 Z4.999 
G0 Z10.001 
G0 Y3.178 Z10.001 
G0 Y3.178 Z8.001 
G1 X12.512 Y3.178 Z4.999 
G1 X12.487 Y3.178 Z4.999 
G0 Z10.001 
G0 Y3.181 Z10.001 
G0 Y3.181 Z8.001 
G1 X12.487 Y3.181 Z4.999 
G1 X12.512 Y3.181 Z4.999 
G0 Z10.001 
G0 Y3.183 Z10.001 
G0 Y3.183 Z8.001 
G1 X12.512 Y3.183 Z4.999 
G1 X12.487 Y3.183 Z4.999 
G0 Z10.001 
G0 Y3.186 Z10.001 
G0 Y3.186 Z8.001 
G1 X12.487 Y3.186 Z4.999 
G1 X12.512 Y3.186 Z4.999 
G0 Z10.001 
G0 Y3.188 Z10.001 
G0 Y3.188 Z8.001 
G1 X12.512 Y3.188 Z4.999 
G1 X12.487 Y3.188 Z4.999 
G0 Z10.001 
G0 Y3.191 Z10.001 
G0 Y3.191 Z8.001 
G1 X12.487 Y3.191 Z4.999 
G1 X12.512 Y3.191 Z4.999 
G0 Z10.001 
G0 Y3.193 Z10.001 
G0 Y3.193 Z8.001 
G1 X12.512 Y3.193 Z4.999 
G1 X12.487 Y3.193 Z4.999 
G0 Z10.001 
G0 Y3.196 Z10.001 
G0 Y3.196 Z8.001 
G1 X12.487 Y3.196 Z4.999 
G1 X12.512 Y3.196 Z4.999 
G0 Z10.001 
G0 Y3.198 Z10.001 
G0 Y3.198 Z8.001 
G1 X12.512 Y3.198 Z4.999 
G1 X12.487 Y3.198 Z4.999 
G0 Z10.001 
G0 Y3.201 Z10.001 
G0 Y3.201 Z8.001 
G1 X12.487 Y3.201 Z4.999 
G1 X12.512 Y3.201 Z4.999 
G0 Z10.001 
G0 Y3.203 Z10.001 
G0 Y3.203 Z8.001 
G1 X12.512 Y3.203 Z4.999 
G1 X12.487 Y3.203 Z4.999 
G0 Z10.001 
G0 Y3.206 Z10.001 
G0 Y3.206 Z8.001 
G1 X12.487 Y3.206 Z4.999 
G1 X12.512 Y3.206 Z4.999 
G0 Z10.001 
G0 Y3.208 Z10.001 
G0 Y3.208 Z8.001 
G1 X12.512 Y3.208 Z4.999 
G1 X12.487 Y3.208 Z4.999 
G0 Z10.001 
G0 Y3.211 Z10.001 
G0 Y3.211 Z8.001 
G1 X12.487 Y3.211 Z4.999 
G1 X12.512 Y3.211 Z4.999 
G0 Z10.001 
G0 Y3.213 Z10.001 
G0 Y3.213 Z8.001 
G1 X12.512 Y3.213 Z4.999 
G1 X12.487 Y3.213 Z4.999 
G0 Z10.001 
G0 Y3.216 Z10.001 
G0 Y3.216 Z8.001 
G1 X12.487 Y3.216 Z4.999 
G1 X12.512 Y3.216 Z4.999 
G0 Z10.001 
G0 Y3.218 Z10.001 
G0 Y3.218 Z8.001 
G1 X12.512 Y3.218 Z4.999 
G1 X12.487 Y3.218 Z4.999 
G0 Z10.001 
G0 Y3.221 Z10.001 
G0 Y3.221 Z8.001 
G1 X12.487 Y3.221 Z4.999 
G1 X12.512 Y3.221 Z4.999 
G0 Z10.001 
G0 Y3.223 Z10.001 
G0 Y3.223 Z8.001 
G1 X12.512 Y3.223 Z4.999 
G1 X12.487 Y3.223 Z4.999 
G0 Z10.001 
G0 Y3.226 Z10.001 
G0 Y3.226 Z8.001 
G1 X12.487 Y3.226 Z4.999 
G1 X12.512 Y3.226 Z4.999 
G0 Z10.001 
G0 Y3.228 Z10.001 
G0 Y3.228 Z8.001 
G1 X12.512 Y3.228 Z4.999 
G1 X12.487 Y3.228 Z4.999 
G0 Z10.001 
G0 Y3.231 Z10.001 
G0 Y3.231 Z8.001 
G1 X12.487 Y3.231 Z4.999 
G1 X12.512 Y3.231 Z4.999 
G0 Z10.001 
G0 Y3.233 Z10.001 
G0 Y3.233 Z8.001 
G1 X12.512 Y3.233 Z4.999 
G1 X12.487 Y3.233 Z4.999 
G0 Z10.001 
G0 Y3.236 Z10.001 
G0 Y3.236 Z8.001 
G1 X12.487 Y3.236 Z4.999 
G1 X12.512 Y3.236 Z4.999 
G0 Z10.001 
G0 Y3.238 Z10.001 
G0 Y3.238 Z8.001 
G1 X12.512 Y3.238 Z4.999 
G1 X12.487 Y3.238 Z4.999 
G0 Z10.001 
G0 Y3.241 Z10.001 
G0 Y3.241 Z8.001 
G1 X12.487 Y3.241 Z4.999 
G1 X12.512 Y3.241 Z4.999 
G0 Z10.001 
G0 Y3.243 Z10.001 
G0 Y3.243 Z8.001 
G1 X12.512 Y3.243 Z4.999 
G1 X12.487 Y3.243 Z4.999 
G0 Z10.001 
G0 Y3.246 Z10.001 
G0 Y3.246 Z8.001 
G1 X12.487 Y3.246 Z4.999 
G1 X12.512 Y3.246 Z4.999 
G0 Z10.001 
G0 Y3.248 Z10.001 
G0 Y3.248 Z8.001 
G1 X12.512 Y3.248 Z4.999 
G1 X12.487 Y3.248 Z4.999 
G0 Z10.001 
G0 Y3.251 Z10.001 
G0 Y3.251 Z8.001 
G1 X12.487 Y3.251 Z4.999 
G1 X12.512 Y3.251 Z4.999 
G0 Z10.001 
G0 Y3.253 Z10.001 
G0 Y3.253 Z8.001 
G1 X12.512 Y3.253 Z4.999 
G1 X12.487 Y3.253 Z4.999 
G0 Z10.001 
G0 Y3.256 Z10.001 
G0 Y3.256 Z8.001 
G1 X12.487 Y3.256 Z4.999 
G1 X12.512 Y3.256 Z4.999 
G0 Z10.001 
G0 Y3.258 Z10.001 
G0 Y3.258 Z8.001 
G1 X12.512 Y3.258 Z4.999 
G1 X12.487 Y3.258 Z4.999 
G0 Z10.001 
G0 Y3.261 Z10.001 
G0 Y3.261 Z8.001 
G1 X12.487 Y3.261 Z4.999 
G1 X12.512 Y3.261 Z4.999 
G0 Z10.001 
G0 Y3.263 Z10.001 
G0 Y3.263 Z8.001 
G1 X12.512 Y3.263 Z4.999 
G1 X12.487 Y3.263 Z4.999 
G0 Z10.001 
G0 Y3.266 Z10.001 
G0 Y3.266 Z8.001 
G1 X12.487 Y3.266 Z4.999 
G1 X12.512 Y3.266 Z4.999 
G0 Z10.001 
G0 Y3.268 Z10.001 
G0 Y3.268 Z8.001 
G1 X12.512 Y3.268 Z4.999 
G1 X12.487 Y3.268 Z4.999 
G0 Z10.001 
G0 Y3.271 Z10.001 
G0 Y3.271 Z8.001 
G1 X12.487 Y3.271 Z4.999 
G1 X12.512 Y3.271 Z4.999 
G0 Z10.001 
G0 Y3.273 Z10.001 
G0 Y3.273 Z8.001 
G1 X12.512 Y3.273 Z4.999 
G1 X12.487 Y3.273 Z4.999 
G0 Z10.001 
G0 Y3.276 Z10.001 
G0 Y3.276 Z8.001 
G1 X12.487 Y3.276 Z4.999 
G1 X12.512 Y3.276 Z4.999 
G0 Z10.001 
G0 Y3.278 Z10.001 
G0 Y3.278 Z8.001 
G1 X12.512 Y3.278 Z4.999 
G1 X12.487 Y3.278 Z4.999 
G0 Z10.001 
G0 Y3.281 Z10.001 
G0 Y3.281 Z8.001 
G1 X12.487 Y3.281 Z4.999 
G1 X12.512 Y3.281 Z4.999 
G0 Z10.001 
G0 Y3.283 Z10.001 
G0 Y3.283 Z8.001 
G1 X12.512 Y3.283 Z4.999 
G1 X12.487 Y3.283 Z4.999 
G0 Z10.001 
G0 Y3.286 Z10.001 
G0 Y3.286 Z8.001 
G1 X12.487 Y3.286 Z4.999 
G1 X12.512 Y3.286 Z4.999 
G0 Z10.001 
G0 Y3.288 Z10.001 
G0 Y3.288 Z8.001 
G1 X12.512 Y3.288 Z4.999 
G1 X12.487 Y3.288 Z4.999 
G0 Z10.001 
G0 Y3.291 Z10.001 
G0 Y3.291 Z8.001 
G1 X12.487 Y3.291 Z4.999 
G1 X12.512 Y3.291 Z4.999 
G0 Z10.001 
G0 Y3.293 Z10.001 
G0 Y3.293 Z8.001 
G1 X12.512 Y3.293 Z4.999 
G1 X12.487 Y3.293 Z4.999 
G0 Z10.001 
G0 Y3.296 Z10.001 
G0 Y3.296 Z8.001 
G1 X12.487 Y3.296 Z4.999 
G1 X12.512 Y3.296 Z4.999 
G0 Z10.001 
G0 Y3.298 Z10.001 
G0 Y3.298 Z8.001 
G1 X12.512 Y3.298 Z4.999 
G1 X12.487 Y3.298 Z4.999 
G0 Z10.001 
G0 Y3.301 Z10.001 
G0 Y3.301 Z8.001 
G1 X12.487 Y3.301 Z4.999 
G1 X12.512 Y3.301 Z4.999 
G0 Z10.001 
G0 Y3.303 Z10.001 
G0 Y3.303 Z8.001 
G1 X12.512 Y3.303 Z4.999 
G1 X12.487 Y3.303 Z4.999 
G0 Z10.001 
G0 Y3.306 Z10.001 
G0 Y3.306 Z8.001 
G1 X12.487 Y3.306 Z4.999 
G1 X12.512 Y3.306 Z4.999 
G0 Z10.001 
G0 Y3.308 Z10.001 
G0 Y3.308 Z8.001 
G1 X12.512 Y3.308 Z4.999 
G1 X12.487 Y3.308 Z4.999 
G0 Z10.001 
G0 Y3.311 Z10.001 
G0 Y3.311 Z8.001 
G1 X12.487 Y3.311 Z4.999 
G1 X12.512 Y3.311 Z4.999 
G0 Z10.001 
G0 Y3.313 Z10.001 
G0 Y3.313 Z8.001 
G1 X12.512 Y3.313 Z4.999 
G1 X12.487 Y3.313 Z4.999 
G0 Z10.001 
G0 Y3.316 Z10.001 
G0 Y3.316 Z8.001 
G1 X12.487 Y3.316 Z4.999 
G1 X12.512 Y3.316 Z4.999 
G0 Z10.001 
G0 Y3.318 Z10.001 
G0 Y3.318 Z8.001 
G1 X12.512 Y3.318 Z4.999 
G1 X12.487 Y3.318 Z4.999 
G0 Z10.001 
G0 Y3.321 Z10.001 
G0 Y3.321 Z8.001 
G1 X12.487 Y3.321 Z4.999 
G1 X12.512 Y3.321 Z4.999 
G0 Z10.001 
G0 Y3.323 Z10.001 
G0 Y3.323 Z8.001 
G1 X12.512 Y3.323 Z4.999 
G1 X12.487 Y3.323 Z4.999 
G0 Z10.001 
G0 Y3.326 Z10.001 
G0 Y3.326 Z8.001 
G1 X12.487 Y3.326 Z4.999 
G1 X12.512 Y3.326 Z4.999 
G0 Z10.001 
G0 Y3.328 Z10.001 
G0 Y3.328 Z8.001 
G1 X12.512 Y3.328 Z4.999 
G1 X12.487 Y3.328 Z4.999 
G0 Z10.001 
G0 Y3.331 Z10.001 
G0 Y3.331 Z8.001 
G1 X12.487 Y3.331 Z4.999 
G1 X12.512 Y3.331 Z4.999 
G0 Z10.001 
G0 Y3.333 Z10.001 
G0 Y3.333 Z8.001 
G1 X12.512 Y3.333 Z4.999 
G1 X12.487 Y3.333 Z4.999 
G0 Z10.001 
G0 Y3.336 Z10.001 
G0 Y3.336 Z8.001 
G1 X12.487 Y3.336 Z4.999 
G1 X12.512 Y3.336 Z4.999 
G0 Z10.001 
G0 Y3.338 Z10.001 
G0 Y3.338 Z8.001 
G1 X12.512 Y3.338 Z4.999 
G1 X12.487 Y3.338 Z4.999 
G0 Z10.001 
G0 Y3.341 Z10.001 
G0 Y3.341 Z8.001 
G1 X12.487 Y3.341 Z4.999 
G1 X12.512 Y3.341 Z4.999 
G0 Z10.001 
G0 Y3.343 Z10.001 
G0 Y3.343 Z8.001 
G1 X12.512 Y3.343 Z4.999 
G1 X12.487 Y3.343 Z4.999 
G0 Z10.001 
G0 Y3.346 Z10.001 
G0 Y3.346 Z8.001 
G1 X12.487 Y3.346 Z4.999 
G1 X12.512 Y3.346 Z4.999 
G0 Z10.001 
G0 Y3.348 Z10.001 
G0 Y3.348 Z8.001 
G1 X12.512 Y3.348 Z4.999 
G1 X12.487 Y3.348 Z4.999 
G0 Z10.001 
G0 Y3.351 Z10.001 
G0 Y3.351 Z8.001 
G1 X12.487 Y3.351 Z4.999 
G1 X12.512 Y3.351 Z4.999 
G0 Z10.001 
G0 Y3.353 Z10.001 
G0 Y3.353 Z8.001 
G1 X12.512 Y3.353 Z4.999 
G1 X12.487 Y3.353 Z4.999 
G0 Z10.001 
G0 Y3.356 Z10.001 
G0 Y3.356 Z8.001 
G1 X12.487 Y3.356 Z4.999 
G1 X12.512 Y3.356 Z4.999 
G0 Z10.001 
G0 Y3.358 Z10.001 
G0 Y3.358 Z8.001 
G1 X12.512 Y3.358 Z4.999 
G1 X12.487 Y3.358 Z4.999 
G0 Z10.001 
G0 Y3.361 Z10.001 
G0 Y3.361 Z8.001 
G1 X12.487 Y3.361 Z4.999 
G1 X12.512 Y3.361 Z4.999 
G0 Z10.001 
G0 Y3.363 Z10.001 
G0 Y3.363 Z8.001 
G1 X12.512 Y3.363 Z4.999 
G1 X12.487 Y3.363 Z4.999 
G0 Z10.001 
G0 Y3.366 Z10.001 
G0 Y3.366 Z8.001 
G1 X12.487 Y3.366 Z4.999 
G1 X12.512 Y3.366 Z4.999 
G0 Z10.001 
G0 Y3.368 Z10.001 
G0 Y3.368 Z8.001 
G1 X12.512 Y3.368 Z4.999 
G1 X12.487 Y3.368 Z4.999 
G0 Z10.001 
G0 Y3.371 Z10.001 
G0 Y3.371 Z8.001 
G1 X12.487 Y3.371 Z4.999 
G1 X12.512 Y3.371 Z4.999 
G0 Z10.001 
G0 Y3.373 Z10.001 
G0 Y3.373 Z8.001 
G1 X12.512 Y3.373 Z4.999 
G1 X12.487 Y3.373 Z4.999 
G0 Z10.001 
G0 Y3.376 Z10.001 
G0 Y3.376 Z8.001 
G1 X12.487 Y3.376 Z4.999 
G1 X12.512 Y3.376 Z4.999 
G0 Z10.001 
G0 Y3.378 Z10.001 
G0 Y3.378 Z8.001 
G1 X12.512 Y3.378 Z4.999 
G1 X12.487 Y3.378 Z4.999 
G0 Z10.001 
G0 Y3.381 Z10.001 
G0 Y3.381 Z8.001 
G1 X12.487 Y3.381 Z4.999 
G1 X12.512 Y3.381 Z4.999 
G0 Z10.001 
G0 Y3.383 Z10.001 
G0 Y3.383 Z8.001 
G1 X12.512 Y3.383 Z4.999 
G1 X12.487 Y3.383 Z4.999 
G0 Z10.001 
G0 Y3.386 Z10.001 
G0 Y3.386 Z8.001 
G1 X12.487 Y3.386 Z4.999 
G1 X12.512 Y3.386 Z4.999 
G0 Z10.001 
G0 Y3.388 Z10.001 
G0 Y3.388 Z8.001 
G1 X12.512 Y3.388 Z4.999 
G1 X12.487 Y3.388 Z4.999 
G0 Z10.001 
G0 Y3.391 Z10.001 
G0 Y3.391 Z8.001 
G1 X12.487 Y3.391 Z4.999 
G1 X12.512 Y3.391 Z4.999 
G0 Z10.001 
G0 Y3.393 Z10.001 
G0 Y3.393 Z8.001 
G1 X12.512 Y3.393 Z4.999 
G1 X12.487 Y3.393 Z4.999 
G0 Z10.001 
G0 Y3.396 Z10.001 
G0 Y3.396 Z8.001 
G1 X12.487 Y3.396 Z4.999 
G1 X12.512 Y3.396 Z4.999 
G0 Z10.001 
G0 Y3.398 Z10.001 
G0 Y3.398 Z8.001 
G1 X12.512 Y3.398 Z4.999 
G1 X12.487 Y3.398 Z4.999 
G0 Z10.001 
G0 Y3.401 Z10.001 
G0 Y3.401 Z8.001 
G1 X12.487 Y3.401 Z4.999 
G1 X12.512 Y3.401 Z4.999 
G0 Z10.001 
G0 Y3.403 Z10.001 
G0 Y3.403 Z8.001 
G1 X12.512 Y3.403 Z4.999 
G1 X12.487 Y3.403 Z4.999 
G0 Z10.001 
G0 Y3.406 Z10.001 
G0 Y3.406 Z8.001 
G1 X12.487 Y3.406 Z4.999 
G1 X12.512 Y3.406 Z4.999 
G0 Z10.001 
G0 Y3.408 Z10.001 
G0 Y3.408 Z8.001 
G1 X12.512 Y3.408 Z4.999 
G1 X12.487 Y3.408 Z4.999 
G0 Z10.001 
G0 Y3.411 Z10.001 
G0 Y3.411 Z8.001 
G1 X12.487 Y3.411 Z4.999 
G1 X12.512 Y3.411 Z4.999 
G0 Z10.001 
G0 Y3.413 Z10.001 
G0 Y3.413 Z8.001 
G1 X12.512 Y3.413 Z4.999 
G1 X12.487 Y3.413 Z4.999 
G0 Z10.001 
G0 Y3.416 Z10.001 
G0 Y3.416 Z8.001 
G1 X12.487 Y3.416 Z4.999 
G1 X12.512 Y3.416 Z4.999 
G0 Z10.001 
G0 Y3.418 Z10.001 
G0 Y3.418 Z8.001 
G1 X12.512 Y3.418 Z4.999 
G1 X12.487 Y3.418 Z4.999 
G0 Z10.001 
G0 Y3.421 Z10.001 
G0 Y3.421 Z8.001 
G1 X12.487 Y3.421 Z4.999 
G1 X12.512 Y3.421 Z4.999 
G0 Z10.001 
G0 Y3.423 Z10.001 
G0 Y3.423 Z8.001 
G1 X12.512 Y3.423 Z4.999 
G1 X12.487 Y3.423 Z4.999 
G0 Z10.001 
G0 Y3.426 Z10.001 
G0 Y3.426 Z8.001 
G1 X12.487 Y3.426 Z4.999 
G1 X12.512 Y3.426 Z4.999 
G0 Z10.001 
G0 Y3.428 Z10.001 
G0 Y3.428 Z8.001 
G1 X12.512 Y3.428 Z4.999 
G1 X12.487 Y3.428 Z4.999 
G0 Z10.001 
G0 Y3.431 Z10.001 
G0 Y3.431 Z8.001 
G1 X12.487 Y3.431 Z4.999 
G1 X12.512 Y3.431 Z4.999 
G0 Z10.001 
G0 Y3.433 Z10.001 
G0 Y3.433 Z8.001 
G1 X12.512 Y3.433 Z4.999 
G1 X12.487 Y3.433 Z4.999 
G0 Z10.001 
G0 Y3.436 Z10.001 
G0 Y3.436 Z8.001 
G1 X12.487 Y3.436 Z4.999 
G1 X12.512 Y3.436 Z4.999 
G0 Z10.001 
G0 Y3.438 Z10.001 
G0 Y3.438 Z8.001 
G1 X12.512 Y3.438 Z4.999 
G1 X12.487 Y3.438 Z4.999 
G0 Z10.001 
G0 Y3.441 Z10.001 
G0 Y3.441 Z8.001 
G1 X12.487 Y3.441 Z4.999 
G1 X12.512 Y3.441 Z4.999 
G0 Z10.001 
G0 Y3.443 Z10.001 
G0 Y3.443 Z8.001 
G1 X12.512 Y3.443 Z4.999 
G1 X12.487 Y3.443 Z4.999 
G0 Z10.001 
G0 Y3.446 Z10.001 
G0 Y3.446 Z8.001 
G1 X12.487 Y3.446 Z4.999 
G1 X12.512 Y3.446 Z4.999 
G0 Z10.001 
G0 Y3.448 Z10.001 
G0 Y3.448 Z8.001 
G1 X12.512 Y3.448 Z4.999 
G1 X12.487 Y3.448 Z4.999 
G0 Z10.001 
G0 Y3.451 Z10.001 
G0 Y3.451 Z8.001 
G1 X12.487 Y3.451 Z4.999 
G1 X12.512 Y3.451 Z4.999 
G0 Z10.001 
G0 Y3.453 Z10.001 
G0 Y3.453 Z8.001 
G1 X12.512 Y3.453 Z4.999 
G1 X12.487 Y3.453 Z4.999 
G0 Z10.001 
G0 Y3.456 Z10.001 
G0 Y3.456 Z8.001 
G1 X12.487 Y3.456 Z4.999 
G1 X12.512 Y3.456 Z4.999 
G0 Z10.001 
G0 Y3.458 Z10.001 
G0 Y3.458 Z8.001 
G1 X12.512 Y3.458 Z4.999 
G1 X12.487 Y3.458 Z4.999 
G0 Z10.001 
G0 Y3.461 Z10.001 
G0 Y3.461 Z8.001 
G1 X12.487 Y3.461 Z4.999 
G1 X12.512 Y3.461 Z4.999 
G0 Z10.001 
G0 Y3.463 Z10.001 
G0 Y3.463 Z8.001 
G1 X12.512 Y3.463 Z4.999 
G1 X12.487 Y3.463 Z4.999 
G0 Z10.001 
G0 Y3.466 Z10.001 
G0 Y3.466 Z8.001 
G1 X12.487 Y3.466 Z4.999 
G1 X12.512 Y3.466 Z4.999 
G0 Z10.001 
G0 Y3.468 Z10.001 
G0 Y3.468 Z8.001 
G1 X12.512 Y3.468 Z4.999 
G1 X12.487 Y3.468 Z4.999 
G0 Z10.001 
G0 Y3.471 Z10.001 
G0 Y3.471 Z8.001 
G1 X12.487 Y3.471 Z4.999 
G1 X12.512 Y3.471 Z4.999 
G0 Z10.001 
G0 Y3.473 Z10.001 
G0 Y3.473 Z8.001 
G1 X12.512 Y3.473 Z4.999 
G1 X12.487 Y3.473 Z4.999 
G0 Z10.001 
G0 Y3.476 Z10.001 
G0 Y3.476 Z8.001 
G1 X12.487 Y3.476 Z4.999 
G1 X12.512 Y3.476 Z4.999 
G0 Z10.001 
G0 Y3.478 Z10.001 
G0 Y3.478 Z8.001 
G1 X12.512 Y3.478 Z4.999 
G1 X12.487 Y3.478 Z4.999 
G0 Z10.001 
G0 Y3.481 Z10.001 
G0 Y3.481 Z8.001 
G1 X12.487 Y3.481 Z4.999 
G1 X12.512 Y3.481 Z4.999 
G0 Z10.001 
G0 Y3.483 Z10.001 
G0 Y3.483 Z8.001 
G1 X12.512 Y3.483 Z4.999 
G1 X12.487 Y3.483 Z4.999 
G0 Z10.001 
G0 Y3.486 Z10.001 
G0 Y3.486 Z8.001 
G1 X12.487 Y3.486 Z4.999 
G1 X12.512 Y3.486 Z4.999 
G0 Z10.001 
G0 Y3.488 Z10.001 
G0 Y3.488 Z8.001 
G1 X12.512 Y3.488 Z4.999 
G1 X12.487 Y3.488 Z4.999 
G0 Z10.001 
G0 Y3.491 Z10.001 
G0 Y3.491 Z8.001 
G1 X12.487 Y3.491 Z4.999 
G1 X12.512 Y3.491 Z4.999 
G0 Z10.001 
G0 Y3.493 Z10.001 
G0 Y3.493 Z8.001 
G1 X12.512 Y3.493 Z4.999 
G1 X12.487 Y3.493 Z4.999 
G0 Z10.001 
G0 Y3.496 Z10.001 
G0 Y3.496 Z8.001 
G1 X12.487 Y3.496 Z4.999 
G1 X12.512 Y3.496 Z4.999 
G0 Z10.001 
G0 Y3.498 Z10.001 
G0 Y3.498 Z8.001 
G1 X12.512 Y3.498 Z4.999 
G1 X12.487 Y3.498 Z4.999 
G0 Z10.001 
G0 Y3.501 Z10.001 
G0 Y3.501 Z8.001 
G1 X12.487 Y3.501 Z4.999 
G1 X12.512 Y3.501 Z4.999 
G0 Z10.001 
G0 Y3.503 Z10.001 
G0 Y3.503 Z8.001 
G1 X12.512 Y3.503 Z4.999 
G1 X12.487 Y3.503 Z4.999 
G0 Z10.001 
G0 Y3.506 Z10.001 
G0 Y3.506 Z8.001 
G1 X12.487 Y3.506 Z4.999 
G1 X12.512 Y3.506 Z4.999 
G0 Z10.001 
G0 Y3.508 Z10.001 
G0 Y3.508 Z8.001 
G1 X12.512 Y3.508 Z4.999 
G1 X12.487 Y3.508 Z4.999 
G0 Z10.001 
G0 Y3.511 Z10.001 
G0 Y3.511 Z8.001 
G1 X12.487 Y3.511 Z4.999 
G1 X12.512 Y3.511 Z4.999 
G0 Z10.001 
G0 Y3.513 Z10.001 
G0 Y3.513 Z8.001 
G1 X12.512 Y3.513 Z4.999 
G1 X12.487 Y3.513 Z4.999 
G0 Z10.001 
G0 Y3.516 Z10.001 
G0 Y3.516 Z8.001 
G1 X12.487 Y3.516 Z4.999 
G1 X12.512 Y3.516 Z4.999 
G0 Z10.001 
G0 Y3.518 Z10.001 
G0 Y3.518 Z8.001 
G1 X12.512 Y3.518 Z4.999 
G1 X12.487 Y3.518 Z4.999 
G0 Z10.001 
G0 Y3.521 Z10.001 
G0 Y3.521 Z8.001 
G1 X12.487 Y3.521 Z4.999 
G1 X12.512 Y3.521 Z4.999 
G0 Z10.001 
G0 Y3.523 Z10.001 
G0 Y3.523 Z8.001 
G1 X12.512 Y3.523 Z4.999 
G1 X12.487 Y3.523 Z4.999 
G0 Z10.001 
G0 Y3.526 Z10.001 
G0 Y3.526 Z8.001 
G1 X12.487 Y3.526 Z4.999 
G1 X12.512 Y3.526 Z4.999 
G0 Z10.001 
G0 Y3.528 Z10.001 
G0 Y3.528 Z8.001 
G1 X12.512 Y3.528 Z4.999 
G1 X12.487 Y3.528 Z4.999 
G0 Z10.001 
G0 Y3.531 Z10.001 
G0 Y3.531 Z8.001 
G1 X12.487 Y3.531 Z4.999 
G1 X12.512 Y3.531 Z4.999 
G0 Z10.001 
G0 Y3.533 Z10.001 
G0 Y3.533 Z8.001 
G1 X12.512 Y3.533 Z4.999 
G1 X12.487 Y3.533 Z4.999 
G0 Z10.001 
G0 Y3.536 Z10.001 
G0 Y3.536 Z8.001 
G1 X12.487 Y3.536 Z4.999 
G1 X12.512 Y3.536 Z4.999 
G0 Z10.001 
G0 Y3.538 Z10.001 
G0 Y3.538 Z8.001 
G1 X12.512 Y3.538 Z4.999 
G1 X12.487 Y3.538 Z4.999 
G0 Z10.001 
G0 Y3.541 Z10.001 
G0 Y3.541 Z8.001 
G1 X12.487 Y3.541 Z4.999 
G1 X12.512 Y3.541 Z4.999 
G0 Z10.001 
G0 Y3.543 Z10.001 
G0 Y3.543 Z8.001 
G1 X12.512 Y3.543 Z4.999 
G1 X12.487 Y3.543 Z4.999 
G0 Z10.001 
G0 Y3.546 Z10.001 
G0 Y3.546 Z8.001 
G1 X12.487 Y3.546 Z4.999 
G1 X12.512 Y3.546 Z4.999 
G0 Z10.001 
G0 Y3.548 Z10.001 
G0 Y3.548 Z8.001 
G1 X12.512 Y3.548 Z4.999 
G1 X12.487 Y3.548 Z4.999 
G0 Z10.001 
G0 Y3.551 Z10.001 
G0 Y3.551 Z8.001 
G1 X12.487 Y3.551 Z4.999 
G1 X12.512 Y3.551 Z4.999 
G0 Z10.001 
G0 Y3.553 Z10.001 
G0 Y3.553 Z8.001 
G1 X12.512 Y3.553 Z4.999 
G1 X12.487 Y3.553 Z4.999 
G0 Z10.001 
G0 Y3.556 Z10.001 
G0 Y3.556 Z8.001 
G1 X12.487 Y3.556 Z4.999 
G1 X12.512 Y3.556 Z4.999 
G0 Z10.001 
G0 Y3.558 Z10.001 
G0 Y3.558 Z8.001 
G1 X12.512 Y3.558 Z4.999 
G1 X12.487 Y3.558 Z4.999 
G0 Z10.001 
G0 Y3.561 Z10.001 
G0 Y3.561 Z8.001 
G1 X12.487 Y3.561 Z4.999 
G1 X12.512 Y3.561 Z4.999 
G0 Z10.001 
G0 Y3.563 Z10.001 
G0 Y3.563 Z8.001 
G1 X12.512 Y3.563 Z4.999 
G1 X12.487 Y3.563 Z4.999 
G0 Z10.001 
G0 Y3.566 Z10.001 
G0 Y3.566 Z8.001 
G1 X12.487 Y3.566 Z4.999 
G1 X12.512 Y3.566 Z4.999 
G0 Z10.001 
G0 Y3.568 Z10.001 
G0 Y3.568 Z8.001 
G1 X12.512 Y3.568 Z4.999 
G1 X12.487 Y3.568 Z4.999 
G0 Z10.001 
G0 Y3.571 Z10.001 
G0 Y3.571 Z8.001 
G1 X12.487 Y3.571 Z4.999 
G1 X12.512 Y3.571 Z4.999 
G0 Z10.001 
G0 Y3.573 Z10.001 
G0 Y3.573 Z8.001 
G1 X12.512 Y3.573 Z4.999 
G1 X12.487 Y3.573 Z4.999 
G0 Z10.001 
G0 Y3.576 Z10.001 
G0 Y3.576 Z8.001 
G1 X12.487 Y3.576 Z4.999 
G1 X12.512 Y3.576 Z4.999 
G0 Z10.001 
G0 Y3.578 Z10.001 
G0 Y3.578 Z8.001 
G1 X12.512 Y3.578 Z4.999 
G1 X12.487 Y3.578 Z4.999 
G0 Z10.001 
G0 Y3.581 Z10.001 
G0 Y3.581 Z8.001 
G1 X12.487 Y3.581 Z4.999 
G1 X12.512 Y3.581 Z4.999 
G0 Z10.001 
G0 Y3.583 Z10.001 
G0 Y3.583 Z8.001 
G1 X12.512 Y3.583 Z4.999 
G1 X12.487 Y3.583 Z4.999 
G0 Z10.001 
G0 Y3.586 Z10.001 
G0 Y3.586 Z8.001 
G1 X12.487 Y3.586 Z4.999 
G1 X12.512 Y3.586 Z4.999 
G0 Z10.001 
G0 Y3.588 Z10.001 
G0 Y3.588 Z8.001 
G1 X12.512 Y3.588 Z4.999 
G1 X12.487 Y3.588 Z4.999 
G0 Z10.001 
G0 Y3.591 Z10.001 
G0 Y3.591 Z8.001 
G1 X12.487 Y3.591 Z4.999 
G1 X12.512 Y3.591 Z4.999 
G0 Z10.001 
G0 Y3.593 Z10.001 
G0 Y3.593 Z8.001 
G1 X12.512 Y3.593 Z4.999 
G1 X12.487 Y3.593 Z4.999 
G0 Z10.001 
G0 Y3.596 Z10.001 
G0 Y3.596 Z8.001 
G1 X12.487 Y3.596 Z4.999 
G1 X12.512 Y3.596 Z4.999 
G0 Z10.001 
G0 Y3.598 Z10.001 
G0 Y3.598 Z8.001 
G1 X12.512 Y3.598 Z4.999 
G1 X12.487 Y3.598 Z4.999 
G0 Z10.001 
G0 Y3.601 Z10.001 
G0 Y3.601 Z8.001 
G1 X12.487 Y3.601 Z4.999 
G1 X12.512 Y3.601 Z4.999 
G0 Z10.001 
G0 Y3.603 Z10.001 
G0 Y3.603 Z8.001 
G1 X12.512 Y3.603 Z4.999 
G1 X12.487 Y3.603 Z4.999 
G0 Z10.001 
G0 Y3.606 Z10.001 
G0 Y3.606 Z8.001 
G1 X12.487 Y3.606 Z4.999 
G1 X12.512 Y3.606 Z4.999 
G0 Z10.001 
G0 Y3.608 Z10.001 
G0 Y3.608 Z8.001 
G1 X12.512 Y3.608 Z4.999 
G1 X12.487 Y3.608 Z4.999 
G0 Z10.001 
G0 Y3.611 Z10.001 
G0 Y3.611 Z8.001 
G1 X12.487 Y3.611 Z4.999 
G1 X12.512 Y3.611 Z4.999 
G0 Z10.001 
G0 Y3.613 Z10.001 
G0 Y3.613 Z8.001 
G1 X12.512 Y3.613 Z4.999 
G1 X12.487 Y3.613 Z4.999 
G0 Z10.001 
G0 Y3.616 Z10.001 
G0 Y3.616 Z8.001 
G1 X12.487 Y3.616 Z4.999 
G1 X12.512 Y3.616 Z4.999 
G0 Z10.001 
G0 Y3.618 Z10.001 
G0 Y3.618 Z8.001 
G1 X12.512 Y3.618 Z4.999 
G1 X12.487 Y3.618 Z4.999 
G0 Z10.001 
G0 Y3.621 Z10.001 
G0 Y3.621 Z8.001 
G1 X12.487 Y3.621 Z4.999 
G1 X12.512 Y3.621 Z4.999 
G0 Z10.001 
G0 Y3.623 Z10.001 
G0 Y3.623 Z8.001 
G1 X12.512 Y3.623 Z4.999 
G1 X12.487 Y3.623 Z4.999 
G0 Z10.001 
G0 Y3.626 Z10.001 
G0 Y3.626 Z8.001 
G1 X12.487 Y3.626 Z4.999 
G1 X12.512 Y3.626 Z4.999 
G0 Z10.001 
G0 Y3.628 Z10.001 
G0 Y3.628 Z8.001 
G1 X12.512 Y3.628 Z4.999 
G1 X12.487 Y3.628 Z4.999 
G0 Z10.001 
G0 Y3.631 Z10.001 
G0 Y3.631 Z8.001 
G1 X12.487 Y3.631 Z4.999 
G1 X12.512 Y3.631 Z4.999 
G0 Z10.001 
G0 Y3.633 Z10.001 
G0 Y3.633 Z8.001 
G1 X12.512 Y3.633 Z4.999 
G1 X12.487 Y3.633 Z4.999 
G0 Z10.001 
G0 Y3.636 Z10.001 
G0 Y3.636 Z8.001 
G1 X12.487 Y3.636 Z4.999 
G1 X12.512 Y3.636 Z4.999 
G0 Z10.001 
G0 Y3.638 Z10.001 
G0 Y3.638 Z8.001 
G1 X12.512 Y3.638 Z4.999 
G1 X12.487 Y3.638 Z4.999 
G0 Z10.001 
G0 Y3.641 Z10.001 
G0 Y3.641 Z8.001 
G1 X12.487 Y3.641 Z4.999 
G1 X12.512 Y3.641 Z4.999 
G0 Z10.001 
G0 Y3.643 Z10.001 
G0 Y3.643 Z8.001 
G1 X12.512 Y3.643 Z4.999 
G1 X12.487 Y3.643 Z4.999 
G0 Z10.001 
G0 Y3.646 Z10.001 
G0 Y3.646 Z8.001 
G1 X12.487 Y3.646 Z4.999 
G1 X12.512 Y3.646 Z4.999 
G0 Z10.001 
G0 Y3.648 Z10.001 
G0 Y3.648 Z8.001 
G1 X12.512 Y3.648 Z4.999 
G1 X12.487 Y3.648 Z4.999 
G0 Z10.001 
G0 Y3.651 Z10.001 
G0 Y3.651 Z8.001 
G1 X12.487 Y3.651 Z4.999 
G1 X12.512 Y3.651 Z4.999 
G0 Z10.001 
G0 Y3.653 Z10.001 
G0 Y3.653 Z8.001 
G1 X12.512 Y3.653 Z4.999 
G1 X12.487 Y3.653 Z4.999 
G0 Z10.001 
G0 Y3.656 Z10.001 
G0 Y3.656 Z8.001 
G1 X12.487 Y3.656 Z4.999 
G1 X12.512 Y3.656 Z4.999 
G0 Z10.001 
G0 Y3.658 Z10.001 
G0 Y3.658 Z8.001 
G1 X12.512 Y3.658 Z4.999 
G1 X12.487 Y3.658 Z4.999 
G0 Z10.001 
G0 Y3.661 Z10.001 
G0 Y3.661 Z8.001 
G1 X12.487 Y3.661 Z4.999 
G1 X12.512 Y3.661 Z4.999 
G0 Z10.001 
G0 Y3.663 Z10.001 
G0 Y3.663 Z8.001 
G1 X12.512 Y3.663 Z4.999 
G1 X12.487 Y3.663 Z4.999 
G0 Z10.001 
G0 Y3.666 Z10.001 
G0 Y3.666 Z8.001 
G1 X12.487 Y3.666 Z4.999 
G1 X12.512 Y3.666 Z4.999 
G0 Z10.001 
G0 Y3.668 Z10.001 
G0 Y3.668 Z8.001 
G1 X12.512 Y3.668 Z4.999 
G1 X12.487 Y3.668 Z4.999 
G0 Z10.001 
G0 Y3.671 Z10.001 
G0 Y3.671 Z8.001 
G1 X12.487 Y3.671 Z4.999 
G1 X12.512 Y3.671 Z4.999 
G0 Z10.001 
G0 Y3.673 Z10.001 
G0 Y3.673 Z8.001 
G1 X12.512 Y3.673 Z4.999 
G1 X12.487 Y3.673 Z4.999 
G0 Z10.001 
G0 Y3.676 Z10.001 
G0 Y3.676 Z8.001 
G1 X12.487 Y3.676 Z4.999 
G1 X12.512 Y3.676 Z4.999 
G0 Z10.001 
G0 Y3.678 Z10.001 
G0 Y3.678 Z8.001 
G1 X12.512 Y3.678 Z4.999 
G1 X12.487 Y3.678 Z4.999 
G0 Z10.001 
G0 Y3.681 Z10.001 
G0 Y3.681 Z8.001 
G1 X12.487 Y3.681 Z4.999 
G1 X12.512 Y3.681 Z4.999 
G0 Z10.001 
G0 Y3.683 Z10.001 
G0 Y3.683 Z8.001 
G1 X12.512 Y3.683 Z4.999 
G1 X12.487 Y3.683 Z4.999 
G0 Z10.001 
G0 Y3.686 Z10.001 
G0 Y3.686 Z8.001 
G1 X12.487 Y3.686 Z4.999 
G1 X12.512 Y3.686 Z4.999 
G0 Z10.001 
G0 Y3.688 Z10.001 
G0 Y3.688 Z8.001 
G1 X12.512 Y3.688 Z4.999 
G1 X12.487 Y3.688 Z4.999 
G0 Z10.001 
G0 Y3.691 Z10.001 
G0 Y3.691 Z8.001 
G1 X12.487 Y3.691 Z4.999 
G1 X12.512 Y3.691 Z4.999 
G0 Z10.001 
G0 Y3.693 Z10.001 
G0 Y3.693 Z8.001 
G1 X12.512 Y3.693 Z4.999 
G1 X12.487 Y3.693 Z4.999 
G0 Z10.001 
G0 Y3.696 Z10.001 
G0 Y3.696 Z8.001 
G1 X12.487 Y3.696 Z4.999 
G1 X12.512 Y3.696 Z4.999 
G0 Z10.001 
G0 Y3.698 Z10.001 
G0 Y3.698 Z8.001 
G1 X12.512 Y3.698 Z4.999 
G1 X12.487 Y3.698 Z4.999 
G0 Z10.001 
G0 Y3.701 Z10.001 
G0 Y3.701 Z8.001 
G1 X12.487 Y3.701 Z4.999 
G1 X12.512 Y3.701 Z4.999 
G0 Z10.001 
G0 Y3.703 Z10.001 
G0 Y3.703 Z8.001 
G1 X12.512 Y3.703 Z4.999 
G1 X12.487 Y3.703 Z4.999 
G0 Z10.001 
G0 Y3.706 Z10.001 
G0 Y3.706 Z8.001 
G1 X12.487 Y3.706 Z4.999 
G1 X12.512 Y3.706 Z4.999 
G0 Z10.001 
G0 Y3.708 Z10.001 
G0 Y3.708 Z8.001 
G1 X12.512 Y3.708 Z4.999 
G1 X12.487 Y3.708 Z4.999 
G0 Z10.001 
G0 Y3.711 Z10.001 
G0 Y3.711 Z8.001 
G1 X12.487 Y3.711 Z4.999 
G1 X12.512 Y3.711 Z4.999 
G0 Z10.001 
G0 Y3.713 Z10.001 
G0 Y3.713 Z8.001 
G1 X12.512 Y3.713 Z4.999 
G1 X12.487 Y3.713 Z4.999 
G0 Z10.001 
G0 Y3.716 Z10.001 
G0 Y3.716 Z8.001 
G1 X12.487 Y3.716 Z4.999 
G1 X12.512 Y3.716 Z4.999 
G0 Z10.001 
G0 Y3.718 Z10.001 
G0 Y3.718 Z8.001 
G1 X12.512 Y3.718 Z4.999 
G1 X12.487 Y3.718 Z4.999 
G0 Z10.001 
G0 Y3.721 Z10.001 
G0 Y3.721 Z8.001 
G1 X12.487 Y3.721 Z4.999 
G1 X12.512 Y3.721 Z4.999 
G0 Z10.001 
G0 Y3.723 Z10.001 
G0 Y3.723 Z8.001 
G1 X12.512 Y3.723 Z4.999 
G1 X12.487 Y3.723 Z4.999 
G0 Z10.001 
G0 Y3.726 Z10.001 
G0 Y3.726 Z8.001 
G1 X12.487 Y3.726 Z4.999 
G1 X12.512 Y3.726 Z4.999 
G0 Z10.001 
G0 Y3.728 Z10.001 
G0 Y3.728 Z8.001 
G1 X12.512 Y3.728 Z4.999 
G1 X12.487 Y3.728 Z4.999 
G0 Z10.001 
G0 Y3.731 Z10.001 
G0 Y3.731 Z8.001 
G1 X12.487 Y3.731 Z4.999 
G1 X12.512 Y3.731 Z4.999 
G0 Z10.001 
G0 Y3.733 Z10.001 
G0 Y3.733 Z8.001 
G1 X12.512 Y3.733 Z4.999 
G1 X12.487 Y3.733 Z4.999 
G0 Z10.001 
G0 Y3.736 Z10.001 
G0 Y3.736 Z8.001 
G1 X12.487 Y3.736 Z4.999 
G1 X12.512 Y3.736 Z4.999 
G0 Z10.001 
G0 Y3.738 Z10.001 
G0 Y3.738 Z8.001 
G1 X12.512 Y3.738 Z4.999 
G1 X12.487 Y3.738 Z4.999 
G0 Z10.001 
G0 Y3.741 Z10.001 
G0 Y3.741 Z8.001 
G1 X12.487 Y3.741 Z4.999 
G1 X12.512 Y3.741 Z4.999 
G0 Z10.001 
G0 Y3.743 Z10.001 
G0 Y3.743 Z8.001 
G1 X12.512 Y3.743 Z4.999 
G1 X12.487 Y3.743 Z4.999 
G0 Z10.001 
G0 Y3.746 Z10.001 
G0 Y3.746 Z8.001 
G1 X12.487 Y3.746 Z4.999 
G1 X12.512 Y3.746 Z4.999 
G0 Z10.001 
G0 Y3.748 Z10.001 
G0 Y3.748 Z8.001 
G1 X12.512 Y3.748 Z4.999 
G1 X12.487 Y3.748 Z4.999 
G0 Z10.001 
G0 Y3.751 Z10.001 
G0 Y3.751 Z8.001 
G1 X12.487 Y3.751 Z4.999 
G1 X12.512 Y3.751 Z4.999 
G0 Z10.001 
G0 Y3.753 Z10.001 
G0 Y3.753 Z8.001 
G1 X12.512 Y3.753 Z4.999 
G1 X12.487 Y3.753 Z4.999 
G0 Z10.001 
G0 Y3.756 Z10.001 
G0 Y3.756 Z8.001 
G1 X12.487 Y3.756 Z4.999 
G1 X12.512 Y3.756 Z4.999 
G0 Z10.001 
G0 Y3.758 Z10.001 
G0 Y3.758 Z8.001 
G1 X12.512 Y3.758 Z4.999 
G1 X12.487 Y3.758 Z4.999 
G0 Z10.001 
G0 Y3.761 Z10.001 
G0 Y3.761 Z8.001 
G1 X12.487 Y3.761 Z4.999 
G1 X12.512 Y3.761 Z4.999 
G0 Z10.001 
G0 Y3.763 Z10.001 
G0 Y3.763 Z8.001 
G1 X12.512 Y3.763 Z4.999 
G1 X12.487 Y3.763 Z4.999 
G0 Z10.001 
G0 Y3.766 Z10.001 
G0 Y3.766 Z8.001 
G1 X12.487 Y3.766 Z4.999 
G1 X12.512 Y3.766 Z4.999 
G0 Z10.001 
G0 Y3.768 Z10.001 
G0 Y3.768 Z8.001 
G1 X12.512 Y3.768 Z4.999 
G1 X12.487 Y3.768 Z4.999 
G0 Z10.001 
G0 Y3.771 Z10.001 
G0 Y3.771 Z8.001 
G1 X12.487 Y3.771 Z4.999 
G1 X12.512 Y3.771 Z4.999 
G0 Z10.001 
G0 Y3.773 Z10.001 
G0 Y3.773 Z8.001 
G1 X12.512 Y3.773 Z4.999 
G1 X12.487 Y3.773 Z4.999 
G0 Z10.001 
G0 Y3.776 Z10.001 
G0 Y3.776 Z8.001 
G1 X12.487 Y3.776 Z4.999 
G1 X12.512 Y3.776 Z4.999 
G0 Z10.001 
G0 Y3.778 Z10.001 
G0 Y3.778 Z8.001 
G1 X12.512 Y3.778 Z4.999 
G1 X12.487 Y3.778 Z4.999 
G0 Z10.001 
G0 Y3.781 Z10.001 
G0 Y3.781 Z8.001 
G1 X12.487 Y3.781 Z4.999 
G1 X12.512 Y3.781 Z4.999 
G0 Z10.001 
G0 Y3.783 Z10.001 
G0 Y3.783 Z8.001 
G1 X12.512 Y3.783 Z4.999 
G1 X12.487 Y3.783 Z4.999 
G0 Z10.001 
G0 Y3.786 Z10.001 
G0 Y3.786 Z8.001 
G1 X12.487 Y3.786 Z4.999 
G1 X12.512 Y3.786 Z4.999 
G0 Z10.001 
G0 Y3.788 Z10.001 
G0 Y3.788 Z8.001 
G1 X12.512 Y3.788 Z4.999 
G1 X12.487 Y3.788 Z4.999 
G0 Z10.001 
G0 Y3.791 Z10.001 
G0 Y3.791 Z8.001 
G1 X12.487 Y3.791 Z4.999 
G1 X12.512 Y3.791 Z4.999 
G0 Z10.001 
G0 Y3.793 Z10.001 
G0 Y3.793 Z8.001 
G1 X12.512 Y3.793 Z4.999 
G1 X12.487 Y3.793 Z4.999 
G0 Z10.001 
G0 Y3.796 Z10.001 
G0 Y3.796 Z8.001 
G1 X12.487 Y3.796 Z4.999 
G1 X12.512 Y3.796 Z4.999 
G0 Z10.001 
G0 Y3.798 Z10.001 
G0 Y3.798 Z8.001 
G1 X12.512 Y3.798 Z4.999 
G1 X12.487 Y3.798 Z4.999 
G0 Z10.001 
G0 Y3.801 Z10.001 
G0 Y3.801 Z8.001 
G1 X12.487 Y3.801 Z4.999 
G1 X12.512 Y3.801 Z4.999 
G0 Z10.001 
G0 Y3.803 Z10.001 
G0 Y3.803 Z8.001 
G1 X12.512 Y3.803 Z4.999 
G1 X12.487 Y3.803 Z4.999 
G0 Z10.001 
G0 Y3.806 Z10.001 
G0 Y3.806 Z8.001 
G1 X12.487 Y3.806 Z4.999 
G1 X12.512 Y3.806 Z4.999 
G0 Z10.001 
G0 Y3.808 Z10.001 
G0 Y3.808 Z8.001 
G1 X12.512 Y3.808 Z4.999 
G1 X12.487 Y3.808 Z4.999 
G0 Z10.001 
G0 Y3.811 Z10.001 
G0 Y3.811 Z8.001 
G1 X12.487 Y3.811 Z4.999 
G1 X12.512 Y3.811 Z4.999 
G0 Z10.001 
G0 Y3.813 Z10.001 
G0 Y3.813 Z8.001 
G1 X12.512 Y3.813 Z4.999 
G1 X12.487 Y3.813 Z4.999 
G0 Z10.001 
G0 Y3.816 Z10.001 
G0 Y3.816 Z8.001 
G1 X12.487 Y3.816 Z4.999 
G1 X12.512 Y3.816 Z4.999 
G0 Z10.001 
G0 Y3.818 Z10.001 
G0 Y3.818 Z8.001 
G1 X12.512 Y3.818 Z4.999 
G1 X12.487 Y3.818 Z4.999 
G0 Z10.001 
G0 Y3.821 Z10.001 
G0 Y3.821 Z8.001 
G1 X12.487 Y3.821 Z4.999 
G1 X12.512 Y3.821 Z4.999 
G0 Z10.001 
G0 Y3.823 Z10.001 
G0 Y3.823 Z8.001 
G1 X12.512 Y3.823 Z4.999 
G1 X12.487 Y3.823 Z4.999 
G0 Z10.001 
G0 Y3.826 Z10.001 
G0 Y3.826 Z8.001 
G1 X12.487 Y3.826 Z4.999 
G1 X12.512 Y3.826 Z4.999 
G0 Z10.001 
G0 Y3.828 Z10.001 
G0 Y3.828 Z8.001 
G1 X12.512 Y3.828 Z4.999 
G1 X12.487 Y3.828 Z4.999 
G0 Z10.001 
G0 Y3.831 Z10.001 
G0 Y3.831 Z8.001 
G1 X12.487 Y3.831 Z4.999 
G1 X12.512 Y3.831 Z4.999 
G0 Z10.001 
G0 Y3.833 Z10.001 
G0 Y3.833 Z8.001 
G1 X12.512 Y3.833 Z4.999 
G1 X12.487 Y3.833 Z4.999 
G0 Z10.001 
G0 Y3.836 Z10.001 
G0 Y3.836 Z8.001 
G1 X12.487 Y3.836 Z4.999 
G1 X12.512 Y3.836 Z4.999 
G0 Z10.001 
G0 Y3.838 Z10.001 
G0 Y3.838 Z8.001 
G1 X12.512 Y3.838 Z4.999 
G1 X12.487 Y3.838 Z4.999 
G0 Z10.001 
G0 Y3.841 Z10.001 
G0 Y3.841 Z8.001 
G1 X12.487 Y3.841 Z4.999 
G1 X12.512 Y3.841 Z4.999 
G0 Z10.001 
G0 Y3.843 Z10.001 
G0 Y3.843 Z8.001 
G1 X12.512 Y3.843 Z4.999 
G1 X12.487 Y3.843 Z4.999 
G0 Z10.001 
G0 Y3.846 Z10.001 
G0 Y3.846 Z8.001 
G1 X12.487 Y3.846 Z4.999 
G1 X12.512 Y3.846 Z4.999 
G0 Z10.001 
G0 Y3.848 Z10.001 
G0 Y3.848 Z8.001 
G1 X12.512 Y3.848 Z4.999 
G1 X12.487 Y3.848 Z4.999 
G0 Z10.001 
G0 Y3.851 Z10.001 
G0 Y3.851 Z8.001 
G1 X12.487 Y3.851 Z4.999 
G1 X12.512 Y3.851 Z4.999 
G0 Z10.001 
G0 Y3.853 Z10.001 
G0 Y3.853 Z8.001 
G1 X12.512 Y3.853 Z4.999 
G1 X12.487 Y3.853 Z4.999 
G0 Z10.001 
G0 Y3.856 Z10.001 
G0 Y3.856 Z8.001 
G1 X12.487 Y3.856 Z4.999 
G1 X12.512 Y3.856 Z4.999 
G0 Z10.001 
G0 Y3.858 Z10.001 
G0 Y3.858 Z8.001 
G1 X12.512 Y3.858 Z4.999 
G1 X12.487 Y3.858 Z4.999 
G0 Z10.001 
G0 Y3.861 Z10.001 
G0 Y3.861 Z8.001 
G1 X12.487 Y3.861 Z4.999 
G1 X12.512 Y3.861 Z4.999 
G0 Z10.001 
G0 Y3.863 Z10.001 
G0 Y3.863 Z8.001 
G1 X12.512 Y3.863 Z4.999 
G1 X12.487 Y3.863 Z4.999 
G0 Z10.001 
G0 Y3.866 Z10.001 
G0 Y3.866 Z8.001 
G1 X12.487 Y3.866 Z4.999 
G1 X12.512 Y3.866 Z4.999 
G0 Z10.001 
G0 Y3.868 Z10.001 
G0 Y3.868 Z8.001 
G1 X12.512 Y3.868 Z4.999 
G1 X12.487 Y3.868 Z4.999 
G0 Z10.001 
G0 Y3.871 Z10.001 
G0 Y3.871 Z8.001 
G1 X12.487 Y3.871 Z4.999 
G1 X12.512 Y3.871 Z4.999 
G0 Z10.001 
G0 Y3.873 Z10.001 
G0 Y3.873 Z8.001 
G1 X12.512 Y3.873 Z4.999 
G1 X12.487 Y3.873 Z4.999 
G0 Z10.001 
G0 Y3.876 Z10.001 
G0 Y3.876 Z8.001 
G1 X12.487 Y3.876 Z4.999 
G1 X12.512 Y3.876 Z4.999 
G0 Z10.001 
G0 Y3.878 Z10.001 
G0 Y3.878 Z8.001 
G1 X12.512 Y3.878 Z4.999 
G1 X12.487 Y3.878 Z4.999 
G0 Z10.001 
G0 Y3.881 Z10.001 
G0 Y3.881 Z8.001 
G1 X12.487 Y3.881 Z4.999 
G1 X12.512 Y3.881 Z4.999 
G0 Z10.001 
G0 Y3.883 Z10.001 
G0 Y3.883 Z8.001 
G1 X12.512 Y3.883 Z4.999 
G1 X12.487 Y3.883 Z4.999 
G0 Z10.001 
G0 Y3.886 Z10.001 
G0 Y3.886 Z8.001 
G1 X12.487 Y3.886 Z4.999 
G1 X12.512 Y3.886 Z4.999 
G0 Z10.001 
G0 Y3.888 Z10.001 
G0 Y3.888 Z8.001 
G1 X12.512 Y3.888 Z4.999 
G1 X12.487 Y3.888 Z4.999 
G0 Z10.001 
G0 Y3.891 Z10.001 
G0 Y3.891 Z8.001 
G1 X12.487 Y3.891 Z4.999 
G1 X12.512 Y3.891 Z4.999 
G0 Z10.001 
G0 Y3.893 Z10.001 
G0 Y3.893 Z8.001 
G1 X12.512 Y3.893 Z4.999 
G1 X12.487 Y3.893 Z4.999 
G0 Z10.001 
G0 Y3.896 Z10.001 
G0 Y3.896 Z8.001 
G1 X12.487 Y3.896 Z4.999 
G1 X12.512 Y3.896 Z4.999 
G0 Z10.001 
G0 Y3.898 Z10.001 
G0 Y3.898 Z8.001 
G1 X12.512 Y3.898 Z4.999 
G1 X12.487 Y3.898 Z4.999 
G0 Z10.001 
G0 Y3.901 Z10.001 
G0 Y3.901 Z8.001 
G1 X12.487 Y3.901 Z4.999 
G1 X12.512 Y3.901 Z4.999 
G0 Z10.001 
G0 Y3.903 Z10.001 
G0 Y3.903 Z8.001 
G1 X12.512 Y3.903 Z4.999 
G1 X12.487 Y3.903 Z4.999 
G0 Z10.001 
G0 Y3.906 Z10.001 
G0 Y3.906 Z8.001 
G1 X12.487 Y3.906 Z4.999 
G1 X12.512 Y3.906 Z4.999 
G0 Z10.001 
G0 Y3.908 Z10.001 
G0 Y3.908 Z8.001 
G1 X12.512 Y3.908 Z4.999 
G1 X12.487 Y3.908 Z4.999 
G0 Z10.001 
G0 Y3.911 Z10.001 
G0 Y3.911 Z8.001 
G1 X12.487 Y3.911 Z4.999 
G1 X12.512 Y3.911 Z4.999 
G0 Z10.001 
G0 Y3.913 Z10.001 
G0 Y3.913 Z8.001 
G1 X12.512 Y3.913 Z4.999 
G1 X12.487 Y3.913 Z4.999 
G0 Z10.001 
G0 Y3.916 Z10.001 
G0 Y3.916 Z8.001 
G1 X12.487 Y3.916 Z4.999 
G1 X12.512 Y3.916 Z4.999 
G0 Z10.001 
G0 Y3.918 Z10.001 
G0 Y3.918 Z8.001 
G1 X12.512 Y3.918 Z4.999 
G1 X12.487 Y3.918 Z4.999 
G0 Z10.001 
G0 Y3.921 Z10.001 
G0 Y3.921 Z8.001 
G1 X12.487 Y3.921 Z4.999 
G1 X12.512 Y3.921 Z4.999 
G0 Z10.001 
G0 Y3.923 Z10.001 
G0 Y3.923 Z8.001 
G1 X12.512 Y3.923 Z4.999 
G1 X12.487 Y3.923 Z4.999 
G0 Z10.001 
G0 Y3.926 Z10.001 
G0 Y3.926 Z8.001 
G1 X12.487 Y3.926 Z4.999 
G1 X12.512 Y3.926 Z4.999 
G0 Z10.001 
G0 Y3.928 Z10.001 
G0 Y3.928 Z8.001 
G1 X12.512 Y3.928 Z4.999 
G1 X12.487 Y3.928 Z4.999 
G0 Z10.001 
G0 Y3.931 Z10.001 
G0 Y3.931 Z8.001 
G1 X12.487 Y3.931 Z4.999 
G1 X12.512 Y3.931 Z4.999 
G0 Z10.001 
G0 Y3.933 Z10.001 
G0 Y3.933 Z8.001 
G1 X12.512 Y3.933 Z4.999 
G1 X12.487 Y3.933 Z4.999 
G0 Z10.001 
G0 Y3.936 Z10.001 
G0 Y3.936 Z8.001 
G1 X12.487 Y3.936 Z4.999 
G1 X12.512 Y3.936 Z4.999 
G0 Z10.001 
G0 Y3.938 Z10.001 
G0 Y3.938 Z8.001 
G1 X12.512 Y3.938 Z4.999 
G1 X12.487 Y3.938 Z4.999 
G0 Z10.001 
G0 Y3.941 Z10.001 
G0 Y3.941 Z8.001 
G1 X12.487 Y3.941 Z4.999 
G1 X12.512 Y3.941 Z4.999 
G0 Z10.001 
G0 Y3.943 Z10.001 
G0 Y3.943 Z8.001 
G1 X12.512 Y3.943 Z4.999 
G1 X12.487 Y3.943 Z4.999 
G0 Z10.001 
G0 Y3.946 Z10.001 
G0 Y3.946 Z8.001 
G1 X12.487 Y3.946 Z4.999 
G1 X12.512 Y3.946 Z4.999 
G0 Z10.001 
G0 Y3.948 Z10.001 
G0 Y3.948 Z8.001 
G1 X12.512 Y3.948 Z4.999 
G1 X12.487 Y3.948 Z4.999 
G0 Z10.001 
G0 Y3.951 Z10.001 
G0 Y3.951 Z8.001 
G1 X12.487 Y3.951 Z4.999 
G1 X12.512 Y3.951 Z4.999 
G0 Z10.001 
G0 Y3.953 Z10.001 
G0 Y3.953 Z8.001 
G1 X12.512 Y3.953 Z4.999 
G1 X12.487 Y3.953 Z4.999 
G0 Z10.001 
G0 Y3.956 Z10.001 
G0 Y3.956 Z8.001 
G1 X12.487 Y3.956 Z4.999 
G1 X12.512 Y3.956 Z4.999 
G0 Z10.001 
G0 Y3.958 Z10.001 
G0 Y3.958 Z8.001 
G1 X12.512 Y3.958 Z4.999 
G1 X12.487 Y3.958 Z4.999 
G0 Z10.001 
G0 Y3.961 Z10.001 
G0 Y3.961 Z8.001 
G1 X12.487 Y3.961 Z4.999 
G1 X12.512 Y3.961 Z4.999 
G0 Z10.001 
G0 Y3.963 Z10.001 
G0 Y3.963 Z8.001 
G1 X12.512 Y3.963 Z4.999 
G1 X12.487 Y3.963 Z4.999 
G0 Z10.001 
G0 Y3.966 Z10.001 
G0 Y3.966 Z8.001 
G1 X12.487 Y3.966 Z4.999 
G1 X12.512 Y3.966 Z4.999 
G0 Z10.001 
G0 Y3.968 Z10.001 
G0 Y3.968 Z8.001 
G1 X12.512 Y3.968 Z4.999 
G1 X12.487 Y3.968 Z4.999 
G0 Z10.001 
G0 Y3.971 Z10.001 
G0 Y3.971 Z8.001 
G1 X12.487 Y3.971 Z4.999 
G1 X12.512 Y3.971 Z4.999 
G0 Z10.001 
G0 Y3.973 Z10.001 
G0 Y3.973 Z8.001 
G1 X12.512 Y3.973 Z4.999 
G1 X12.487 Y3.973 Z4.999 
G0 Z10.001 
G0 Y3.976 Z10.001 
G0 Y3.976 Z8.001 
G1 X12.487 Y3.976 Z4.999 
G1 X12.512 Y3.976 Z4.999 
G0 Z10.001 
G0 Y3.978 Z10.001 
G0 Y3.978 Z8.001 
G1 X12.512 Y3.978 Z4.999 
G1 X12.487 Y3.978 Z4.999 
G0 Z10.001 
G0 Y3.981 Z10.001 
G0 Y3.981 Z8.001 
G1 X12.487 Y3.981 Z4.999 
G1 X12.512 Y3.981 Z4.999 
G0 Z10.001 
G0 Y3.983 Z10.001 
G0 Y3.983 Z8.001 
G1 X12.512 Y3.983 Z4.999 
G1 X12.487 Y3.983 Z4.999 
G0 Z10.001 
G0 Y3.986 Z10.001 
G0 Y3.986 Z8.001 
G1 X12.487 Y3.986 Z4.999 
G1 X12.512 Y3.986 Z4.999 
G0 Z10.001 
G0 Y3.988 Z10.001 
G0 Y3.988 Z8.001 
G1 X12.512 Y3.988 Z4.999 
G1 X12.487 Y3.988 Z4.999 
G0 Z10.001 
G0 Y3.991 Z10.001 
G0 Y3.991 Z8.001 
G1 X12.487 Y3.991 Z4.999 
G1 X12.512 Y3.991 Z4.999 
G0 Z10.001 
G0 Y3.993 Z10.001 
G0 Y3.993 Z8.001 
G1 X12.512 Y3.993 Z4.999 
G1 X12.487 Y3.993 Z4.999 
G0 Z10.001 
G0 Y3.996 Z10.001 
G0 Y3.996 Z8.001 
G1 X12.487 Y3.996 Z4.999 
G1 X12.512 Y3.996 Z4.999 
G0 Z10.001 
G0 Y3.998 Z10.001 
G0 Y3.998 Z8.001 
G1 X12.512 Y3.998 Z4.999 
G1 X12.487 Y3.998 Z4.999 
G0 Z10.001 
G0 Y4.001 Z10.001 
G0 Y4.001 Z8.001 
G1 X12.487 Y4.001 Z4.999 
G1 X12.512 Y4.001 Z4.999 
G0 Z10.001 
G0 Y4.003 Z10.001 
G0 Y4.003 Z8.001 
G1 X12.512 Y4.003 Z4.999 
G1 X12.487 Y4.003 Z4.999 
G0 Z10.001 
G0 Y4.006 Z10.001 
G0 Y4.006 Z8.001 
G1 X12.487 Y4.006 Z4.999 
G1 X12.512 Y4.006 Z4.999 
G0 Z10.001 
G0 Y4.008 Z10.001 
G0 Y4.008 Z8.001 
G1 X12.512 Y4.008 Z4.999 
G1 X12.487 Y4.008 Z4.999 
G0 Z10.001 
G0 Y4.011 Z10.001 
G0 Y4.011 Z8.001 
G1 X12.487 Y4.011 Z4.999 
G1 X12.512 Y4.011 Z4.999 
G0 Z10.001 
G0 Y4.013 Z10.001 
G0 Y4.013 Z8.001 
G1 X12.512 Y4.013 Z4.999 
G1 X12.487 Y4.013 Z4.999 
G0 Z10.001 
G0 Y4.016 Z10.001 
G0 Y4.016 Z8.001 
G1 X12.487 Y4.016 Z4.999 
G1 X12.512 Y4.016 Z4.999 
G0 Z10.001 
G0 Y4.018 Z10.001 
G0 Y4.018 Z8.001 
G1 X12.512 Y4.018 Z4.999 
G1 X12.487 Y4.018 Z4.999 
G0 Z10.001 
G0 Y4.021 Z10.001 
G0 Y4.021 Z8.001 
G1 X12.487 Y4.021 Z4.999 
G1 X12.512 Y4.021 Z4.999 
G0 Z10.001 
G0 Y4.023 Z10.001 
G0 Y4.023 Z8.001 
G1 X12.512 Y4.023 Z4.999 
G1 X12.487 Y4.023 Z4.999 
G0 Z10.001 
G0 Y4.026 Z10.001 
G0 Y4.026 Z8.001 
G1 X12.487 Y4.026 Z4.999 
G1 X12.512 Y4.026 Z4.999 
G0 Z10.001 
G0 Y4.028 Z10.001 
G0 Y4.028 Z8.001 
G1 X12.512 Y4.028 Z4.999 
G1 X12.487 Y4.028 Z4.999 
G0 Z10.001 
G0 Y4.031 Z10.001 
G0 Y4.031 Z8.001 
G1 X12.487 Y4.031 Z4.999 
G1 X12.512 Y4.031 Z4.999 
G0 Z10.001 
G0 Y4.033 Z10.001 
G0 Y4.033 Z8.001 
G1 X12.512 Y4.033 Z4.999 
G1 X12.487 Y4.033 Z4.999 
G0 Z10.001 
G0 Y4.036 Z10.001 
G0 Y4.036 Z8.001 
G1 X12.487 Y4.036 Z4.999 
G1 X12.512 Y4.036 Z4.999 
G0 Z10.001 
G0 Y4.038 Z10.001 
G0 Y4.038 Z8.001 
G1 X12.512 Y4.038 Z4.999 
G1 X12.487 Y4.038 Z4.999 
G0 Z10.001 
G0 Y4.041 Z10.001 
G0 Y4.041 Z8.001 
G1 X12.487 Y4.041 Z4.999 
G1 X12.512 Y4.041 Z4.999 
G0 Z10.001 
G0 Y4.043 Z10.001 
G0 Y4.043 Z8.001 
G1 X12.512 Y4.043 Z4.999 
G1 X12.487 Y4.043 Z4.999 
G0 Z10.001 
G0 Y4.046 Z10.001 
G0 Y4.046 Z8.001 
G1 X12.487 Y4.046 Z4.999 
G1 X12.512 Y4.046 Z4.999 
G0 Z10.001 
G0 Y4.048 Z10.001 
G0 Y4.048 Z8.001 
G1 X12.512 Y4.048 Z4.999 
G1 X12.487 Y4.048 Z4.999 
G0 Z10.001 
G0 Y4.051 Z10.001 
G0 Y4.051 Z8.001 
G1 X12.487 Y4.051 Z4.999 
G1 X12.512 Y4.051 Z4.999 
G0 Z10.001 
G0 Y4.053 Z10.001 
G0 Y4.053 Z8.001 
G1 X12.512 Y4.053 Z4.999 
G1 X12.487 Y4.053 Z4.999 
G0 Z10.001 
G0 Y4.056 Z10.001 
G0 Y4.056 Z8.001 
G1 X12.487 Y4.056 Z4.999 
G1 X12.512 Y4.056 Z4.999 
G0 Z10.001 
G0 Y4.058 Z10.001 
G0 Y4.058 Z8.001 
G1 X12.512 Y4.058 Z4.999 
G1 X12.487 Y4.058 Z4.999 
G0 Z10.001 
G0 Y4.061 Z10.001 
G0 Y4.061 Z8.001 
G1 X12.487 Y4.061 Z4.999 
G1 X12.512 Y4.061 Z4.999 
G0 Z10.001 
G0 Y4.063 Z10.001 
G0 Y4.063 Z8.001 
G1 X12.512 Y4.063 Z4.999 
G1 X12.487 Y4.063 Z4.999 
G0 Z10.001 
G0 Y4.066 Z10.001 
G0 Y4.066 Z8.001 
G1 X12.487 Y4.066 Z4.999 
G1 X12.512 Y4.066 Z4.999 
G0 Z10.001 
G0 Y4.068 Z10.001 
G0 Y4.068 Z8.001 
G1 X12.512 Y4.068 Z4.999 
G1 X12.487 Y4.068 Z4.999 
G0 Z10.001 
G0 Y4.071 Z10.001 
G0 Y4.071 Z8.001 
G1 X12.487 Y4.071 Z4.999 
G1 X12.512 Y4.071 Z4.999 
G0 Z10.001 
G0 Y4.073 Z10.001 
G0 Y4.073 Z8.001 
G1 X12.512 Y4.073 Z4.999 
G1 X12.487 Y4.073 Z4.999 
G0 Z10.001 
G0 Y4.076 Z10.001 
G0 Y4.076 Z8.001 
G1 X12.487 Y4.076 Z4.999 
G1 X12.512 Y4.076 Z4.999 
G0 Z10.001 
G0 Y4.078 Z10.001 
G0 Y4.078 Z8.001 
G1 X12.512 Y4.078 Z4.999 
G1 X12.487 Y4.078 Z4.999 
G0 Z10.001 
G0 Y4.081 Z10.001 
G0 Y4.081 Z8.001 
G1 X12.487 Y4.081 Z4.999 
G1 X12.512 Y4.081 Z4.999 
G0 Z10.001 
G0 Y4.083 Z10.001 
G0 Y4.083 Z8.001 
G1 X12.512 Y4.083 Z4.999 
G1 X12.487 Y4.083 Z4.999 
G0 Z10.001 
G0 Y4.086 Z10.001 
G0 Y4.086 Z8.001 
G1 X12.487 Y4.086 Z4.999 
G1 X12.512 Y4.086 Z4.999 
G0 Z10.001 
G0 Y4.088 Z10.001 
G0 Y4.088 Z8.001 
G1 X12.512 Y4.088 Z4.999 
G1 X12.487 Y4.088 Z4.999 
G0 Z10.001 
G0 Y4.091 Z10.001 
G0 Y4.091 Z8.001 
G1 X12.487 Y4.091 Z4.999 
G1 X12.512 Y4.091 Z4.999 
G0 Z10.001 
G0 Y4.093 Z10.001 
G0 Y4.093 Z8.001 
G1 X12.512 Y4.093 Z4.999 
G1 X12.487 Y4.093 Z4.999 
G0 Z10.001 
G0 Y4.096 Z10.001 
G0 Y4.096 Z8.001 
G1 X12.487 Y4.096 Z4.999 
G1 X12.512 Y4.096 Z4.999 
G0 Z10.001 
G0 Y4.098 Z10.001 
G0 Y4.098 Z8.001 
G1 X12.512 Y4.098 Z4.999 
G1 X12.487 Y4.098 Z4.999 
G0 Z10.001 
G0 Y4.101 Z10.001 
G0 Y4.101 Z8.001 
G1 X12.487 Y4.101 Z4.999 
G1 X12.512 Y4.101 Z4.999 
G0 Z10.001 
G0 Y4.103 Z10.001 
G0 Y4.103 Z8.001 
G1 X12.512 Y4.103 Z4.999 
G1 X12.487 Y4.103 Z4.999 
G0 Z10.001 
G0 Y4.106 Z10.001 
G0 Y4.106 Z8.001 
G1 X12.487 Y4.106 Z4.999 
G1 X12.512 Y4.106 Z4.999 
G0 Z10.001 
G0 Y4.108 Z10.001 
G0 Y4.108 Z8.001 
G1 X12.512 Y4.108 Z4.999 
G1 X12.487 Y4.108 Z4.999 
G0 Z10.001 
G0 Y4.111 Z10.001 
G0 Y4.111 Z8.001 
G1 X12.487 Y4.111 Z4.999 
G1 X12.512 Y4.111 Z4.999 
G0 Z10.001 
G0 Y4.113 Z10.001 
G0 Y4.113 Z8.001 
G1 X12.512 Y4.113 Z4.999 
G1 X12.487 Y4.113 Z4.999 
G0 Z10.001 
G0 Y4.116 Z10.001 
G0 Y4.116 Z8.001 
G1 X12.487 Y4.116 Z4.999 
G1 X12.512 Y4.116 Z4.999 
G0 Z10.001 
G0 Y4.118 Z10.001 
G0 Y4.118 Z8.001 
G1 X12.512 Y4.118 Z4.999 
G1 X12.487 Y4.118 Z4.999 
G0 Z10.001 
G0 Y4.121 Z10.001 
G0 Y4.121 Z8.001 
G1 X12.487 Y4.121 Z4.999 
G1 X12.512 Y4.121 Z4.999 
G0 Z10.001 
G0 Y4.123 Z10.001 
G0 Y4.123 Z8.001 
G1 X12.512 Y4.123 Z4.999 
G1 X12.487 Y4.123 Z4.999 
G0 Z10.001 
G0 Y4.126 Z10.001 
G0 Y4.126 Z8.001 
G1 X12.487 Y4.126 Z4.999 
G1 X12.512 Y4.126 Z4.999 
G0 Z10.001 
G0 Y4.128 Z10.001 
G0 Y4.128 Z8.001 
G1 X12.512 Y4.128 Z4.999 
G1 X12.487 Y4.128 Z4.999 
G0 Z10.001 
G0 Y4.131 Z10.001 
G0 Y4.131 Z8.001 
G1 X12.487 Y4.131 Z4.999 
G1 X12.512 Y4.131 Z4.999 
G0 Z10.001 
G0 Y4.133 Z10.001 
G0 Y4.133 Z8.001 
G1 X12.512 Y4.133 Z4.999 
G1 X12.487 Y4.133 Z4.999 
G0 Z10.001 
G0 Y4.136 Z10.001 
G0 Y4.136 Z8.001 
G1 X12.487 Y4.136 Z4.999 
G1 X12.512 Y4.136 Z4.999 
G0 Z10.001 
G0 Y4.138 Z10.001 
G0 Y4.138 Z8.001 
G1 X12.512 Y4.138 Z4.999 
G1 X12.487 Y4.138 Z4.999 
G0 Z10.001 
G0 Y4.141 Z10.001 
G0 Y4.141 Z8.001 
G1 X12.487 Y4.141 Z4.999 
G1 X12.512 Y4.141 Z4.999 
G0 Z10.001 
G0 Y4.143 Z10.001 
G0 Y4.143 Z8.001 
G1 X12.512 Y4.143 Z4.999 
G1 X12.487 Y4.143 Z4.999 
G0 Z10.001 
G0 Y4.146 Z10.001 
G0 Y4.146 Z8.001 
G1 X12.487 Y4.146 Z4.999 
G1 X12.512 Y4.146 Z4.999 
G0 Z10.001 
G0 Y4.148 Z10.001 
G0 Y4.148 Z8.001 
G1 X12.512 Y4.148 Z4.999 
G1 X12.487 Y4.148 Z4.999 
G0 Z10.001 
G0 Y4.151 Z10.001 
G0 Y4.151 Z8.001 
G1 X12.487 Y4.151 Z4.999 
G1 X12.512 Y4.151 Z4.999 
G0 Z10.001 
G0 Y4.153 Z10.001 
G0 Y4.153 Z8.001 
G1 X12.512 Y4.153 Z4.999 
G1 X12.487 Y4.153 Z4.999 
G0 Z10.001 
G0 Y4.156 Z10.001 
G0 Y4.156 Z8.001 
G1 X12.487 Y4.156 Z4.999 
G1 X12.512 Y4.156 Z4.999 
G0 Z10.001 
G0 Y4.158 Z10.001 
G0 Y4.158 Z8.001 
G1 X12.512 Y4.158 Z4.999 
G1 X12.487 Y4.158 Z4.999 
G0 Z10.001 
G0 Y4.161 Z10.001 
G0 Y4.161 Z8.001 
G1 X12.487 Y4.161 Z4.999 
G1 X12.512 Y4.161 Z4.999 
G0 Z10.001 
G0 Y4.163 Z10.001 
G0 Y4.163 Z8.001 
G1 X12.512 Y4.163 Z4.999 
G1 X12.487 Y4.163 Z4.999 
G0 Z10.001 
G0 Y4.166 Z10.001 
G0 Y4.166 Z8.001 
G1 X12.487 Y4.166 Z4.999 
G1 X12.512 Y4.166 Z4.999 
G0 Z10.001 
G0 Y4.168 Z10.001 
G0 Y4.168 Z8.001 
G1 X12.512 Y4.168 Z4.999 
G1 X12.487 Y4.168 Z4.999 
G0 Z10.001 
G0 Y4.171 Z10.001 
G0 Y4.171 Z8.001 
G1 X12.487 Y4.171 Z4.999 
G1 X12.512 Y4.171 Z4.999 
G0 Z10.001 
G0 Y4.173 Z10.001 
G0 Y4.173 Z8.001 
G1 X12.512 Y4.173 Z4.999 
G1 X12.487 Y4.173 Z4.999 
G0 Z10.001 
G0 Y4.176 Z10.001 
G0 Y4.176 Z8.001 
G1 X12.487 Y4.176 Z4.999 
G1 X12.512 Y4.176 Z4.999 
G0 Z10.001 
G0 Y4.178 Z10.001 
G0 Y4.178 Z8.001 
G1 X12.512 Y4.178 Z4.999 
G1 X12.487 Y4.178 Z4.999 
G0 Z10.001 
G0 Y4.181 Z10.001 
G0 Y4.181 Z8.001 
G1 X12.487 Y4.181 Z4.999 
G1 X12.512 Y4.181 Z4.999 
G0 Z10.001 
G0 Y4.183 Z10.001 
G0 Y4.183 Z8.001 
G1 X12.512 Y4.183 Z4.999 
G1 X12.487 Y4.183 Z4.999 
G0 Z10.001 
G0 Y4.186 Z10.001 
G0 Y4.186 Z8.001 
G1 X12.487 Y4.186 Z4.999 
G1 X12.512 Y4.186 Z4.999 
G0 Z10.001 
G0 Y4.188 Z10.001 
G0 Y4.188 Z8.001 
G1 X12.512 Y4.188 Z4.999 
G1 X12.487 Y4.188 Z4.999 
G0 Z10.001 
G0 Y4.191 Z10.001 
G0 Y4.191 Z8.001 
G1 X12.487 Y4.191 Z4.999 
G1 X12.512 Y4.191 Z4.999 
G0 Z10.001 
G0 Y4.193 Z10.001 
G0 Y4.193 Z8.001 
G1 X12.512 Y4.193 Z4.999 
G1 X12.487 Y4.193 Z4.999 
G0 Z10.001 
G0 Y4.196 Z10.001 
G0 Y4.196 Z8.001 
G1 X12.487 Y4.196 Z4.999 
G1 X12.512 Y4.196 Z4.999 
G0 Z10.001 
G0 Y4.198 Z10.001 
G0 Y4.198 Z8.001 
G1 X12.512 Y4.198 Z4.999 
G1 X12.487 Y4.198 Z4.999 
G0 Z10.001 
G0 Y4.201 Z10.001 
G0 Y4.201 Z8.001 
G1 X12.487 Y4.201 Z4.999 
G1 X12.512 Y4.201 Z4.999 
G0 Z10.001 
G0 Y4.203 Z10.001 
G0 Y4.203 Z8.001 
G1 X12.512 Y4.203 Z4.999 
G1 X12.487 Y4.203 Z4.999 
G0 Z10.001 
G0 Y4.206 Z10.001 
G0 Y4.206 Z8.001 
G1 X12.487 Y4.206 Z4.999 
G1 X12.512 Y4.206 Z4.999 
G0 Z10.001 
G0 Y4.208 Z10.001 
G0 Y4.208 Z8.001 
G1 X12.512 Y4.208 Z4.999 
G1 X12.487 Y4.208 Z4.999 
G0 Z10.001 
G0 Y4.211 Z10.001 
G0 Y4.211 Z8.001 
G1 X12.487 Y4.211 Z4.999 
G1 X12.512 Y4.211 Z4.999 
G0 Z10.001 
G0 Y4.213 Z10.001 
G0 Y4.213 Z8.001 
G1 X12.512 Y4.213 Z4.999 
G1 X12.487 Y4.213 Z4.999 
G0 Z10.001 
G0 Y4.216 Z10.001 
G0 Y4.216 Z8.001 
G1 X12.487 Y4.216 Z4.999 
G1 X12.512 Y4.216 Z4.999 
G0 Z10.001 
G0 Y4.218 Z10.001 
G0 Y4.218 Z8.001 
G1 X12.512 Y4.218 Z4.999 
G1 X12.487 Y4.218 Z4.999 
G0 Z10.001 
G0 Y4.221 Z10.001 
G0 Y4.221 Z8.001 
G1 X12.487 Y4.221 Z4.999 
G1 X12.512 Y4.221 Z4.999 
G0 Z10.001 
G0 Y4.223 Z10.001 
G0 Y4.223 Z8.001 
G1 X12.512 Y4.223 Z4.999 
G1 X12.487 Y4.223 Z4.999 
G0 Z10.001 
G0 Y4.226 Z10.001 
G0 Y4.226 Z8.001 
G1 X12.487 Y4.226 Z4.999 
G1 X12.512 Y4.226 Z4.999 
G0 Z10.001 
G0 Y4.228 Z10.001 
G0 Y4.228 Z8.001 
G1 X12.512 Y4.228 Z4.999 
G1 X12.487 Y4.228 Z4.999 
G0 Z10.001 
G0 Y4.231 Z10.001 
G0 Y4.231 Z8.001 
G1 X12.487 Y4.231 Z4.999 
G1 X12.512 Y4.231 Z4.999 
G0 Z10.001 
G0 Y4.233 Z10.001 
G0 Y4.233 Z8.001 
G1 X12.512 Y4.233 Z4.999 
G1 X12.487 Y4.233 Z4.999 
G0 Z10.001 
G0 Y4.236 Z10.001 
G0 Y4.236 Z8.001 
G1 X12.487 Y4.236 Z4.999 
G1 X12.512 Y4.236 Z4.999 
G0 Z10.001 
G0 Y4.238 Z10.001 
G0 Y4.238 Z8.001 
G1 X12.512 Y4.238 Z4.999 
G1 X12.487 Y4.238 Z4.999 
G0 Z10.001 
G0 Y4.241 Z10.001 
G0 Y4.241 Z8.001 
G1 X12.487 Y4.241 Z4.999 
G1 X12.512 Y4.241 Z4.999 
G0 Z10.001 
G0 Y4.243 Z10.001 
G0 Y4.243 Z8.001 
G1 X12.512 Y4.243 Z4.999 
G1 X12.487 Y4.243 Z4.999 
G0 Z10.001 
G0 Y4.246 Z10.001 
G0 Y4.246 Z8.001 
G1 X12.487 Y4.246 Z4.999 
G1 X12.512 Y4.246 Z4.999 
G0 Z10.001 
G0 Y4.248 Z10.001 
G0 Y4.248 Z8.001 
G1 X12.512 Y4.248 Z4.999 
G1 X12.487 Y4.248 Z4.999 
G0 Z10.001 
G0 Y4.251 Z10.001 
G0 Y4.251 Z8.001 
G1 X12.487 Y4.251 Z4.999 
G1 X12.512 Y4.251 Z4.999 
G0 Z10.001 
G0 Y4.253 Z10.001 
G0 Y4.253 Z8.001 
G1 X12.512 Y4.253 Z4.999 
G1 X12.487 Y4.253 Z4.999 
G0 Z10.001 
G0 Y4.256 Z10.001 
G0 Y4.256 Z8.001 
G1 X12.487 Y4.256 Z4.999 
G1 X12.512 Y4.256 Z4.999 
G0 Z10.001 
G0 Y4.258 Z10.001 
G0 Y4.258 Z8.001 
G1 X12.512 Y4.258 Z4.999 
G1 X12.487 Y4.258 Z4.999 
G0 Z10.001 
G0 Y4.261 Z10.001 
G0 Y4.261 Z8.001 
G1 X12.487 Y4.261 Z4.999 
G1 X12.512 Y4.261 Z4.999 
G0 Z10.001 
G0 Y4.263 Z10.001 
G0 Y4.263 Z8.001 
G1 X12.512 Y4.263 Z4.999 
G1 X12.487 Y4.263 Z4.999 
G0 Z10.001 
G0 Y4.266 Z10.001 
G0 Y4.266 Z8.001 
G1 X12.487 Y4.266 Z4.999 
G1 X12.512 Y4.266 Z4.999 
G0 Z10.001 
G0 Y4.268 Z10.001 
G0 Y4.268 Z8.001 
G1 X12.512 Y4.268 Z4.999 
G1 X12.487 Y4.268 Z4.999 
G0 Z10.001 
G0 Y4.271 Z10.001 
G0 Y4.271 Z8.001 
G1 X12.487 Y4.271 Z4.999 
G1 X12.512 Y4.271 Z4.999 
G0 Z10.001 
G0 Y4.273 Z10.001 
G0 Y4.273 Z8.001 
G1 X12.512 Y4.273 Z4.999 
G1 X12.487 Y4.273 Z4.999 
G0 Z10.001 
G0 Y4.276 Z10.001 
G0 Y4.276 Z8.001 
G1 X12.487 Y4.276 Z4.999 
G1 X12.512 Y4.276 Z4.999 
G0 Z10.001 
G0 Y4.278 Z10.001 
G0 Y4.278 Z8.001 
G1 X12.512 Y4.278 Z4.999 
G1 X12.487 Y4.278 Z4.999 
G0 Z10.001 
G0 Y4.281 Z10.001 
G0 Y4.281 Z8.001 
G1 X12.487 Y4.281 Z4.999 
G1 X12.512 Y4.281 Z4.999 
G0 Z10.001 
G0 Y4.283 Z10.001 
G0 Y4.283 Z8.001 
G1 X12.512 Y4.283 Z4.999 
G1 X12.487 Y4.283 Z4.999 
G0 Z10.001 
G0 Y4.286 Z10.001 
G0 Y4.286 Z8.001 
G1 X12.487 Y4.286 Z4.999 
G1 X12.512 Y4.286 Z4.999 
G0 Z10.001 
G0 Y4.288 Z10.001 
G0 Y4.288 Z8.001 
G1 X12.512 Y4.288 Z4.999 
G1 X12.487 Y4.288 Z4.999 
G0 Z10.001 
G0 Y4.291 Z10.001 
G0 Y4.291 Z8.001 
G1 X12.487 Y4.291 Z4.999 
G1 X12.512 Y4.291 Z4.999 
G0 Z10.001 
G0 Y4.293 Z10.001 
G0 Y4.293 Z8.001 
G1 X12.512 Y4.293 Z4.999 
G1 X12.487 Y4.293 Z4.999 
G0 Z10.001 
G0 Y4.296 Z10.001 
G0 Y4.296 Z8.001 
G1 X12.487 Y4.296 Z4.999 
G1 X12.512 Y4.296 Z4.999 
G0 Z10.001 
G0 Y4.298 Z10.001 
G0 Y4.298 Z8.001 
G1 X12.512 Y4.298 Z4.999 
G1 X12.487 Y4.298 Z4.999 
G0 Z10.001 
G0 Y4.301 Z10.001 
G0 Y4.301 Z8.001 
G1 X12.487 Y4.301 Z4.999 
G1 X12.512 Y4.301 Z4.999 
G0 Z10.001 
G0 Y4.303 Z10.001 
G0 Y4.303 Z8.001 
G1 X12.512 Y4.303 Z4.999 
G1 X12.487 Y4.303 Z4.999 
G0 Z10.001 
G0 Y4.306 Z10.001 
G0 Y4.306 Z8.001 
G1 X12.487 Y4.306 Z4.999 
G1 X12.512 Y4.306 Z4.999 
G0 Z10.001 
G0 Y4.308 Z10.001 
G0 Y4.308 Z8.001 
G1 X12.512 Y4.308 Z4.999 
G1 X12.487 Y4.308 Z4.999 
G0 Z10.001 
G0 Y4.311 Z10.001 
G0 Y4.311 Z8.001 
G1 X12.487 Y4.311 Z4.999 
G1 X12.512 Y4.311 Z4.999 
G0 Z10.001 
G0 Y4.313 Z10.001 
G0 Y4.313 Z8.001 
G1 X12.512 Y4.313 Z4.999 
G1 X12.487 Y4.313 Z4.999 
G0 Z10.001 
G0 Y4.316 Z10.001 
G0 Y4.316 Z8.001 
G1 X12.487 Y4.316 Z4.999 
G1 X12.512 Y4.316 Z4.999 
G0 Z10.001 
G0 Y4.318 Z10.001 
G0 Y4.318 Z8.001 
G1 X12.512 Y4.318 Z4.999 
G1 X12.487 Y4.318 Z4.999 
G0 Z10.001 
G0 Y4.321 Z10.001 
G0 Y4.321 Z8.001 
G1 X12.487 Y4.321 Z4.999 
G1 X12.512 Y4.321 Z4.999 
G0 Z10.001 
G0 Y4.323 Z10.001 
G0 Y4.323 Z8.001 
G1 X12.512 Y4.323 Z4.999 
G1 X12.487 Y4.323 Z4.999 
G0 Z10.001 
G0 Y4.326 Z10.001 
G0 Y4.326 Z8.001 
G1 X12.487 Y4.326 Z4.999 
G1 X12.512 Y4.326 Z4.999 
G0 Z10.001 
G0 Y4.328 Z10.001 
G0 Y4.328 Z8.001 
G1 X12.512 Y4.328 Z4.999 
G1 X12.487 Y4.328 Z4.999 
G0 Z10.001 
G0 Y4.331 Z10.001 
G0 Y4.331 Z8.001 
G1 X12.487 Y4.331 Z4.999 
G1 X12.512 Y4.331 Z4.999 
G0 Z10.001 
G0 Y4.333 Z10.001 
G0 Y4.333 Z8.001 
G1 X12.512 Y4.333 Z4.999 
G1 X12.487 Y4.333 Z4.999 
G0 Z10.001 
G0 Y4.336 Z10.001 
G0 Y4.336 Z8.001 
G1 X12.487 Y4.336 Z4.999 
G1 X12.512 Y4.336 Z4.999 
G0 Z10.001 
G0 Y4.338 Z10.001 
G0 Y4.338 Z8.001 
G1 X12.512 Y4.338 Z4.999 
G1 X12.487 Y4.338 Z4.999 
G0 Z10.001 
G0 Y4.341 Z10.001 
G0 Y4.341 Z8.001 
G1 X12.487 Y4.341 Z4.999 
G1 X12.512 Y4.341 Z4.999 
G0 Z10.001 
G0 Y4.343 Z10.001 
G0 Y4.343 Z8.001 
G1 X12.512 Y4.343 Z4.999 
G1 X12.487 Y4.343 Z4.999 
G0 Z10.001 
G0 Y4.346 Z10.001 
G0 Y4.346 Z8.001 
G1 X12.487 Y4.346 Z4.999 
G1 X12.512 Y4.346 Z4.999 
G0 Z10.001 
G0 Y4.348 Z10.001 
G0 Y4.348 Z8.001 
G1 X12.512 Y4.348 Z4.999 
G1 X12.487 Y4.348 Z4.999 
G0 Z10.001 
G0 Y4.351 Z10.001 
G0 Y4.351 Z8.001 
G1 X12.487 Y4.351 Z4.999 
G1 X12.512 Y4.351 Z4.999 
G0 Z10.001 
G0 Y4.353 Z10.001 
G0 Y4.353 Z8.001 
G1 X12.512 Y4.353 Z4.999 
G1 X12.487 Y4.353 Z4.999 
G0 Z10.001 
G0 Y4.356 Z10.001 
G0 Y4.356 Z8.001 
G1 X12.487 Y4.356 Z4.999 
G1 X12.512 Y4.356 Z4.999 
G0 Z10.001 
G0 Y4.358 Z10.001 
G0 Y4.358 Z8.001 
G1 X12.512 Y4.358 Z4.999 
G1 X12.487 Y4.358 Z4.999 
G0 Z10.001 
G0 Y4.361 Z10.001 
G0 Y4.361 Z8.001 
G1 X12.487 Y4.361 Z4.999 
G1 X12.512 Y4.361 Z4.999 
G0 Z10.001 
G0 Y4.363 Z10.001 
G0 Y4.363 Z8.001 
G1 X12.512 Y4.363 Z4.999 
G1 X12.487 Y4.363 Z4.999 
G0 Z10.001 
G0 Y4.366 Z10.001 
G0 Y4.366 Z8.001 
G1 X12.487 Y4.366 Z4.999 
G1 X12.512 Y4.366 Z4.999 
G0 Z10.001 
G0 Y4.368 Z10.001 
G0 Y4.368 Z8.001 
G1 X12.512 Y4.368 Z4.999 
G1 X12.487 Y4.368 Z4.999 
G0 Z10.001 
G0 Y4.371 Z10.001 
G0 Y4.371 Z8.001 
G1 X12.487 Y4.371 Z4.999 
G1 X12.512 Y4.371 Z4.999 
G0 Z10.001 
G0 Y4.373 Z10.001 
G0 Y4.373 Z8.001 
G1 X12.512 Y4.373 Z4.999 
G1 X12.487 Y4.373 Z4.999 
G0 Z10.001 
G0 Y4.376 Z10.001 
G0 Y4.376 Z8.001 
G1 X12.487 Y4.376 Z4.999 
G1 X12.512 Y4.376 Z4.999 
G0 Z10.001 
G0 Y4.378 Z10.001 
G0 Y4.378 Z8.001 
G1 X12.512 Y4.378 Z4.999 
G1 X12.487 Y4.378 Z4.999 
G0 Z10.001 
G0 Y4.381 Z10.001 
G0 Y4.381 Z8.001 
G1 X12.487 Y4.381 Z4.999 
G1 X12.512 Y4.381 Z4.999 
G0 Z10.001 
G0 Y4.383 Z10.001 
G0 Y4.383 Z8.001 
G1 X12.512 Y4.383 Z4.999 
G1 X12.487 Y4.383 Z4.999 
G0 Z10.001 
G0 Y4.386 Z10.001 
G0 Y4.386 Z8.001 
G1 X12.487 Y4.386 Z4.999 
G1 X12.512 Y4.386 Z4.999 
G0 Z10.001 
G0 Y4.388 Z10.001 
G0 Y4.388 Z8.001 
G1 X12.512 Y4.388 Z4.999 
G1 X12.487 Y4.388 Z4.999 
G0 Z10.001 
G0 Y4.391 Z10.001 
G0 Y4.391 Z8.001 
G1 X12.487 Y4.391 Z4.999 
G1 X12.512 Y4.391 Z4.999 
G0 Z10.001 
G0 Y4.393 Z10.001 
G0 Y4.393 Z8.001 
G1 X12.512 Y4.393 Z4.999 
G1 X12.487 Y4.393 Z4.999 
G0 Z10.001 
G0 Y4.396 Z10.001 
G0 Y4.396 Z8.001 
G1 X12.487 Y4.396 Z4.999 
G1 X12.512 Y4.396 Z4.999 
G0 Z10.001 
G0 Y4.398 Z10.001 
G0 Y4.398 Z8.001 
G1 X12.512 Y4.398 Z4.999 
G1 X12.487 Y4.398 Z4.999 
G0 Z10.001 
G0 Y4.401 Z10.001 
G0 Y4.401 Z8.001 
G1 X12.487 Y4.401 Z4.999 
G1 X12.512 Y4.401 Z4.999 
G0 Z10.001 
G0 Y4.403 Z10.001 
G0 Y4.403 Z8.001 
G1 X12.512 Y4.403 Z4.999 
G1 X12.487 Y4.403 Z4.999 
G0 Z10.001 
G0 Y4.406 Z10.001 
G0 Y4.406 Z8.001 
G1 X12.487 Y4.406 Z4.999 
G1 X12.512 Y4.406 Z4.999 
G0 Z10.001 
G0 Y4.408 Z10.001 
G0 Y4.408 Z8.001 
G1 X12.512 Y4.408 Z4.999 
G1 X12.487 Y4.408 Z4.999 
G0 Z10.001 
G0 Y4.411 Z10.001 
G0 Y4.411 Z8.001 
G1 X12.487 Y4.411 Z4.999 
G1 X12.512 Y4.411 Z4.999 
G0 Z10.001 
G0 Y4.413 Z10.001 
G0 Y4.413 Z8.001 
G1 X12.512 Y4.413 Z4.999 
G1 X12.487 Y4.413 Z4.999 
G0 Z10.001 
G0 Y4.416 Z10.001 
G0 Y4.416 Z8.001 
G1 X12.487 Y4.416 Z4.999 
G1 X12.512 Y4.416 Z4.999 
G0 Z10.001 
G0 Y4.418 Z10.001 
G0 Y4.418 Z8.001 
G1 X12.512 Y4.418 Z4.999 
G1 X12.487 Y4.418 Z4.999 
G0 Z10.001 
G0 Y4.421 Z10.001 
G0 Y4.421 Z8.001 
G1 X12.487 Y4.421 Z4.999 
G1 X12.512 Y4.421 Z4.999 
G0 Z10.001 
G0 Y4.423 Z10.001 
G0 Y4.423 Z8.001 
G1 X12.512 Y4.423 Z4.999 
G1 X12.487 Y4.423 Z4.999 
G0 Z10.001 
G0 Y4.426 Z10.001 
G0 Y4.426 Z8.001 
G1 X12.487 Y4.426 Z4.999 
G1 X12.512 Y4.426 Z4.999 
G0 Z10.001 
G0 Y4.428 Z10.001 
G0 Y4.428 Z8.001 
G1 X12.512 Y4.428 Z4.999 
G1 X12.487 Y4.428 Z4.999 
G0 Z10.001 
G0 Y4.431 Z10.001 
G0 Y4.431 Z8.001 
G1 X12.487 Y4.431 Z4.999 
G1 X12.512 Y4.431 Z4.999 
G0 Z10.001 
G0 Y4.433 Z10.001 
G0 Y4.433 Z8.001 
G1 X12.512 Y4.433 Z4.999 
G1 X12.487 Y4.433 Z4.999 
G0 Z10.001 
G0 Y4.436 Z10.001 
G0 Y4.436 Z8.001 
G1 X12.487 Y4.436 Z4.999 
G1 X12.512 Y4.436 Z4.999 
G0 Z10.001 
G0 Y4.438 Z10.001 
G0 Y4.438 Z8.001 
G1 X12.512 Y4.438 Z4.999 
G1 X12.487 Y4.438 Z4.999 
G0 Z10.001 
G0 Y4.441 Z10.001 
G0 Y4.441 Z8.001 
G1 X12.487 Y4.441 Z4.999 
G1 X12.512 Y4.441 Z4.999 
G0 Z10.001 
G0 Y4.443 Z10.001 
G0 Y4.443 Z8.001 
G1 X12.512 Y4.443 Z4.999 
G1 X12.487 Y4.443 Z4.999 
G0 Z10.001 
G0 Y4.446 Z10.001 
G0 Y4.446 Z8.001 
G1 X12.487 Y4.446 Z4.999 
G1 X12.512 Y4.446 Z4.999 
G0 Z10.001 
G0 Y4.448 Z10.001 
G0 Y4.448 Z8.001 
G1 X12.512 Y4.448 Z4.999 
G1 X12.487 Y4.448 Z4.999 
G0 Z10.001 
G0 Y4.451 Z10.001 
G0 Y4.451 Z8.001 
G1 X12.487 Y4.451 Z4.999 
G1 X12.512 Y4.451 Z4.999 
G0 Z10.001 
G0 Y4.453 Z10.001 
G0 Y4.453 Z8.001 
G1 X12.512 Y4.453 Z4.999 
G1 X12.487 Y4.453 Z4.999 
G0 Z10.001 
G0 Y4.456 Z10.001 
G0 Y4.456 Z8.001 
G1 X12.487 Y4.456 Z4.999 
G1 X12.512 Y4.456 Z4.999 
G0 Z10.001 
G0 Y4.458 Z10.001 
G0 Y4.458 Z8.001 
G1 X12.512 Y4.458 Z4.999 
G1 X12.487 Y4.458 Z4.999 
G0 Z10.001 
G0 Y4.461 Z10.001 
G0 Y4.461 Z8.001 
G1 X12.487 Y4.461 Z4.999 
G1 X12.512 Y4.461 Z4.999 
G0 Z10.001 
G0 Y4.463 Z10.001 
G0 Y4.463 Z8.001 
G1 X12.512 Y4.463 Z4.999 
G1 X12.487 Y4.463 Z4.999 
G0 Z10.001 
G0 Y4.466 Z10.001 
G0 Y4.466 Z8.001 
G1 X12.487 Y4.466 Z4.999 
G1 X12.512 Y4.466 Z4.999 
G0 Z10.001 
G0 Y4.468 Z10.001 
G0 Y4.468 Z8.001 
G1 X12.512 Y4.468 Z4.999 
G1 X12.487 Y4.468 Z4.999 
G0 Z10.001 
G0 Y4.471 Z10.001 
G0 Y4.471 Z8.001 
G1 X12.487 Y4.471 Z4.999 
G1 X12.512 Y4.471 Z4.999 
G0 Z10.001 
G0 Y4.473 Z10.001 
G0 Y4.473 Z8.001 
G1 X12.512 Y4.473 Z4.999 
G1 X12.487 Y4.473 Z4.999 
G0 Z10.001 
G0 Y4.476 Z10.001 
G0 Y4.476 Z8.001 
G1 X12.487 Y4.476 Z4.999 
G1 X12.512 Y4.476 Z4.999 
G0 Z10.001 
G0 Y4.478 Z10.001 
G0 Y4.478 Z8.001 
G1 X12.512 Y4.478 Z4.999 
G1 X12.487 Y4.478 Z4.999 
G0 Z10.001 
G0 Y4.481 Z10.001 
G0 Y4.481 Z8.001 
G1 X12.487 Y4.481 Z4.999 
G1 X12.512 Y4.481 Z4.999 
G0 Z10.001 
G0 Y4.483 Z10.001 
G0 Y4.483 Z8.001 
G1 X12.512 Y4.483 Z4.999 
G1 X12.487 Y4.483 Z4.999 
G0 Z10.001 
G0 Y4.486 Z10.001 
G0 Y4.486 Z8.001 
G1 X12.487 Y4.486 Z4.999 
G1 X12.512 Y4.486 Z4.999 
G0 Z10.001 
G0 Y4.488 Z10.001 
G0 Y4.488 Z8.001 
G1 X12.512 Y4.488 Z4.999 
G1 X12.487 Y4.488 Z4.999 
G0 Z10.001 
G0 Y4.491 Z10.001 
G0 Y4.491 Z8.001 
G1 X12.487 Y4.491 Z4.999 
G1 X12.512 Y4.491 Z4.999 
G0 Z10.001 
G0 Y4.493 Z10.001 
G0 Y4.493 Z8.001 
G1 X12.512 Y4.493 Z4.999 
G1 X12.487 Y4.493 Z4.999 
G0 Z10.001 
G0 Y4.496 Z10.001 
G0 Y4.496 Z8.001 
G1 X12.487 Y4.496 Z4.999 
G1 X12.512 Y4.496 Z4.999 
G0 Z10.001 
G0 Y4.498 Z10.001 
G0 Y4.498 Z8.001 
G1 X12.512 Y4.498 Z4.999 
G1 X12.487 Y4.498 Z4.999 
G0 Z10.001 
G0 Y4.501 Z10.001 
G0 Y4.501 Z8.001 
G1 X12.487 Y4.501 Z4.999 
G1 X12.512 Y4.501 Z4.999 
G0 Z10.001 
G0 Y4.503 Z10.001 
G0 Y4.503 Z8.001 
G1 X12.512 Y4.503 Z4.999 
G1 X12.487 Y4.503 Z4.999 
G0 Z10.001 
G0 Y4.506 Z10.001 
G0 Y4.506 Z8.001 
G1 X12.487 Y4.506 Z4.999 
G1 X12.512 Y4.506 Z4.999 
G0 Z10.001 
G0 Y4.508 Z10.001 
G0 Y4.508 Z8.001 
G1 X12.512 Y4.508 Z4.999 
G1 X12.487 Y4.508 Z4.999 
G0 Z10.001 
G0 Y4.511 Z10.001 
G0 Y4.511 Z8.001 
G1 X12.487 Y4.511 Z4.999 
G1 X12.512 Y4.511 Z4.999 
G0 Z10.001 
G0 Y4.513 Z10.001 
G0 Y4.513 Z8.001 
G1 X12.512 Y4.513 Z4.999 
G1 X12.487 Y4.513 Z4.999 
G0 Z10.001 
G0 Y4.516 Z10.001 
G0 Y4.516 Z8.001 
G1 X12.487 Y4.516 Z4.999 
G1 X12.512 Y4.516 Z4.999 
G0 Z10.001 
G0 Y4.518 Z10.001 
G0 Y4.518 Z8.001 
G1 X12.512 Y4.518 Z4.999 
G1 X12.487 Y4.518 Z4.999 
G0 Z10.001 
G0 Y4.521 Z10.001 
G0 Y4.521 Z8.001 
G1 X12.487 Y4.521 Z4.999 
G1 X12.512 Y4.521 Z4.999 
G0 Z10.001 
G0 Y4.523 Z10.001 
G0 Y4.523 Z8.001 
G1 X12.512 Y4.523 Z4.999 
G1 X12.487 Y4.523 Z4.999 
G0 Z10.001 
G0 Y4.526 Z10.001 
G0 Y4.526 Z8.001 
G1 X12.487 Y4.526 Z4.999 
G1 X12.512 Y4.526 Z4.999 
G0 Z10.001 
G0 Y4.528 Z10.001 
G0 Y4.528 Z8.001 
G1 X12.512 Y4.528 Z4.999 
G1 X12.487 Y4.528 Z4.999 
G0 Z10.001 
G0 Y4.531 Z10.001 
G0 Y4.531 Z8.001 
G1 X12.487 Y4.531 Z4.999 
G1 X12.512 Y4.531 Z4.999 
G0 Z10.001 
G0 Y4.533 Z10.001 
G0 Y4.533 Z8.001 
G1 X12.512 Y4.533 Z4.999 
G1 X12.487 Y4.533 Z4.999 
G0 Z10.001 
G0 Y4.536 Z10.001 
G0 Y4.536 Z8.001 
G1 X12.487 Y4.536 Z4.999 
G1 X12.512 Y4.536 Z4.999 
G0 Z10.001 
G0 Y4.538 Z10.001 
G0 Y4.538 Z8.001 
G1 X12.512 Y4.538 Z4.999 
G1 X12.487 Y4.538 Z4.999 
G0 Z10.001 
G0 Y4.541 Z10.001 
G0 Y4.541 Z8.001 
G1 X12.487 Y4.541 Z4.999 
G1 X12.512 Y4.541 Z4.999 
G0 Z10.001 
G0 Y4.543 Z10.001 
G0 Y4.543 Z8.001 
G1 X12.512 Y4.543 Z4.999 
G1 X12.487 Y4.543 Z4.999 
G0 Z10.001 
G0 Y4.546 Z10.001 
G0 Y4.546 Z8.001 
G1 X12.487 Y4.546 Z4.999 
G1 X12.512 Y4.546 Z4.999 
G0 Z10.001 
G0 Y4.548 Z10.001 
G0 Y4.548 Z8.001 
G1 X12.512 Y4.548 Z4.999 
G1 X12.487 Y4.548 Z4.999 
G0 Z10.001 
G0 Y4.551 Z10.001 
G0 Y4.551 Z8.001 
G1 X12.487 Y4.551 Z4.999 
G1 X12.512 Y4.551 Z4.999 
G0 Z10.001 
G0 Y4.553 Z10.001 
G0 Y4.553 Z8.001 
G1 X12.512 Y4.553 Z4.999 
G1 X12.487 Y4.553 Z4.999 
G0 Z10.001 
G0 Y4.556 Z10.001 
G0 Y4.556 Z8.001 
G1 X12.487 Y4.556 Z4.999 
G1 X12.512 Y4.556 Z4.999 
G0 Z10.001 
G0 Y4.558 Z10.001 
G0 Y4.558 Z8.001 
G1 X12.512 Y4.558 Z4.999 
G1 X12.487 Y4.558 Z4.999 
G0 Z10.001 
G0 Y4.561 Z10.001 
G0 Y4.561 Z8.001 
G1 X12.487 Y4.561 Z4.999 
G1 X12.512 Y4.561 Z4.999 
G0 Z10.001 
G0 Y4.563 Z10.001 
G0 Y4.563 Z8.001 
G1 X12.512 Y4.563 Z4.999 
G1 X12.487 Y4.563 Z4.999 
G0 Z10.001 
G0 Y4.566 Z10.001 
G0 Y4.566 Z8.001 
G1 X12.487 Y4.566 Z4.999 
G1 X12.512 Y4.566 Z4.999 
G0 Z10.001 
G0 Y4.568 Z10.001 
G0 Y4.568 Z8.001 
G1 X12.512 Y4.568 Z4.999 
G1 X12.487 Y4.568 Z4.999 
G0 Z10.001 
G0 Y4.571 Z10.001 
G0 Y4.571 Z8.001 
G1 X12.487 Y4.571 Z4.999 
G1 X12.512 Y4.571 Z4.999 
G0 Z10.001 
G0 Y4.573 Z10.001 
G0 Y4.573 Z8.001 
G1 X12.512 Y4.573 Z4.999 
G1 X12.487 Y4.573 Z4.999 
G0 Z10.001 
G0 Y4.576 Z10.001 
G0 Y4.576 Z8.001 
G1 X12.487 Y4.576 Z4.999 
G1 X12.512 Y4.576 Z4.999 
G0 Z10.001 
G0 Y4.578 Z10.001 
G0 Y4.578 Z8.001 
G1 X12.512 Y4.578 Z4.999 
G1 X12.487 Y4.578 Z4.999 
G0 Z10.001 
G0 Y4.581 Z10.001 
G0 Y4.581 Z8.001 
G1 X12.487 Y4.581 Z4.999 
G1 X12.512 Y4.581 Z4.999 
G0 Z10.001 
G0 Y4.583 Z10.001 
G0 Y4.583 Z8.001 
G1 X12.512 Y4.583 Z4.999 
G1 X12.487 Y4.583 Z4.999 
G0 Z10.001 
G0 Y4.586 Z10.001 
G0 Y4.586 Z8.001 
G1 X12.487 Y4.586 Z4.999 
G1 X12.512 Y4.586 Z4.999 
G0 Z10.001 
G0 Y4.588 Z10.001 
G0 Y4.588 Z8.001 
G1 X12.512 Y4.588 Z4.999 
G1 X12.487 Y4.588 Z4.999 
G0 Z10.001 
G0 Y4.591 Z10.001 
G0 Y4.591 Z8.001 
G1 X12.487 Y4.591 Z4.999 
G1 X12.512 Y4.591 Z4.999 
G0 Z10.001 
G0 Y4.593 Z10.001 
G0 Y4.593 Z8.001 
G1 X12.512 Y4.593 Z4.999 
G1 X12.487 Y4.593 Z4.999 
G0 Z10.001 
G0 Y4.596 Z10.001 
G0 Y4.596 Z8.001 
G1 X12.487 Y4.596 Z4.999 
G1 X12.512 Y4.596 Z4.999 
G0 Z10.001 
G0 Y4.598 Z10.001 
G0 Y4.598 Z8.001 
G1 X12.512 Y4.598 Z4.999 
G1 X12.487 Y4.598 Z4.999 
G0 Z10.001 
G0 Y4.601 Z10.001 
G0 Y4.601 Z8.001 
G1 X12.487 Y4.601 Z4.999 
G1 X12.512 Y4.601 Z4.999 
G0 Z10.001 
G0 Y4.603 Z10.001 
G0 Y4.603 Z8.001 
G1 X12.512 Y4.603 Z4.999 
G1 X12.487 Y4.603 Z4.999 
G0 Z10.001 
G0 Y4.606 Z10.001 
G0 Y4.606 Z8.001 
G1 X12.487 Y4.606 Z4.999 
G1 X12.512 Y4.606 Z4.999 
G0 Z10.001 
G0 Y4.608 Z10.001 
G0 Y4.608 Z8.001 
G1 X12.512 Y4.608 Z4.999 
G1 X12.487 Y4.608 Z4.999 
G0 Z10.001 
G0 Y4.611 Z10.001 
G0 Y4.611 Z8.001 
G1 X12.487 Y4.611 Z4.999 
G1 X12.512 Y4.611 Z4.999 
G0 Z10.001 
G0 Y4.613 Z10.001 
G0 Y4.613 Z8.001 
G1 X12.512 Y4.613 Z4.999 
G1 X12.487 Y4.613 Z4.999 
G0 Z10.001 
G0 Y4.616 Z10.001 
G0 Y4.616 Z8.001 
G1 X12.487 Y4.616 Z4.999 
G1 X12.512 Y4.616 Z4.999 
G0 Z10.001 
G0 Y4.618 Z10.001 
G0 Y4.618 Z8.001 
G1 X12.512 Y4.618 Z4.999 
G1 X12.487 Y4.618 Z4.999 
G0 Z10.001 
G0 Y4.621 Z10.001 
G0 Y4.621 Z8.001 
G1 X12.487 Y4.621 Z4.999 
G1 X12.512 Y4.621 Z4.999 
G0 Z10.001 
G0 Y4.623 Z10.001 
G0 Y4.623 Z8.001 
G1 X12.512 Y4.623 Z4.999 
G1 X12.487 Y4.623 Z4.999 
G0 Z10.001 
G0 Y4.626 Z10.001 
G0 Y4.626 Z8.001 
G1 X12.487 Y4.626 Z4.999 
G1 X12.512 Y4.626 Z4.999 
G0 Z10.001 
G0 Y4.628 Z10.001 
G0 Y4.628 Z8.001 
G1 X12.512 Y4.628 Z4.999 
G1 X12.487 Y4.628 Z4.999 
G0 Z10.001 
G0 Y4.631 Z10.001 
G0 Y4.631 Z8.001 
G1 X12.487 Y4.631 Z4.999 
G1 X12.512 Y4.631 Z4.999 
G0 Z10.001 
G0 Y4.633 Z10.001 
G0 Y4.633 Z8.001 
G1 X12.512 Y4.633 Z4.999 
G1 X12.487 Y4.633 Z4.999 
G0 Z10.001 
G0 Y4.636 Z10.001 
G0 Y4.636 Z8.001 
G1 X12.487 Y4.636 Z4.999 
G1 X12.512 Y4.636 Z4.999 
G0 Z10.001 
G0 Y4.638 Z10.001 
G0 Y4.638 Z8.001 
G1 X12.512 Y4.638 Z4.999 
G1 X12.487 Y4.638 Z4.999 
G0 Z10.001 
G0 Y4.641 Z10.001 
G0 Y4.641 Z8.001 
G1 X12.487 Y4.641 Z4.999 
G1 X12.512 Y4.641 Z4.999 
G0 Z10.001 
G0 Y4.643 Z10.001 
G0 Y4.643 Z8.001 
G1 X12.512 Y4.643 Z4.999 
G1 X12.487 Y4.643 Z4.999 
G0 Z10.001 
G0 Y4.646 Z10.001 
G0 Y4.646 Z8.001 
G1 X12.487 Y4.646 Z4.999 
G1 X12.512 Y4.646 Z4.999 
G0 Z10.001 
G0 Y4.648 Z10.001 
G0 Y4.648 Z8.001 
G1 X12.512 Y4.648 Z4.999 
G1 X12.487 Y4.648 Z4.999 
G0 Z10.001 
G0 Y4.651 Z10.001 
G0 Y4.651 Z8.001 
G1 X12.487 Y4.651 Z4.999 
G1 X12.512 Y4.651 Z4.999 
G0 Z10.001 
G0 Y4.653 Z10.001 
G0 Y4.653 Z8.001 
G1 X12.512 Y4.653 Z4.999 
G1 X12.487 Y4.653 Z4.999 
G0 Z10.001 
G0 Y4.656 Z10.001 
G0 Y4.656 Z8.001 
G1 X12.487 Y4.656 Z4.999 
G1 X12.512 Y4.656 Z4.999 
G0 Z10.001 
G0 Y4.658 Z10.001 
G0 Y4.658 Z8.001 
G1 X12.512 Y4.658 Z4.999 
G1 X12.487 Y4.658 Z4.999 
G0 Z10.001 
G0 Y4.661 Z10.001 
G0 Y4.661 Z8.001 
G1 X12.487 Y4.661 Z4.999 
G1 X12.512 Y4.661 Z4.999 
G0 Z10.001 
G0 Y4.663 Z10.001 
G0 Y4.663 Z8.001 
G1 X12.512 Y4.663 Z4.999 
G1 X12.487 Y4.663 Z4.999 
G0 Z10.001 
G0 Y4.666 Z10.001 
G0 Y4.666 Z8.001 
G1 X12.487 Y4.666 Z4.999 
G1 X12.512 Y4.666 Z4.999 
G0 Z10.001 
G0 Y4.668 Z10.001 
G0 Y4.668 Z8.001 
G1 X12.512 Y4.668 Z4.999 
G1 X12.487 Y4.668 Z4.999 
G0 Z10.001 
G0 Y4.671 Z10.001 
G0 Y4.671 Z8.001 
G1 X12.487 Y4.671 Z4.999 
G1 X12.512 Y4.671 Z4.999 
G0 Z10.001 
G0 Y4.673 Z10.001 
G0 Y4.673 Z8.001 
G1 X12.512 Y4.673 Z4.999 
G1 X12.487 Y4.673 Z4.999 
G0 Z10.001 
G0 Y4.676 Z10.001 
G0 Y4.676 Z8.001 
G1 X12.487 Y4.676 Z4.999 
G1 X12.512 Y4.676 Z4.999 
G0 Z10.001 
G0 Y4.678 Z10.001 
G0 Y4.678 Z8.001 
G1 X12.512 Y4.678 Z4.999 
G1 X12.487 Y4.678 Z4.999 
G0 Z10.001 
G0 Y4.681 Z10.001 
G0 Y4.681 Z8.001 
G1 X12.487 Y4.681 Z4.999 
G1 X12.512 Y4.681 Z4.999 
G0 Z10.001 
G0 Y4.683 Z10.001 
G0 Y4.683 Z8.001 
G1 X12.512 Y4.683 Z4.999 
G1 X12.487 Y4.683 Z4.999 
G0 Z10.001 
G0 Y4.686 Z10.001 
G0 Y4.686 Z8.001 
G1 X12.487 Y4.686 Z4.999 
G1 X12.512 Y4.686 Z4.999 
G0 Z10.001 
G0 Y4.688 Z10.001 
G0 Y4.688 Z8.001 
G1 X12.512 Y4.688 Z4.999 
G1 X12.487 Y4.688 Z4.999 
G0 Z10.001 
G0 Y4.691 Z10.001 
G0 Y4.691 Z8.001 
G1 X12.487 Y4.691 Z4.999 
G1 X12.512 Y4.691 Z4.999 
G0 Z10.001 
G0 Y4.693 Z10.001 
G0 Y4.693 Z8.001 
G1 X12.512 Y4.693 Z4.999 
G1 X12.487 Y4.693 Z4.999 
G0 Z10.001 
G0 Y4.696 Z10.001 
G0 Y4.696 Z8.001 
G1 X12.487 Y4.696 Z4.999 
G1 X12.512 Y4.696 Z4.999 
G0 Z10.001 
G0 Y4.698 Z10.001 
G0 Y4.698 Z8.001 
G1 X12.512 Y4.698 Z4.999 
G1 X12.487 Y4.698 Z4.999 
G0 Z10.001 
G0 Y4.701 Z10.001 
G0 Y4.701 Z8.001 
G1 X12.487 Y4.701 Z4.999 
G1 X12.512 Y4.701 Z4.999 
G0 Z10.001 
G0 Y4.703 Z10.001 
G0 Y4.703 Z8.001 
G1 X12.512 Y4.703 Z4.999 
G1 X12.487 Y4.703 Z4.999 
G0 Z10.001 
G0 Y4.706 Z10.001 
G0 Y4.706 Z8.001 
G1 X12.487 Y4.706 Z4.999 
G1 X12.512 Y4.706 Z4.999 
G0 Z10.001 
G0 Y4.708 Z10.001 
G0 Y4.708 Z8.001 
G1 X12.512 Y4.708 Z4.999 
G1 X12.487 Y4.708 Z4.999 
G0 Z10.001 
G0 Y4.711 Z10.001 
G0 Y4.711 Z8.001 
G1 X12.487 Y4.711 Z4.999 
G1 X12.512 Y4.711 Z4.999 
G0 Z10.001 
G0 Y4.713 Z10.001 
G0 Y4.713 Z8.001 
G1 X12.512 Y4.713 Z4.999 
G1 X12.487 Y4.713 Z4.999 
G0 Z10.001 
G0 Y4.716 Z10.001 
G0 Y4.716 Z8.001 
G1 X12.487 Y4.716 Z4.999 
G1 X12.512 Y4.716 Z4.999 
G0 Z10.001 
G0 Y4.718 Z10.001 
G0 Y4.718 Z8.001 
G1 X12.512 Y4.718 Z4.999 
G1 X12.487 Y4.718 Z4.999 
G0 Z10.001 
G0 Y4.721 Z10.001 
G0 Y4.721 Z8.001 
G1 X12.487 Y4.721 Z4.999 
G1 X12.512 Y4.721 Z4.999 
G0 Z10.001 
G0 Y4.723 Z10.001 
G0 Y4.723 Z8.001 
G1 X12.512 Y4.723 Z4.999 
G1 X12.487 Y4.723 Z4.999 
G0 Z10.001 
G0 Y4.726 Z10.001 
G0 Y4.726 Z8.001 
G1 X12.487 Y4.726 Z4.999 
G1 X12.512 Y4.726 Z4.999 
G0 Z10.001 
G0 Y4.728 Z10.001 
G0 Y4.728 Z8.001 
G1 X12.512 Y4.728 Z4.999 
G1 X12.487 Y4.728 Z4.999 
G0 Z10.001 
G0 Y4.731 Z10.001 
G0 Y4.731 Z8.001 
G1 X12.487 Y4.731 Z4.999 
G1 X12.512 Y4.731 Z4.999 
G0 Z10.001 
G0 Y4.733 Z10.001 
G0 Y4.733 Z8.001 
G1 X12.512 Y4.733 Z4.999 
G1 X12.487 Y4.733 Z4.999 
G0 Z10.001 
G0 Y4.736 Z10.001 
G0 Y4.736 Z8.001 
G1 X12.487 Y4.736 Z4.999 
G1 X12.512 Y4.736 Z4.999 
G0 Z10.001 
G0 Y4.738 Z10.001 
G0 Y4.738 Z8.001 
G1 X12.512 Y4.738 Z4.999 
G1 X12.487 Y4.738 Z4.999 
G0 Z10.001 
G0 Y4.741 Z10.001 
G0 Y4.741 Z8.001 
G1 X12.487 Y4.741 Z4.999 
G1 X12.512 Y4.741 Z4.999 
G0 Z10.001 
G0 Y4.743 Z10.001 
G0 Y4.743 Z8.001 
G1 X12.512 Y4.743 Z4.999 
G1 X12.487 Y4.743 Z4.999 
G0 Z10.001 
G0 Y4.746 Z10.001 
G0 Y4.746 Z8.001 
G1 X12.487 Y4.746 Z4.999 
G1 X12.512 Y4.746 Z4.999 
G0 Z10.001 
G0 Y4.748 Z10.001 
G0 Y4.748 Z8.001 
G1 X12.512 Y4.748 Z4.999 
G1 X12.487 Y4.748 Z4.999 
G0 Z10.001 
G0 Y4.751 Z10.001 
G0 Y4.751 Z8.001 
G1 X12.487 Y4.751 Z4.999 
G1 X12.512 Y4.751 Z4.999 
G0 Z10.001 
G0 Y4.753 Z10.001 
G0 Y4.753 Z8.001 
G1 X12.512 Y4.753 Z4.999 
G1 X12.487 Y4.753 Z4.999 
G0 Z10.001 
G0 Y4.756 Z10.001 
G0 Y4.756 Z8.001 
G1 X12.487 Y4.756 Z4.999 
G1 X12.512 Y4.756 Z4.999 
G0 Z10.001 
G0 Y4.758 Z10.001 
G0 Y4.758 Z8.001 
G1 X12.512 Y4.758 Z4.999 
G1 X12.487 Y4.758 Z4.999 
G0 Z10.001 
G0 Y4.761 Z10.001 
G0 Y4.761 Z8.001 
G1 X12.487 Y4.761 Z4.999 
G1 X12.512 Y4.761 Z4.999 
G0 Z10.001 
G0 Y4.763 Z10.001 
G0 Y4.763 Z8.001 
G1 X12.512 Y4.763 Z4.999 
G1 X12.487 Y4.763 Z4.999 
G0 Z10.001 
G0 Y4.766 Z10.001 
G0 Y4.766 Z8.001 
G1 X12.487 Y4.766 Z4.999 
G1 X12.512 Y4.766 Z4.999 
G0 Z10.001 
G0 Y4.768 Z10.001 
G0 Y4.768 Z8.001 
G1 X12.512 Y4.768 Z4.999 
G1 X12.487 Y4.768 Z4.999 
G0 Z10.001 
G0 Y4.771 Z10.001 
G0 Y4.771 Z8.001 
G1 X12.487 Y4.771 Z4.999 
G1 X12.512 Y4.771 Z4.999 
G0 Z10.001 
G0 Y4.773 Z10.001 
G0 Y4.773 Z8.001 
G1 X12.512 Y4.773 Z4.999 
G1 X12.487 Y4.773 Z4.999 
G0 Z10.001 
G0 Y4.776 Z10.001 
G0 Y4.776 Z8.001 
G1 X12.487 Y4.776 Z4.999 
G1 X12.512 Y4.776 Z4.999 
G0 Z10.001 
G0 Y4.778 Z10.001 
G0 Y4.778 Z8.001 
G1 X12.512 Y4.778 Z4.999 
G1 X12.487 Y4.778 Z4.999 
G0 Z10.001 
G0 Y4.781 Z10.001 
G0 Y4.781 Z8.001 
G1 X12.487 Y4.781 Z4.999 
G1 X12.512 Y4.781 Z4.999 
G0 Z10.001 
G0 Y4.783 Z10.001 
G0 Y4.783 Z8.001 
G1 X12.512 Y4.783 Z4.999 
G1 X12.487 Y4.783 Z4.999 
G0 Z10.001 
G0 Y4.786 Z10.001 
G0 Y4.786 Z8.001 
G1 X12.487 Y4.786 Z4.999 
G1 X12.512 Y4.786 Z4.999 
G0 Z10.001 
G0 Y4.788 Z10.001 
G0 Y4.788 Z8.001 
G1 X12.512 Y4.788 Z4.999 
G1 X12.487 Y4.788 Z4.999 
G0 Z10.001 
G0 Y4.791 Z10.001 
G0 Y4.791 Z8.001 
G1 X12.487 Y4.791 Z4.999 
G1 X12.512 Y4.791 Z4.999 
G0 Z10.001 
G0 Y4.793 Z10.001 
G0 Y4.793 Z8.001 
G1 X12.512 Y4.793 Z4.999 
G1 X12.487 Y4.793 Z4.999 
G0 Z10.001 
G0 Y4.796 Z10.001 
G0 Y4.796 Z8.001 
G1 X12.487 Y4.796 Z4.999 
G1 X12.512 Y4.796 Z4.999 
G0 Z10.001 
G0 Y4.798 Z10.001 
G0 Y4.798 Z8.001 
G1 X12.512 Y4.798 Z4.999 
G1 X12.487 Y4.798 Z4.999 
G0 Z10.001 
G0 Y4.801 Z10.001 
G0 Y4.801 Z8.001 
G1 X12.487 Y4.801 Z4.999 
G1 X12.512 Y4.801 Z4.999 
G0 Z10.001 
G0 Y4.803 Z10.001 
G0 Y4.803 Z8.001 
G1 X12.512 Y4.803 Z4.999 
G1 X12.487 Y4.803 Z4.999 
G0 Z10.001 
G0 Y4.806 Z10.001 
G0 Y4.806 Z8.001 
G1 X12.487 Y4.806 Z4.999 
G1 X12.512 Y4.806 Z4.999 
G0 Z10.001 
G0 Y4.808 Z10.001 
G0 Y4.808 Z8.001 
G1 X12.512 Y4.808 Z4.999 
G1 X12.487 Y4.808 Z4.999 
G0 Z10.001 
G0 Y4.811 Z10.001 
G0 Y4.811 Z8.001 
G1 X12.487 Y4.811 Z4.999 
G1 X12.512 Y4.811 Z4.999 
G0 Z10.001 
G0 Y4.813 Z10.001 
G0 Y4.813 Z8.001 
G1 X12.512 Y4.813 Z4.999 
G1 X12.487 Y4.813 Z4.999 
G0 Z10.001 
G0 Y4.816 Z10.001 
G0 Y4.816 Z8.001 
G1 X12.487 Y4.816 Z4.999 
G1 X12.512 Y4.816 Z4.999 
G0 Z10.001 
G0 Y4.818 Z10.001 
G0 Y4.818 Z8.001 
G1 X12.512 Y4.818 Z4.999 
G1 X12.487 Y4.818 Z4.999 
G0 Z10.001 
G0 Y4.821 Z10.001 
G0 Y4.821 Z8.001 
G1 X12.487 Y4.821 Z4.999 
G1 X12.512 Y4.821 Z4.999 
G0 Z10.001 
G0 Y4.823 Z10.001 
G0 Y4.823 Z8.001 
G1 X12.512 Y4.823 Z4.999 
G1 X12.487 Y4.823 Z4.999 
G0 Z10.001 
G0 Y4.826 Z10.001 
G0 Y4.826 Z8.001 
G1 X12.487 Y4.826 Z4.999 
G1 X12.512 Y4.826 Z4.999 
G0 Z10.001 
G0 Y4.828 Z10.001 
G0 Y4.828 Z8.001 
G1 X12.512 Y4.828 Z4.999 
G1 X12.487 Y4.828 Z4.999 
G0 Z10.001 
G0 Y4.831 Z10.001 
G0 Y4.831 Z8.001 
G1 X12.487 Y4.831 Z4.999 
G1 X12.512 Y4.831 Z4.999 
G0 Z10.001 
G0 Y4.833 Z10.001 
G0 Y4.833 Z8.001 
G1 X12.512 Y4.833 Z4.999 
G1 X12.487 Y4.833 Z4.999 
G0 Z10.001 
G0 Y4.836 Z10.001 
G0 Y4.836 Z8.001 
G1 X12.487 Y4.836 Z4.999 
G1 X12.512 Y4.836 Z4.999 
G0 Z10.001 
G0 Y4.838 Z10.001 
G0 Y4.838 Z8.001 
G1 X12.512 Y4.838 Z4.999 
G1 X12.487 Y4.838 Z4.999 
G0 Z10.001 
G0 Y4.841 Z10.001 
G0 Y4.841 Z8.001 
G1 X12.487 Y4.841 Z4.999 
G1 X12.512 Y4.841 Z4.999 
G0 Z10.001 
G0 Y4.843 Z10.001 
G0 Y4.843 Z8.001 
G1 X12.512 Y4.843 Z4.999 
G1 X12.487 Y4.843 Z4.999 
G0 Z10.001 
G0 Y4.846 Z10.001 
G0 Y4.846 Z8.001 
G1 X12.487 Y4.846 Z4.999 
G1 X12.512 Y4.846 Z4.999 
G0 Z10.001 
G0 Y4.848 Z10.001 
G0 Y4.848 Z8.001 
G1 X12.512 Y4.848 Z4.999 
G1 X12.487 Y4.848 Z4.999 
G0 Z10.001 
G0 Y4.851 Z10.001 
G0 Y4.851 Z8.001 
