(Exported by FreeCAD)
(Post Processor: script_module)
(Output Time:2025-06-13 14:10:03.651841)
(begin preamble)
G17 G54 G40 G49 G80 G90
G21
(begin operation: Fixture)
(machine units: mm/min)
G54 
(finish operation: Fixture)
(begin operation: TC: Default Tool)
(machine units: mm/min)
(TC: Default Tool) 
M5
M6 T1 
G43 H1 
(finish operation: TC: Default Tool)
(begin operation: Pocket_Shape)
(machine units: mm/min)
(Pocket_Shape) 
G0 Z10.001 
G0 X24.997 Y1.427 
G0 Z8.001 
G1 X24.997 Y1.427 Z4.999 
G1 X5.003 Y1.427 Z4.999 
G1 X5.003 Y1.425 Z4.999 
G1 X24.997 Y1.425 Z4.999 
G1 X24.997 Y1.423 Z4.999 
G1 X5.003 Y1.423 Z4.999 
G1 X5.003 Y1.420 Z4.999 
G1 X24.997 Y1.420 Z4.999 
G1 X24.997 Y1.418 Z4.999 
G1 X5.003 Y1.418 Z4.999 
G1 X5.003 Y1.415 Z4.999 
G1 X24.997 Y1.415 Z4.999 
G1 X24.997 Y1.413 Z4.999 
G1 X5.003 Y1.413 Z4.999 
G1 X5.003 Y1.410 Z4.999 
G1 X24.997 Y1.410 Z4.999 
G1 X24.997 Y1.408 Z4.999 
G1 X5.003 Y1.408 Z4.999 
G1 X5.003 Y1.405 Z4.999 
G1 X24.997 Y1.405 Z4.999 
G1 X24.997 Y1.403 Z4.999 
G1 X5.003 Y1.403 Z4.999 
G0 Z10.001 
G0 Z10.001 
G0 X5.003 Y1.403 
G0 Y2.833 
G0 Y2.833 Z8.001 
G1 X5.002 Y2.833 Z4.999 
G1 X24.998 Y2.833 Z4.999 
G1 X24.998 Y2.835 Z4.999 
G1 X5.002 Y2.835 Z4.999 
G1 X5.002 Y2.838 Z4.999 
G1 X24.998 Y2.838 Z4.999 
G1 X24.998 Y2.840 Z4.999 
G1 X5.002 Y2.840 Z4.999 
G1 X5.002 Y2.843 Z4.999 
G1 X24.998 Y2.843 Z4.999 
G1 X24.998 Y2.845 Z4.999 
G1 X5.002 Y2.845 Z4.999 
G1 X5.002 Y2.848 Z4.999 
G1 X24.998 Y2.848 Z4.999 
G1 X24.998 Y2.850 Z4.999 
G1 X5.002 Y2.850 Z4.999 
G1 X5.002 Y2.853 Z4.999 
G1 X24.998 Y2.853 Z4.999 
G1 X24.998 Y2.855 Z4.999 
G1 X5.002 Y2.855 Z4.999 
G1 X5.002 Y2.857 Z4.999 
G1 X24.998 Y2.857 Z4.999 
G0 Z10.001 
G0 Z10.001 
G0 X24.998 Y2.857 
G0 X24.997 Y4.287 
G0 X24.997 Y4.287 Z8.001 
G1 X24.997 Y4.287 Z4.999 
G1 X5.003 Y4.287 Z4.999 
G1 X5.003 Y4.285 Z4.999 
G1 X24.997 Y4.285 Z4.999 
G1 X24.997 Y4.283 Z4.999 
G1 X5.003 Y4.283 Z4.999 
G1 X5.003 Y4.280 Z4.999 
G1 X24.997 Y4.280 Z4.999 
G1 X24.997 Y4.278 Z4.999 
G1 X5.003 Y4.278 Z4.999 
G1 X5.003 Y4.275 Z4.999 
G1 X24.997 Y4.275 Z4.999 
G1 X24.997 Y4.273 Z4.999 
G1 X5.003 Y4.273 Z4.999 
G1 X5.003 Y4.270 Z4.999 
G1 X24.997 Y4.270 Z4.999 
G1 X24.997 Y4.268 Z4.999 
G1 X5.003 Y4.268 Z4.999 
G1 X5.003 Y4.265 Z4.999 
G1 X24.997 Y4.265 Z4.999 
G1 X24.997 Y4.263 Z4.999 
G1 X5.003 Y4.263 Z4.999 
G0 Z10.001 
G0 Z10.001 
G0 X5.003 Y4.263 
G0 Y5.693 
G0 Y5.693 Z8.001 
G1 X5.003 Y5.693 Z4.999 
G1 X24.997 Y5.693 Z4.999 
G1 X24.997 Y5.695 Z4.999 
G1 X5.003 Y5.695 Z4.999 
G1 X5.003 Y5.698 Z4.999 
G1 X24.997 Y5.698 Z4.999 
G1 X24.997 Y5.700 Z4.999 
G1 X5.003 Y5.700 Z4.999 
G1 X5.003 Y5.703 Z4.999 
G1 X24.997 Y5.703 Z4.999 
G1 X24.997 Y5.705 Z4.999 
G1 X5.003 Y5.705 Z4.999 
G1 X5.003 Y5.708 Z4.999 
G1 X24.997 Y5.708 Z4.999 
G1 X24.997 Y5.710 Z4.999 
G1 X5.003 Y5.710 Z4.999 
G1 X5.003 Y5.713 Z4.999 
G1 X24.997 Y5.713 Z4.999 
G1 X24.997 Y5.715 Z4.999 
G1 X5.003 Y5.715 Z4.999 
G1 X5.003 Y5.717 Z4.999 
G1 X24.997 Y5.717 Z4.999 
G0 Z10.001 
G0 Z10.001 
G0 X24.997 Y5.717 
G0 Y7.147 
G0 Y7.147 Z8.001 
G1 X24.997 Y7.147 Z4.999 
G1 X5.003 Y7.147 Z4.999 
G1 X5.003 Y7.145 Z4.999 
G1 X24.997 Y7.145 Z4.999 
G1 X24.997 Y7.143 Z4.999 
G1 X5.003 Y7.143 Z4.999 
G1 X5.003 Y7.140 Z4.999 
G1 X24.997 Y7.140 Z4.999 
G1 X24.997 Y7.138 Z4.999 
G1 X5.003 Y7.138 Z4.999 
G1 X5.003 Y7.135 Z4.999 
G1 X24.997 Y7.135 Z4.999 
G1 X24.997 Y7.133 Z4.999 
G1 X5.003 Y7.133 Z4.999 
G1 X5.003 Y7.130 Z4.999 
G1 X24.997 Y7.130 Z4.999 
G1 X24.997 Y7.128 Z4.999 
G1 X5.003 Y7.128 Z4.999 
G1 X5.003 Y7.125 Z4.999 
G1 X24.997 Y7.125 Z4.999 
G1 X24.997 Y7.123 Z4.999 
G1 X5.003 Y7.123 Z4.999 
G0 Z10.001 
G0 Z10.001 
G0 X5.003 Y7.123 
G0 Y8.553 
G0 Y8.553 Z8.001 
G1 X5.002 Y8.553 Z4.999 
G1 X24.998 Y8.553 Z4.999 
G1 X24.998 Y8.555 Z4.999 
G1 X5.002 Y8.555 Z4.999 
G1 X5.002 Y8.558 Z4.999 
G1 X24.998 Y8.558 Z4.999 
G1 X24.998 Y8.560 Z4.999 
G1 X5.002 Y8.560 Z4.999 
G1 X5.002 Y8.563 Z4.999 
G1 X24.998 Y8.563 Z4.999 
G1 X24.998 Y8.565 Z4.999 
G1 X5.002 Y8.565 Z4.999 
G1 X5.002 Y8.568 Z4.999 
G1 X24.998 Y8.568 Z4.999 
G1 X24.998 Y8.570 Z4.999 
G1 X5.002 Y8.570 Z4.999 
G1 X5.002 Y8.573 Z4.999 
G1 X24.998 Y8.573 Z4.999 
G1 X24.998 Y8.575 Z4.999 
G1 X5.002 Y8.575 Z4.999 
G1 X5.002 Y8.577 Z4.999 
G1 X24.998 Y8.577 Z4.999 
G0 Z10.001 
G0 Z10.001 
G0 X24.998 Y8.577 
G0 X24.997 Y10.007 
G0 X24.997 Y10.007 Z8.001 
G1 X24.997 Y10.007 Z4.999 
G1 X5.003 Y10.007 Z4.999 
G1 X5.003 Y10.005 Z4.999 
G1 X24.997 Y10.005 Z4.999 
G1 X24.997 Y10.003 Z4.999 
G1 X5.003 Y10.003 Z4.999 
G1 X5.003 Y10.000 Z4.999 
G1 X24.997 Y10.000 Z4.999 
G1 X24.997 Y9.998 Z4.999 
G1 X5.003 Y9.998 Z4.999 
G1 X5.003 Y9.995 Z4.999 
G1 X24.997 Y9.995 Z4.999 
G1 X24.997 Y9.993 Z4.999 
G1 X5.003 Y9.993 Z4.999 
G1 X5.003 Y9.990 Z4.999 
G1 X24.997 Y9.990 Z4.999 
G1 X24.997 Y9.988 Z4.999 
G1 X5.003 Y9.988 Z4.999 
G1 X5.003 Y9.985 Z4.999 
G1 X24.997 Y9.985 Z4.999 
G1 X24.997 Y9.983 Z4.999 
G1 X5.003 Y9.983 Z4.999 
G0 Z10.001 
G0 Z10.001 
G0 X5.003 Y9.983 
G0 Y11.413 
G0 Y11.413 Z8.001 
G1 X5.003 Y11.413 Z4.999 
G1 X24.997 Y11.413 Z4.999 
G1 X24.997 Y11.415 Z4.999 
G1 X5.003 Y11.415 Z4.999 
G1 X5.003 Y11.418 Z4.999 
G1 X24.997 Y11.418 Z4.999 
G1 X24.997 Y11.420 Z4.999 
G1 X5.003 Y11.420 Z4.999 
G1 X5.003 Y11.423 Z4.999 
G1 X24.997 Y11.423 Z4.999 
G1 X24.997 Y11.425 Z4.999 
G1 X5.003 Y11.425 Z4.999 
G1 X5.003 Y11.428 Z4.999 
G1 X24.997 Y11.428 Z4.999 
G1 X24.997 Y11.430 Z4.999 
G1 X5.003 Y11.430 Z4.999 
G1 X5.003 Y11.433 Z4.999 
G1 X24.997 Y11.433 Z4.999 
G1 X24.997 Y11.435 Z4.999 
G1 X5.003 Y11.435 Z4.999 
G1 X5.003 Y11.437 Z4.999 
G1 X24.997 Y11.437 Z4.999 
G0 Z10.001 
G0 Z10.001 
G0 X24.997 Y11.437 
G0 Y12.867 
G0 Y12.867 Z8.001 
G1 X24.997 Y12.867 Z4.999 
G1 X5.003 Y12.867 Z4.999 
G1 X5.003 Y12.865 Z4.999 
G1 X24.997 Y12.865 Z4.999 
G1 X24.997 Y12.863 Z4.999 
G1 X5.003 Y12.863 Z4.999 
G1 X5.003 Y12.860 Z4.999 
G1 X24.997 Y12.860 Z4.999 
G1 X24.997 Y12.858 Z4.999 
G1 X5.003 Y12.858 Z4.999 
G1 X5.003 Y12.855 Z4.999 
G1 X24.997 Y12.855 Z4.999 
G1 X24.997 Y12.853 Z4.999 
G1 X5.003 Y12.853 Z4.999 
G1 X5.003 Y12.850 Z4.999 
G1 X24.997 Y12.850 Z4.999 
G1 X24.997 Y12.848 Z4.999 
G1 X5.003 Y12.848 Z4.999 
G1 X5.003 Y12.845 Z4.999 
G1 X24.997 Y12.845 Z4.999 
G1 X24.997 Y12.843 Z4.999 
G1 X5.003 Y12.843 Z4.999 
G0 Z10.001 
G0 Z10.001 
G0 X5.003 Y12.843 
G0 Y14.273 
G0 Y14.273 Z8.001 
G1 X5.003 Y14.273 Z4.999 
G1 X24.997 Y14.273 Z4.999 
G1 X24.997 Y14.275 Z4.999 
G1 X5.003 Y14.275 Z4.999 
G1 X5.003 Y14.278 Z4.999 
G1 X24.997 Y14.278 Z4.999 
G1 X24.997 Y14.280 Z4.999 
G1 X5.003 Y14.280 Z4.999 
G1 X5.003 Y14.283 Z4.999 
G1 X24.997 Y14.283 Z4.999 
G1 X24.997 Y14.285 Z4.999 
G1 X5.003 Y14.285 Z4.999 
G1 X5.003 Y14.288 Z4.999 
G1 X24.997 Y14.288 Z4.999 
G1 X24.997 Y14.290 Z4.999 
G1 X5.003 Y14.290 Z4.999 
G1 X5.003 Y14.293 Z4.999 
G1 X24.997 Y14.293 Z4.999 
G1 X24.997 Y14.295 Z4.999 
G1 X5.003 Y14.295 Z4.999 
G1 X5.003 Y14.297 Z4.999 
G1 X24.997 Y14.297 Z4.999 
G0 Z10.001 
G0 Z10.001 
G0 X24.997 Y14.297 
G0 Y15.727 
G0 Y15.727 Z8.001 
G1 X24.997 Y15.727 Z4.999 
G1 X5.003 Y15.727 Z4.999 
G1 X5.003 Y15.725 Z4.999 
G1 X24.997 Y15.725 Z4.999 
G1 X24.997 Y15.723 Z4.999 
G1 X5.003 Y15.723 Z4.999 
G1 X5.003 Y15.720 Z4.999 
G1 X24.997 Y15.720 Z4.999 
G1 X24.997 Y15.718 Z4.999 
G1 X5.003 Y15.718 Z4.999 
G1 X5.003 Y15.715 Z4.999 
G1 X24.997 Y15.715 Z4.999 
G1 X24.997 Y15.713 Z4.999 
G1 X5.003 Y15.713 Z4.999 
G1 X5.003 Y15.710 Z4.999 
G1 X24.997 Y15.710 Z4.999 
G1 X24.997 Y15.708 Z4.999 
G1 X5.003 Y15.708 Z4.999 
G1 X5.003 Y15.705 Z4.999 
G1 X24.997 Y15.705 Z4.999 
G1 X24.997 Y15.703 Z4.999 
G1 X5.003 Y15.703 Z4.999 
G0 Z10.001 
G0 Z10.001 
G0 X5.003 Y15.703 
G0 Y17.133 
G0 Y17.133 Z8.001 
G1 X5.003 Y17.133 Z4.999 
G1 X24.997 Y17.133 Z4.999 
G1 X24.997 Y17.135 Z4.999 
G1 X5.003 Y17.135 Z4.999 
G1 X5.003 Y17.138 Z4.999 
G1 X24.997 Y17.138 Z4.999 
G1 X24.997 Y17.140 Z4.999 
G1 X5.003 Y17.140 Z4.999 
G1 X5.003 Y17.143 Z4.999 
G1 X24.997 Y17.143 Z4.999 
G1 X24.997 Y17.145 Z4.999 
G1 X5.003 Y17.145 Z4.999 
G1 X5.003 Y17.148 Z4.999 
G1 X24.997 Y17.148 Z4.999 
G1 X24.997 Y17.150 Z4.999 
G1 X5.003 Y17.150 Z4.999 
G1 X5.003 Y17.153 Z4.999 
G1 X24.997 Y17.153 Z4.999 
G1 X24.997 Y17.155 Z4.999 
G1 X5.003 Y17.155 Z4.999 
G1 X5.003 Y17.157 Z4.999 
G1 X24.997 Y17.157 Z4.999 
G0 Z10.001 
G0 Z10.001 
G0 X24.997 Y17.157 
G0 Y18.587 
G0 Y18.587 Z8.001 
G1 X24.997 Y18.587 Z4.999 
G1 X5.003 Y18.587 Z4.999 
G1 X5.003 Y18.585 Z4.999 
G1 X24.997 Y18.585 Z4.999 
G1 X24.997 Y18.583 Z4.999 
G1 X5.003 Y18.583 Z4.999 
G1 X5.003 Y18.580 Z4.999 
G1 X24.997 Y18.580 Z4.999 
G1 X24.997 Y18.578 Z4.999 
G1 X5.003 Y18.578 Z4.999 
G1 X5.003 Y18.575 Z4.999 
G1 X24.997 Y18.575 Z4.999 
G1 X24.997 Y18.573 Z4.999 
G1 X5.003 Y18.573 Z4.999 
G1 X5.003 Y18.570 Z4.999 
G1 X24.997 Y18.570 Z4.999 
G1 X24.997 Y18.568 Z4.999 
G1 X5.003 Y18.568 Z4.999 
G1 X5.003 Y18.565 Z4.999 
G1 X24.997 Y18.565 Z4.999 
G1 X24.997 Y18.563 Z4.999 
G1 X5.003 Y18.563 Z4.999 
G0 Z10.001 
G0 Z10.001 
G0 X5.003 Y18.563 
G0 Y19.993 
G0 Y19.993 Z8.001 
G1 X5.003 Y19.993 Z4.999 
G1 X24.997 Y19.993 Z4.999 
G1 X24.997 Y19.995 Z4.999 
G1 X5.003 Y19.995 Z4.999 
G1 X5.003 Y19.998 Z4.999 
G1 X24.997 Y19.998 Z4.999 
G1 X24.997 Y20.000 Z4.999 
G1 X5.003 Y20.000 Z4.999 
G1 X5.003 Y20.003 Z4.999 
G1 X24.997 Y20.003 Z4.999 
G1 X24.997 Y20.005 Z4.999 
G1 X5.003 Y20.005 Z4.999 
G1 X5.003 Y20.008 Z4.999 
G1 X24.997 Y20.008 Z4.999 
G1 X24.997 Y20.010 Z4.999 
G1 X5.003 Y20.010 Z4.999 
G1 X5.003 Y20.013 Z4.999 
G1 X24.997 Y20.013 Z4.999 
G1 X24.997 Y20.015 Z4.999 
G1 X5.003 Y20.015 Z4.999 
G1 X5.003 Y20.017 Z4.999 
G1 X24.997 Y20.017 Z4.999 
G0 Z10.001 
G0 Z10.001 
G0 X24.997 Y20.017 
G0 Y21.447 
G0 Y21.447 Z8.001 
G1 X24.997 Y21.447 Z4.999 
G1 X5.003 Y21.447 Z4.999 
G1 X5.003 Y21.445 Z4.999 
G1 X24.997 Y21.445 Z4.999 
G1 X24.997 Y21.443 Z4.999 
G1 X5.003 Y21.443 Z4.999 
G1 X5.003 Y21.440 Z4.999 
G1 X24.997 Y21.440 Z4.999 
G1 X24.997 Y21.438 Z4.999 
G1 X5.003 Y21.438 Z4.999 
G1 X5.003 Y21.435 Z4.999 
G1 X24.997 Y21.435 Z4.999 
G1 X24.997 Y21.433 Z4.999 
G1 X5.003 Y21.433 Z4.999 
G1 X5.003 Y21.430 Z4.999 
G1 X24.997 Y21.430 Z4.999 
G1 X24.997 Y21.428 Z4.999 
G1 X5.003 Y21.428 Z4.999 
G1 X5.003 Y21.425 Z4.999 
G1 X24.997 Y21.425 Z4.999 
G1 X24.997 Y21.423 Z4.999 
G1 X5.003 Y21.423 Z4.999 
G0 Z10.001 
G0 Z10.001 
G0 X5.003 Y21.423 
G0 Y22.853 
G0 Y22.853 Z8.001 
G1 X5.003 Y22.853 Z4.999 
G1 X24.997 Y22.853 Z4.999 
G1 X24.997 Y22.855 Z4.999 
G1 X5.003 Y22.855 Z4.999 
G1 X5.003 Y22.858 Z4.999 
G1 X24.997 Y22.858 Z4.999 
G1 X24.997 Y22.860 Z4.999 
G1 X5.003 Y22.860 Z4.999 
G1 X5.003 Y22.863 Z4.999 
G1 X24.997 Y22.863 Z4.999 
G1 X24.997 Y22.865 Z4.999 
G1 X5.003 Y22.865 Z4.999 
G1 X5.003 Y22.868 Z4.999 
G1 X24.997 Y22.868 Z4.999 
G1 X24.997 Y22.870 Z4.999 
G1 X5.003 Y22.870 Z4.999 
G1 X5.003 Y22.873 Z4.999 
G1 X24.997 Y22.873 Z4.999 
G1 X24.997 Y22.875 Z4.999 
G1 X5.003 Y22.875 Z4.999 
G1 X5.003 Y22.877 Z4.999 
G1 X24.997 Y22.877 Z4.999 
G0 Z10.001 
G0 Z10.001 
G0 X24.997 Y22.877 
G0 Y24.307 
G0 Y24.307 Z8.001 
G1 X24.997 Y24.307 Z4.999 
G1 X5.003 Y24.307 Z4.999 
G1 X5.003 Y24.305 Z4.999 
G1 X24.997 Y24.305 Z4.999 
G1 X24.997 Y24.303 Z4.999 
G1 X5.003 Y24.303 Z4.999 
G1 X5.003 Y24.300 Z4.999 
G1 X24.997 Y24.300 Z4.999 
G1 X24.997 Y24.298 Z4.999 
G1 X5.003 Y24.298 Z4.999 
G1 X5.003 Y24.295 Z4.999 
G1 X24.997 Y24.295 Z4.999 
G1 X24.997 Y24.293 Z4.999 
G1 X5.003 Y24.293 Z4.999 
G1 X5.003 Y24.290 Z4.999 
G1 X24.997 Y24.290 Z4.999 
G1 X24.997 Y24.288 Z4.999 
G1 X5.003 Y24.288 Z4.999 
G1 X5.003 Y24.285 Z4.999 
G1 X24.997 Y24.285 Z4.999 
G1 X24.997 Y24.283 Z4.999 
G1 X5.003 Y24.283 Z4.999 
G0 Z10.001 
G0 Z10.001 
G0 X5.003 Y24.283 
G0 Y25.713 
G0 Y25.713 Z8.001 
G1 X5.003 Y25.713 Z4.999 
G1 X24.997 Y25.713 Z4.999 
G1 X24.997 Y25.715 Z4.999 
G1 X5.003 Y25.715 Z4.999 
G1 X5.003 Y25.718 Z4.999 
G1 X24.997 Y25.718 Z4.999 
G1 X24.997 Y25.720 Z4.999 
G1 X5.003 Y25.720 Z4.999 
G1 X5.003 Y25.723 Z4.999 
G1 X24.997 Y25.723 Z4.999 
G1 X24.997 Y25.725 Z4.999 
G1 X5.003 Y25.725 Z4.999 
G1 X5.003 Y25.728 Z4.999 
G1 X24.997 Y25.728 Z4.999 
G1 X24.997 Y25.730 Z4.999 
G1 X5.003 Y25.730 Z4.999 
G1 X5.003 Y25.733 Z4.999 
G1 X24.997 Y25.733 Z4.999 
G1 X24.997 Y25.735 Z4.999 
G1 X5.003 Y25.735 Z4.999 
G1 X5.003 Y25.737 Z4.999 
G1 X24.997 Y25.737 Z4.999 
G0 Z10.001 
G0 Z10.001 
G0 X24.997 Y25.737 
G0 Y27.167 
G0 Y27.167 Z8.001 
G1 X24.997 Y27.167 Z4.999 
G1 X5.003 Y27.167 Z4.999 
G1 X5.003 Y27.165 Z4.999 
G1 X24.997 Y27.165 Z4.999 
G1 X24.997 Y27.163 Z4.999 
G1 X5.003 Y27.163 Z4.999 
G1 X5.003 Y27.160 Z4.999 
G1 X24.997 Y27.160 Z4.999 
G1 X24.997 Y27.158 Z4.999 
G1 X5.003 Y27.158 Z4.999 
G1 X5.003 Y27.155 Z4.999 
G1 X24.997 Y27.155 Z4.999 
G1 X24.997 Y27.153 Z4.999 
G1 X5.003 Y27.153 Z4.999 
G1 X5.003 Y27.150 Z4.999 
G1 X24.997 Y27.150 Z4.999 
G1 X24.997 Y27.148 Z4.999 
G1 X5.003 Y27.148 Z4.999 
G1 X5.003 Y27.145 Z4.999 
G1 X24.997 Y27.145 Z4.999 
G1 X24.997 Y27.143 Z4.999 
G1 X5.003 Y27.143 Z4.999 
G0 Z10.001 
G0 Z10.001 
G0 X5.003 Y27.143 
G0 Y28.573 
G0 Y28.573 Z8.001 
G1 X5.003 Y28.573 Z4.999 
G1 X24.997 Y28.573 Z4.999 
G1 X24.997 Y28.575 Z4.999 
G1 X5.003 Y28.575 Z4.999 
G1 X5.003 Y28.578 Z4.999 
G1 X24.997 Y28.578 Z4.999 
G1 X24.997 Y28.580 Z4.999 
G1 X5.003 Y28.580 Z4.999 
G1 X5.003 Y28.583 Z4.999 
G1 X24.997 Y28.583 Z4.999 
G1 X24.997 Y28.585 Z4.999 
G1 X5.003 Y28.585 Z4.999 
G1 X5.003 Y28.588 Z4.999 
G1 X24.997 Y28.588 Z4.999 
G1 X24.997 Y28.590 Z4.999 
G1 X5.003 Y28.590 Z4.999 
G1 X5.003 Y28.593 Z4.999 
G1 X24.997 Y28.593 Z4.999 
G1 X24.997 Y28.595 Z4.999 
G1 X5.003 Y28.595 Z4.999 
G1 X5.003 Y28.597 Z4.999 
G1 X24.997 Y28.597 Z4.999 
G0 Z10.001 
G0 Z10.001 
(finish operation: Pocket_Shape)
(begin postamble)
M05
G17 G54 G90 G80 G40
M2
