(Exported by FreeCAD)
(Post Processor: script_module)
(Output Time:2025-05-26 12:19:41.065983)
(begin preamble)
G17 G54 G40 G49 G80 G90
G21
(begin operation: Fixture)
(machine units: mm/min)
G54 
(finish operation: Fixture)
(begin operation: TC: Default Tool)
(machine units: mm/min)
(TC: Default Tool) 
M5
M6 T1 
G43 H1 
(finish operation: TC: Default Tool)
(begin operation: Pocket_Shape)
(machine units: mm/min)
(Pocket_Shape) 
G0 Z10.001 
G0 X2.496 Y2.590 
G0 Z8.001 
G1 X2.496 Y2.590 Z4.996 
G1 X2.254 Y2.590 Z4.996 
G2 X2.486 Y2.593 Z4.996 I0.121 J-0.432 
G3 X2.273 Y2.595 Z4.996 I-0.111 J-0.397 
G2 X2.468 Y2.598 Z4.996 I0.102 J-0.362 
G3 X2.292 Y2.600 Z4.996 I-0.093 J-0.327 
G2 X2.449 Y2.603 Z4.996 I0.083 J-0.292 
G3 X2.310 Y2.605 Z4.996 I-0.074 J-0.257 
G2 X2.430 Y2.608 Z4.996 I0.065 J-0.223 
G3 X2.329 Y2.610 Z4.996 I-0.055 J-0.188 
G2 X2.412 Y2.613 Z4.996 I0.046 J-0.153 
G3 X2.348 Y2.615 Z4.996 I-0.037 J-0.118 
G2 X2.393 Y2.618 Z4.996 I0.027 J-0.083 
G3 X2.366 Y2.620 Z4.996 I-0.018 J-0.049 
G1 X2.375 Y2.622 Z4.996 
G0 Z10.001 
G0 X2.251 Y2.589 Z10.001 
G0 X2.251 Y2.589 Z8.001 
G1 X2.251 Y2.589 Z4.996 
G2 X2.496 Y2.590 Z4.996 I0.124 J-0.456 
G2 X2.500 Y2.588 Z4.996 I0.000 J-0.005 
G1 X2.250 Y2.588 Z4.996 
G1 X2.247 Y2.585 Z4.996 
G1 X2.503 Y2.585 Z4.996 
G1 X2.505 Y2.583 Z4.996 
G1 X2.245 Y2.583 Z4.996 
G1 X2.242 Y2.580 Z4.996 
G1 X2.508 Y2.580 Z4.996 
G1 X2.510 Y2.578 Z4.996 
G1 X2.240 Y2.578 Z4.996 
G1 X2.237 Y2.575 Z4.996 
G1 X2.513 Y2.575 Z4.996 
G1 X2.515 Y2.573 Z4.996 
G1 X2.235 Y2.573 Z4.996 
G1 X2.232 Y2.570 Z4.996 
G1 X2.518 Y2.570 Z4.996 
G1 X2.520 Y2.568 Z4.996 
G1 X2.230 Y2.568 Z4.996 
G1 X2.227 Y2.565 Z4.996 
G1 X2.523 Y2.565 Z4.996 
G1 X2.525 Y2.563 Z4.996 
G1 X2.225 Y2.563 Z4.996 
G1 X2.222 Y2.560 Z4.996 
G1 X2.528 Y2.560 Z4.996 
G1 X2.530 Y2.558 Z4.996 
G1 X2.220 Y2.558 Z4.996 
G1 X2.217 Y2.555 Z4.996 
G1 X2.533 Y2.555 Z4.996 
G1 X2.535 Y2.553 Z4.996 
G1 X2.215 Y2.553 Z4.996 
G1 X2.212 Y2.550 Z4.996 
G1 X2.538 Y2.550 Z4.996 
G1 X2.540 Y2.548 Z4.996 
G1 X2.210 Y2.548 Z4.996 
G1 X2.207 Y2.545 Z4.996 
G1 X2.543 Y2.545 Z4.996 
G1 X2.545 Y2.543 Z4.996 
G1 X2.205 Y2.543 Z4.996 
G1 X2.202 Y2.540 Z4.996 
G1 X2.548 Y2.540 Z4.996 
G1 X2.550 Y2.538 Z4.996 
G1 X2.200 Y2.538 Z4.996 
G1 X2.197 Y2.535 Z4.996 
G1 X2.553 Y2.535 Z4.996 
G1 X2.555 Y2.533 Z4.996 
G1 X2.195 Y2.533 Z4.996 
G1 X2.192 Y2.530 Z4.996 
G1 X2.558 Y2.530 Z4.996 
G1 X2.560 Y2.528 Z4.996 
G1 X2.190 Y2.528 Z4.996 
G1 X2.187 Y2.525 Z4.996 
G1 X2.563 Y2.525 Z4.996 
G1 X2.565 Y2.523 Z4.996 
G1 X2.185 Y2.523 Z4.996 
G1 X2.182 Y2.520 Z4.996 
G1 X2.568 Y2.520 Z4.996 
G1 X2.570 Y2.518 Z4.996 
G1 X2.180 Y2.518 Z4.996 
G1 X2.177 Y2.515 Z4.996 
G1 X2.573 Y2.515 Z4.996 
G1 X2.575 Y2.513 Z4.996 
G1 X2.175 Y2.513 Z4.996 
G1 X2.172 Y2.510 Z4.996 
G1 X2.578 Y2.510 Z4.996 
G1 X2.580 Y2.508 Z4.996 
G1 X2.170 Y2.508 Z4.996 
G1 X2.167 Y2.505 Z4.996 
G1 X2.583 Y2.505 Z4.996 
G1 X2.585 Y2.503 Z4.996 
G1 X2.165 Y2.503 Z4.996 
G1 X2.162 Y2.500 Z4.996 
G1 X2.589 Y2.499 Z4.996 
G1 X2.590 Y2.498 Z4.996 
G1 X2.160 Y2.498 Z4.996 
G1 X2.160 Y2.495 Z4.996 
G1 X2.590 Y2.495 Z4.996 
G1 X2.591 Y2.493 Z4.996 
G1 X2.159 Y2.493 Z4.996 
G1 X2.158 Y2.490 Z4.996 
G1 X2.592 Y2.490 Z4.996 
G1 X2.592 Y2.488 Z4.996 
G1 X2.158 Y2.488 Z4.996 
G1 X2.157 Y2.485 Z4.996 
G1 X2.593 Y2.485 Z4.996 
G1 X2.594 Y2.483 Z4.996 
G1 X2.156 Y2.483 Z4.996 
G1 X2.156 Y2.480 Z4.996 
G1 X2.594 Y2.480 Z4.996 
G1 X2.595 Y2.478 Z4.996 
G1 X2.155 Y2.478 Z4.996 
G1 X2.154 Y2.475 Z4.996 
G1 X2.596 Y2.475 Z4.996 
G1 X2.596 Y2.473 Z4.996 
G1 X2.154 Y2.473 Z4.996 
G1 X2.153 Y2.470 Z4.996 
G1 X2.597 Y2.470 Z4.996 
G1 X2.598 Y2.468 Z4.996 
G1 X2.152 Y2.468 Z4.996 
G1 X2.152 Y2.465 Z4.996 
G1 X2.598 Y2.465 Z4.996 
G1 X2.599 Y2.463 Z4.996 
G1 X2.151 Y2.463 Z4.996 
G1 X2.150 Y2.460 Z4.996 
G1 X2.600 Y2.460 Z4.996 
G1 X2.600 Y2.458 Z4.996 
G1 X2.150 Y2.458 Z4.996 
G1 X2.149 Y2.455 Z4.996 
G1 X2.601 Y2.455 Z4.996 
G1 X2.602 Y2.453 Z4.996 
G1 X2.148 Y2.453 Z4.996 
G1 X2.148 Y2.450 Z4.996 
G1 X2.602 Y2.450 Z4.996 
G1 X2.603 Y2.448 Z4.996 
G1 X2.147 Y2.448 Z4.996 
G1 X2.146 Y2.445 Z4.996 
G1 X2.604 Y2.445 Z4.996 
G1 X2.604 Y2.443 Z4.996 
G1 X2.146 Y2.443 Z4.996 
G1 X2.145 Y2.440 Z4.996 
G1 X2.605 Y2.440 Z4.996 
G1 X2.606 Y2.438 Z4.996 
G1 X2.144 Y2.438 Z4.996 
G1 X2.144 Y2.435 Z4.996 
G1 X2.606 Y2.435 Z4.996 
G1 X2.607 Y2.433 Z4.996 
G1 X2.143 Y2.433 Z4.996 
G1 X2.142 Y2.430 Z4.996 
G1 X2.608 Y2.430 Z4.996 
G1 X2.608 Y2.428 Z4.996 
G1 X2.142 Y2.428 Z4.996 
G1 X2.141 Y2.425 Z4.996 
G1 X2.609 Y2.425 Z4.996 
G1 X2.610 Y2.423 Z4.996 
G1 X2.140 Y2.423 Z4.996 
G1 X2.140 Y2.420 Z4.996 
G1 X2.610 Y2.420 Z4.996 
G1 X2.611 Y2.418 Z4.996 
G1 X2.139 Y2.418 Z4.996 
G1 X2.138 Y2.415 Z4.996 
G1 X2.612 Y2.415 Z4.996 
G1 X2.612 Y2.413 Z4.996 
G1 X2.138 Y2.413 Z4.996 
G1 X2.137 Y2.410 Z4.996 
G1 X2.613 Y2.410 Z4.996 
G1 X2.614 Y2.408 Z4.996 
G1 X2.136 Y2.408 Z4.996 
G1 X2.136 Y2.405 Z4.996 
G1 X2.614 Y2.405 Z4.996 
G1 X2.615 Y2.403 Z4.996 
G1 X2.135 Y2.403 Z4.996 
G1 X2.134 Y2.400 Z4.996 
G1 X2.616 Y2.400 Z4.996 
G1 X2.616 Y2.398 Z4.996 
G1 X2.134 Y2.398 Z4.996 
G1 X2.133 Y2.395 Z4.996 
G1 X2.617 Y2.395 Z4.996 
G1 X2.618 Y2.393 Z4.996 
G1 X2.132 Y2.393 Z4.996 
G1 X2.132 Y2.390 Z4.996 
G1 X2.618 Y2.390 Z4.996 
G1 X2.619 Y2.388 Z4.996 
G1 X2.131 Y2.388 Z4.996 
G1 X2.130 Y2.385 Z4.996 
G1 X2.620 Y2.385 Z4.996 
G1 X2.620 Y2.383 Z4.996 
G1 X2.130 Y2.383 Z4.996 
G1 X2.129 Y2.380 Z4.996 
G1 X2.621 Y2.380 Z4.996 
G1 X2.622 Y2.378 Z4.996 
G1 X2.128 Y2.378 Z4.996 
G1 X2.128 Y2.375 Z4.996 
G1 X2.622 Y2.375 Z4.996 
G1 X2.622 Y2.373 Z4.996 
G1 X2.128 Y2.373 Z4.996 
G1 X2.129 Y2.370 Z4.996 
G1 X2.621 Y2.370 Z4.996 
G1 X2.620 Y2.368 Z4.996 
G1 X2.130 Y2.368 Z4.996 
G1 X2.130 Y2.365 Z4.996 
G1 X2.620 Y2.365 Z4.996 
G1 X2.619 Y2.363 Z4.996 
G1 X2.131 Y2.363 Z4.996 
G1 X2.132 Y2.360 Z4.996 
G1 X2.618 Y2.360 Z4.996 
G1 X2.618 Y2.358 Z4.996 
G1 X2.132 Y2.358 Z4.996 
G1 X2.133 Y2.355 Z4.996 
G1 X2.617 Y2.355 Z4.996 
G1 X2.616 Y2.353 Z4.996 
G1 X2.134 Y2.353 Z4.996 
G1 X2.134 Y2.350 Z4.996 
G1 X2.616 Y2.350 Z4.996 
G1 X2.615 Y2.348 Z4.996 
G1 X2.135 Y2.348 Z4.996 
G1 X2.136 Y2.345 Z4.996 
G1 X2.614 Y2.345 Z4.996 
G1 X2.614 Y2.343 Z4.996 
G1 X2.136 Y2.343 Z4.996 
G1 X2.137 Y2.340 Z4.996 
G1 X2.613 Y2.340 Z4.996 
G1 X2.612 Y2.338 Z4.996 
G1 X2.138 Y2.338 Z4.996 
G1 X2.138 Y2.335 Z4.996 
G1 X2.612 Y2.335 Z4.996 
G1 X2.611 Y2.333 Z4.996 
G1 X2.139 Y2.333 Z4.996 
G1 X2.140 Y2.330 Z4.996 
G1 X2.610 Y2.330 Z4.996 
G1 X2.610 Y2.328 Z4.996 
G1 X2.140 Y2.328 Z4.996 
G1 X2.141 Y2.325 Z4.996 
G1 X2.609 Y2.325 Z4.996 
G1 X2.608 Y2.323 Z4.996 
G1 X2.142 Y2.323 Z4.996 
G1 X2.142 Y2.320 Z4.996 
G1 X2.608 Y2.320 Z4.996 
G1 X2.607 Y2.318 Z4.996 
G1 X2.143 Y2.318 Z4.996 
G1 X2.144 Y2.315 Z4.996 
G1 X2.606 Y2.315 Z4.996 
G1 X2.606 Y2.313 Z4.996 
G1 X2.144 Y2.313 Z4.996 
G1 X2.145 Y2.310 Z4.996 
G1 X2.605 Y2.310 Z4.996 
G1 X2.604 Y2.308 Z4.996 
G1 X2.146 Y2.308 Z4.996 
G1 X2.146 Y2.305 Z4.996 
G1 X2.604 Y2.305 Z4.996 
G1 X2.603 Y2.303 Z4.996 
G1 X2.147 Y2.303 Z4.996 
G1 X2.148 Y2.300 Z4.996 
G1 X2.602 Y2.300 Z4.996 
G1 X2.602 Y2.298 Z4.996 
G1 X2.148 Y2.298 Z4.996 
G1 X2.149 Y2.295 Z4.996 
G1 X2.601 Y2.295 Z4.996 
G1 X2.600 Y2.293 Z4.996 
G1 X2.150 Y2.293 Z4.996 
G1 X2.150 Y2.290 Z4.996 
G1 X2.600 Y2.290 Z4.996 
G1 X2.599 Y2.288 Z4.996 
G1 X2.151 Y2.288 Z4.996 
G1 X2.152 Y2.285 Z4.996 
G1 X2.598 Y2.285 Z4.996 
G1 X2.598 Y2.283 Z4.996 
G1 X2.152 Y2.283 Z4.996 
G1 X2.153 Y2.280 Z4.996 
G1 X2.597 Y2.280 Z4.996 
G1 X2.596 Y2.278 Z4.996 
G1 X2.154 Y2.278 Z4.996 
G1 X2.154 Y2.275 Z4.996 
G1 X2.596 Y2.275 Z4.996 
G1 X2.595 Y2.273 Z4.996 
G1 X2.155 Y2.273 Z4.996 
G1 X2.156 Y2.270 Z4.996 
G1 X2.594 Y2.270 Z4.996 
G1 X2.594 Y2.268 Z4.996 
G1 X2.156 Y2.268 Z4.996 
G1 X2.157 Y2.265 Z4.996 
G1 X2.593 Y2.265 Z4.996 
G1 X2.592 Y2.263 Z4.996 
G1 X2.158 Y2.263 Z4.996 
G1 X2.158 Y2.260 Z4.996 
G1 X2.592 Y2.260 Z4.996 
G1 X2.591 Y2.258 Z4.996 
G1 X2.159 Y2.258 Z4.996 
G1 X2.160 Y2.255 Z4.996 
G1 X2.590 Y2.255 Z4.996 
G1 X2.590 Y2.253 Z4.996 
G1 X2.160 Y2.253 Z4.996 
G3 X2.162 Y2.250 Z4.996 I0.003 J0.000 
G1 X2.588 Y2.250 Z4.996 
G1 X2.586 Y2.248 Z4.996 
G1 X2.164 Y2.248 Z4.996 
G1 X2.167 Y2.245 Z4.996 
G1 X2.583 Y2.245 Z4.996 
G1 X2.581 Y2.243 Z4.996 
G1 X2.169 Y2.243 Z4.996 
G1 X2.172 Y2.240 Z4.996 
G1 X2.578 Y2.240 Z4.996 
G1 X2.576 Y2.238 Z4.996 
G1 X2.174 Y2.238 Z4.996 
G1 X2.177 Y2.235 Z4.996 
G1 X2.573 Y2.235 Z4.996 
G1 X2.571 Y2.233 Z4.996 
G1 X2.179 Y2.233 Z4.996 
G1 X2.182 Y2.230 Z4.996 
G1 X2.568 Y2.230 Z4.996 
G1 X2.566 Y2.228 Z4.996 
G1 X2.184 Y2.228 Z4.996 
G1 X2.187 Y2.225 Z4.996 
G1 X2.563 Y2.225 Z4.996 
G1 X2.561 Y2.223 Z4.996 
G1 X2.189 Y2.223 Z4.996 
G1 X2.192 Y2.220 Z4.996 
G1 X2.558 Y2.220 Z4.996 
G1 X2.556 Y2.218 Z4.996 
G1 X2.194 Y2.218 Z4.996 
G1 X2.197 Y2.215 Z4.996 
G1 X2.553 Y2.215 Z4.996 
G1 X2.551 Y2.213 Z4.996 
G1 X2.199 Y2.213 Z4.996 
G1 X2.202 Y2.210 Z4.996 
G1 X2.548 Y2.210 Z4.996 
G1 X2.546 Y2.208 Z4.996 
G1 X2.204 Y2.208 Z4.996 
G1 X2.207 Y2.205 Z4.996 
G1 X2.543 Y2.205 Z4.996 
G1 X2.541 Y2.203 Z4.996 
G1 X2.209 Y2.203 Z4.996 
G1 X2.212 Y2.200 Z4.996 
G1 X2.538 Y2.200 Z4.996 
G1 X2.536 Y2.198 Z4.996 
G1 X2.214 Y2.198 Z4.996 
G1 X2.217 Y2.195 Z4.996 
G1 X2.533 Y2.195 Z4.996 
G1 X2.531 Y2.193 Z4.996 
G1 X2.219 Y2.193 Z4.996 
G1 X2.222 Y2.190 Z4.996 
G1 X2.528 Y2.190 Z4.996 
G1 X2.526 Y2.188 Z4.996 
G1 X2.224 Y2.188 Z4.996 
G1 X2.227 Y2.185 Z4.996 
G1 X2.523 Y2.185 Z4.996 
G1 X2.521 Y2.183 Z4.996 
G1 X2.229 Y2.183 Z4.996 
G1 X2.232 Y2.180 Z4.996 
G1 X2.518 Y2.180 Z4.996 
G1 X2.516 Y2.178 Z4.996 
G1 X2.234 Y2.178 Z4.996 
G1 X2.237 Y2.175 Z4.996 
G1 X2.513 Y2.175 Z4.996 
G1 X2.511 Y2.173 Z4.996 
G1 X2.239 Y2.173 Z4.996 
G1 X2.242 Y2.170 Z4.996 
G1 X2.508 Y2.170 Z4.996 
G1 X2.506 Y2.168 Z4.996 
G1 X2.244 Y2.168 Z4.996 
G1 X2.247 Y2.165 Z4.996 
G1 X2.503 Y2.165 Z4.996 
G1 X2.501 Y2.163 Z4.996 
G1 X2.249 Y2.163 Z4.996 
G1 X2.251 Y2.161 Z4.996 
G3 X2.499 Y2.161 Z4.996 I0.124 J0.457 
G0 Z10.001 
G0 X2.375 Y2.128 Z10.001 
G0 X2.375 Y2.128 Z8.001 
G1 X2.375 Y2.128 Z4.996 
G1 X2.384 Y2.130 Z4.996 
G2 X2.356 Y2.133 Z4.996 I-0.009 J0.053 
G3 X2.403 Y2.135 Z4.996 I0.019 J0.088 
G2 X2.338 Y2.138 Z4.996 I-0.028 J0.123 
G3 X2.422 Y2.140 Z4.996 I0.037 J0.158 
G2 X2.319 Y2.143 Z4.996 I-0.047 J0.193 
G3 X2.440 Y2.145 Z4.996 I0.056 J0.228 
G2 X2.300 Y2.148 Z4.996 I-0.065 J0.262 
G3 X2.459 Y2.150 Z4.996 I0.075 J0.297 
G2 X2.282 Y2.153 Z4.996 I-0.084 J0.332 
G3 X2.478 Y2.155 Z4.996 I0.093 J0.367 
G2 X2.263 Y2.158 Z4.996 I-0.103 J0.402 
G3 X2.496 Y2.160 Z4.996 I0.112 J0.437 
G1 X2.254 Y2.160 Z4.996 
G1 X2.254 Y2.160 Z4.991 
G1 X2.496 Y2.160 Z4.991 
G2 X2.263 Y2.158 Z4.991 I-0.121 J0.434 
G3 X2.478 Y2.155 Z4.991 I0.112 J0.399 
G2 X2.282 Y2.153 Z4.991 I-0.103 J0.364 
G3 X2.459 Y2.150 Z4.991 I0.093 J0.330 
G2 X2.300 Y2.148 Z4.991 I-0.084 J0.295 
G3 X2.440 Y2.145 Z4.991 I0.075 J0.260 
G2 X2.319 Y2.143 Z4.991 I-0.065 J0.225 
G3 X2.422 Y2.140 Z4.991 I0.056 J0.190 
G2 X2.338 Y2.138 Z4.991 I-0.047 J0.155 
G3 X2.403 Y2.135 Z4.991 I0.037 J0.121 
G2 X2.356 Y2.133 Z4.991 I-0.028 J0.086 
G3 X2.384 Y2.130 Z4.991 I0.019 J0.051 
G1 X2.375 Y2.128 Z4.991 
G0 Z10.001 
G0 X2.499 Y2.161 Z10.001 
G0 X2.499 Y2.161 Z8.001 
G1 X2.499 Y2.161 Z4.991 
G2 X2.251 Y2.161 Z4.991 I-0.124 J0.457 
G1 X2.249 Y2.163 Z4.991 
G1 X2.501 Y2.163 Z4.991 
G1 X2.503 Y2.165 Z4.991 
G1 X2.247 Y2.165 Z4.991 
G1 X2.244 Y2.168 Z4.991 
G1 X2.506 Y2.168 Z4.991 
G1 X2.508 Y2.170 Z4.991 
G1 X2.242 Y2.170 Z4.991 
G1 X2.239 Y2.173 Z4.991 
G1 X2.511 Y2.173 Z4.991 
G1 X2.513 Y2.175 Z4.991 
G1 X2.237 Y2.175 Z4.991 
G1 X2.234 Y2.178 Z4.991 
G1 X2.516 Y2.178 Z4.991 
G1 X2.518 Y2.180 Z4.991 
G1 X2.232 Y2.180 Z4.991 
G1 X2.229 Y2.183 Z4.991 
G1 X2.521 Y2.183 Z4.991 
G1 X2.523 Y2.185 Z4.991 
G1 X2.227 Y2.185 Z4.991 
G1 X2.224 Y2.188 Z4.991 
G1 X2.526 Y2.188 Z4.991 
G1 X2.528 Y2.190 Z4.991 
G1 X2.222 Y2.190 Z4.991 
G1 X2.219 Y2.193 Z4.991 
G1 X2.531 Y2.193 Z4.991 
G1 X2.533 Y2.195 Z4.991 
G1 X2.217 Y2.195 Z4.991 
G1 X2.214 Y2.198 Z4.991 
G1 X2.536 Y2.198 Z4.991 
G1 X2.538 Y2.200 Z4.991 
G1 X2.212 Y2.200 Z4.991 
G1 X2.209 Y2.203 Z4.991 
G1 X2.541 Y2.203 Z4.991 
G1 X2.543 Y2.205 Z4.991 
G1 X2.207 Y2.205 Z4.991 
G1 X2.204 Y2.208 Z4.991 
G1 X2.546 Y2.208 Z4.991 
G1 X2.548 Y2.210 Z4.991 
G1 X2.202 Y2.210 Z4.991 
G1 X2.199 Y2.213 Z4.991 
G1 X2.551 Y2.213 Z4.991 
G1 X2.553 Y2.215 Z4.991 
G1 X2.197 Y2.215 Z4.991 
G1 X2.194 Y2.218 Z4.991 
G1 X2.556 Y2.218 Z4.991 
G1 X2.558 Y2.220 Z4.991 
G1 X2.192 Y2.220 Z4.991 
G1 X2.189 Y2.223 Z4.991 
G1 X2.561 Y2.223 Z4.991 
G1 X2.563 Y2.225 Z4.991 
G1 X2.187 Y2.225 Z4.991 
G1 X2.184 Y2.228 Z4.991 
G1 X2.566 Y2.228 Z4.991 
G1 X2.568 Y2.230 Z4.991 
G1 X2.182 Y2.230 Z4.991 
G1 X2.179 Y2.233 Z4.991 
G1 X2.571 Y2.233 Z4.991 
G1 X2.573 Y2.235 Z4.991 
G1 X2.177 Y2.235 Z4.991 
G1 X2.174 Y2.238 Z4.991 
G1 X2.576 Y2.238 Z4.991 
G1 X2.578 Y2.240 Z4.991 
G1 X2.172 Y2.240 Z4.991 
G1 X2.169 Y2.243 Z4.991 
G1 X2.581 Y2.243 Z4.991 
G1 X2.583 Y2.245 Z4.991 
G1 X2.167 Y2.245 Z4.991 
G1 X2.164 Y2.248 Z4.991 
G1 X2.586 Y2.248 Z4.991 
G1 X2.588 Y2.250 Z4.991 
G1 X2.162 Y2.250 Z4.991 
G2 X2.160 Y2.253 Z4.991 I0.001 J0.003 
G1 X2.590 Y2.253 Z4.991 
G1 X2.590 Y2.255 Z4.991 
G1 X2.160 Y2.255 Z4.991 
G1 X2.159 Y2.258 Z4.991 
G1 X2.591 Y2.258 Z4.991 
G1 X2.592 Y2.260 Z4.991 
G1 X2.158 Y2.260 Z4.991 
G1 X2.158 Y2.263 Z4.991 
G1 X2.592 Y2.263 Z4.991 
G1 X2.593 Y2.265 Z4.991 
G1 X2.157 Y2.265 Z4.991 
G1 X2.156 Y2.268 Z4.991 
G1 X2.594 Y2.268 Z4.991 
G1 X2.594 Y2.270 Z4.991 
G1 X2.156 Y2.270 Z4.991 
G1 X2.155 Y2.273 Z4.991 
G1 X2.595 Y2.273 Z4.991 
G1 X2.596 Y2.275 Z4.991 
G1 X2.154 Y2.275 Z4.991 
G1 X2.154 Y2.278 Z4.991 
G1 X2.596 Y2.278 Z4.991 
G1 X2.597 Y2.280 Z4.991 
G1 X2.153 Y2.280 Z4.991 
G1 X2.152 Y2.283 Z4.991 
G1 X2.598 Y2.283 Z4.991 
G1 X2.598 Y2.285 Z4.991 
G1 X2.152 Y2.285 Z4.991 
G1 X2.151 Y2.288 Z4.991 
G1 X2.599 Y2.288 Z4.991 
G1 X2.600 Y2.290 Z4.991 
G1 X2.150 Y2.290 Z4.991 
G1 X2.150 Y2.293 Z4.991 
G1 X2.600 Y2.293 Z4.991 
G1 X2.601 Y2.295 Z4.991 
G1 X2.149 Y2.295 Z4.991 
G1 X2.148 Y2.298 Z4.991 
G1 X2.602 Y2.298 Z4.991 
G1 X2.602 Y2.300 Z4.991 
G1 X2.148 Y2.300 Z4.991 
G1 X2.147 Y2.303 Z4.991 
G1 X2.603 Y2.303 Z4.991 
G1 X2.604 Y2.305 Z4.991 
G1 X2.146 Y2.305 Z4.991 
G1 X2.146 Y2.308 Z4.991 
G1 X2.604 Y2.308 Z4.991 
G1 X2.605 Y2.310 Z4.991 
G1 X2.145 Y2.310 Z4.991 
G1 X2.144 Y2.313 Z4.991 
G1 X2.606 Y2.313 Z4.991 
G1 X2.606 Y2.315 Z4.991 
G1 X2.144 Y2.315 Z4.991 
G1 X2.143 Y2.318 Z4.991 
G1 X2.607 Y2.318 Z4.991 
G1 X2.608 Y2.320 Z4.991 
G1 X2.142 Y2.320 Z4.991 
G1 X2.142 Y2.323 Z4.991 
G1 X2.608 Y2.323 Z4.991 
G1 X2.609 Y2.325 Z4.991 
G1 X2.141 Y2.325 Z4.991 
G1 X2.140 Y2.328 Z4.991 
G1 X2.610 Y2.328 Z4.991 
G1 X2.610 Y2.330 Z4.991 
G1 X2.140 Y2.330 Z4.991 
G1 X2.139 Y2.333 Z4.991 
G1 X2.611 Y2.333 Z4.991 
G1 X2.612 Y2.335 Z4.991 
G1 X2.138 Y2.335 Z4.991 
G1 X2.138 Y2.338 Z4.991 
G1 X2.612 Y2.338 Z4.991 
G1 X2.613 Y2.340 Z4.991 
G1 X2.137 Y2.340 Z4.991 
G1 X2.136 Y2.343 Z4.991 
G1 X2.614 Y2.343 Z4.991 
G1 X2.614 Y2.345 Z4.991 
G1 X2.136 Y2.345 Z4.991 
G1 X2.135 Y2.348 Z4.991 
G1 X2.615 Y2.348 Z4.991 
G1 X2.616 Y2.350 Z4.991 
G1 X2.134 Y2.350 Z4.991 
G1 X2.134 Y2.353 Z4.991 
G1 X2.616 Y2.353 Z4.991 
G1 X2.617 Y2.355 Z4.991 
G1 X2.133 Y2.355 Z4.991 
G1 X2.132 Y2.358 Z4.991 
G1 X2.618 Y2.358 Z4.991 
G1 X2.618 Y2.360 Z4.991 
G1 X2.132 Y2.360 Z4.991 
G1 X2.131 Y2.363 Z4.991 
G1 X2.619 Y2.363 Z4.991 
G1 X2.620 Y2.365 Z4.991 
G1 X2.130 Y2.365 Z4.991 
G1 X2.130 Y2.368 Z4.991 
G1 X2.620 Y2.368 Z4.991 
G1 X2.621 Y2.370 Z4.991 
G1 X2.129 Y2.370 Z4.991 
G1 X2.128 Y2.373 Z4.991 
G1 X2.622 Y2.373 Z4.991 
G1 X2.622 Y2.375 Z4.991 
G1 X2.128 Y2.375 Z4.991 
G1 X2.128 Y2.378 Z4.991 
G1 X2.622 Y2.378 Z4.991 
G1 X2.621 Y2.380 Z4.991 
G1 X2.129 Y2.380 Z4.991 
G1 X2.130 Y2.383 Z4.991 
G1 X2.620 Y2.383 Z4.991 
G1 X2.620 Y2.385 Z4.991 
G1 X2.130 Y2.385 Z4.991 
G1 X2.131 Y2.388 Z4.991 
G1 X2.619 Y2.388 Z4.991 
G1 X2.618 Y2.390 Z4.991 
G1 X2.132 Y2.390 Z4.991 
G1 X2.132 Y2.393 Z4.991 
G1 X2.618 Y2.393 Z4.991 
G1 X2.617 Y2.395 Z4.991 
G1 X2.133 Y2.395 Z4.991 
G1 X2.134 Y2.398 Z4.991 
G1 X2.616 Y2.398 Z4.991 
G1 X2.616 Y2.400 Z4.991 
G1 X2.134 Y2.400 Z4.991 
G1 X2.135 Y2.403 Z4.991 
G1 X2.615 Y2.403 Z4.991 
G1 X2.614 Y2.405 Z4.991 
G1 X2.136 Y2.405 Z4.991 
G1 X2.136 Y2.408 Z4.991 
G1 X2.614 Y2.408 Z4.991 
G1 X2.613 Y2.410 Z4.991 
G1 X2.137 Y2.410 Z4.991 
G1 X2.138 Y2.413 Z4.991 
G1 X2.612 Y2.413 Z4.991 
G1 X2.612 Y2.415 Z4.991 
G1 X2.138 Y2.415 Z4.991 
G1 X2.139 Y2.418 Z4.991 
G1 X2.611 Y2.418 Z4.991 
G1 X2.610 Y2.420 Z4.991 
G1 X2.140 Y2.420 Z4.991 
G1 X2.140 Y2.423 Z4.991 
G1 X2.610 Y2.423 Z4.991 
G1 X2.609 Y2.425 Z4.991 
G1 X2.141 Y2.425 Z4.991 
G1 X2.142 Y2.428 Z4.991 
G1 X2.608 Y2.428 Z4.991 
G1 X2.608 Y2.430 Z4.991 
G1 X2.142 Y2.430 Z4.991 
G1 X2.143 Y2.433 Z4.991 
G1 X2.607 Y2.433 Z4.991 
G1 X2.606 Y2.435 Z4.991 
G1 X2.144 Y2.435 Z4.991 
G1 X2.144 Y2.438 Z4.991 
G1 X2.606 Y2.438 Z4.991 
G1 X2.605 Y2.440 Z4.991 
G1 X2.145 Y2.440 Z4.991 
G1 X2.146 Y2.443 Z4.991 
G1 X2.604 Y2.443 Z4.991 
G1 X2.604 Y2.445 Z4.991 
G1 X2.146 Y2.445 Z4.991 
G1 X2.147 Y2.448 Z4.991 
G1 X2.603 Y2.448 Z4.991 
G1 X2.602 Y2.450 Z4.991 
G1 X2.148 Y2.450 Z4.991 
G1 X2.148 Y2.453 Z4.991 
G1 X2.602 Y2.453 Z4.991 
G1 X2.601 Y2.455 Z4.991 
G1 X2.149 Y2.455 Z4.991 
G1 X2.150 Y2.458 Z4.991 
G1 X2.600 Y2.458 Z4.991 
G1 X2.600 Y2.460 Z4.991 
G1 X2.150 Y2.460 Z4.991 
G1 X2.151 Y2.463 Z4.991 
G1 X2.599 Y2.463 Z4.991 
G1 X2.598 Y2.465 Z4.991 
G1 X2.152 Y2.465 Z4.991 
G1 X2.152 Y2.468 Z4.991 
G1 X2.598 Y2.468 Z4.991 
G1 X2.597 Y2.470 Z4.991 
G1 X2.153 Y2.470 Z4.991 
G1 X2.154 Y2.473 Z4.991 
G1 X2.596 Y2.473 Z4.991 
G1 X2.596 Y2.475 Z4.991 
G1 X2.154 Y2.475 Z4.991 
G1 X2.155 Y2.478 Z4.991 
G1 X2.595 Y2.478 Z4.991 
G1 X2.594 Y2.480 Z4.991 
G1 X2.156 Y2.480 Z4.991 
G1 X2.156 Y2.483 Z4.991 
G1 X2.594 Y2.483 Z4.991 
G1 X2.593 Y2.485 Z4.991 
G1 X2.157 Y2.485 Z4.991 
G1 X2.158 Y2.488 Z4.991 
G1 X2.592 Y2.488 Z4.991 
G1 X2.592 Y2.490 Z4.991 
G1 X2.158 Y2.490 Z4.991 
G1 X2.159 Y2.493 Z4.991 
G1 X2.591 Y2.493 Z4.991 
G1 X2.590 Y2.495 Z4.991 
G1 X2.160 Y2.495 Z4.991 
G1 X2.160 Y2.498 Z4.991 
G1 X2.590 Y2.498 Z4.991 
G1 X2.589 Y2.499 Z4.991 
G1 X2.162 Y2.500 Z4.991 
G1 X2.165 Y2.503 Z4.991 
G1 X2.585 Y2.503 Z4.991 
G1 X2.583 Y2.505 Z4.991 
G1 X2.167 Y2.505 Z4.991 
G1 X2.170 Y2.508 Z4.991 
G1 X2.580 Y2.508 Z4.991 
G1 X2.578 Y2.510 Z4.991 
G1 X2.172 Y2.510 Z4.991 
G1 X2.175 Y2.513 Z4.991 
G1 X2.575 Y2.513 Z4.991 
G1 X2.573 Y2.515 Z4.991 
G1 X2.177 Y2.515 Z4.991 
G1 X2.180 Y2.518 Z4.991 
G1 X2.570 Y2.518 Z4.991 
G1 X2.568 Y2.520 Z4.991 
G1 X2.182 Y2.520 Z4.991 
G1 X2.185 Y2.523 Z4.991 
G1 X2.565 Y2.523 Z4.991 
G1 X2.563 Y2.525 Z4.991 
G1 X2.187 Y2.525 Z4.991 
G1 X2.190 Y2.528 Z4.991 
G1 X2.560 Y2.528 Z4.991 
G1 X2.558 Y2.530 Z4.991 
G1 X2.192 Y2.530 Z4.991 
G1 X2.195 Y2.533 Z4.991 
G1 X2.555 Y2.533 Z4.991 
G1 X2.553 Y2.535 Z4.991 
G1 X2.197 Y2.535 Z4.991 
G1 X2.200 Y2.538 Z4.991 
G1 X2.550 Y2.538 Z4.991 
G1 X2.548 Y2.540 Z4.991 
G1 X2.202 Y2.540 Z4.991 
G1 X2.205 Y2.543 Z4.991 
G1 X2.545 Y2.543 Z4.991 
G1 X2.543 Y2.545 Z4.991 
G1 X2.207 Y2.545 Z4.991 
G1 X2.210 Y2.548 Z4.991 
G1 X2.540 Y2.548 Z4.991 
G1 X2.538 Y2.550 Z4.991 
G1 X2.212 Y2.550 Z4.991 
G1 X2.215 Y2.553 Z4.991 
G1 X2.535 Y2.553 Z4.991 
G1 X2.533 Y2.555 Z4.991 
G1 X2.217 Y2.555 Z4.991 
G1 X2.220 Y2.558 Z4.991 
G1 X2.530 Y2.558 Z4.991 
G1 X2.528 Y2.560 Z4.991 
G1 X2.222 Y2.560 Z4.991 
G1 X2.225 Y2.563 Z4.991 
G1 X2.525 Y2.563 Z4.991 
G1 X2.523 Y2.565 Z4.991 
G1 X2.227 Y2.565 Z4.991 
G1 X2.230 Y2.568 Z4.991 
G1 X2.520 Y2.568 Z4.991 
G1 X2.518 Y2.570 Z4.991 
G1 X2.232 Y2.570 Z4.991 
G1 X2.235 Y2.573 Z4.991 
G1 X2.515 Y2.573 Z4.991 
G1 X2.513 Y2.575 Z4.991 
G1 X2.237 Y2.575 Z4.991 
G1 X2.240 Y2.578 Z4.991 
G1 X2.510 Y2.578 Z4.991 
G1 X2.508 Y2.580 Z4.991 
G1 X2.242 Y2.580 Z4.991 
G1 X2.245 Y2.583 Z4.991 
G1 X2.505 Y2.583 Z4.991 
G1 X2.503 Y2.585 Z4.991 
G1 X2.247 Y2.585 Z4.991 
G1 X2.250 Y2.588 Z4.991 
G1 X2.500 Y2.588 Z4.991 
G3 X2.496 Y2.590 Z4.991 I-0.005 J-0.003 
G3 X2.251 Y2.589 Z4.991 I-0.121 J-0.456 
G0 Z10.001 
G0 X2.375 Y2.622 Z10.001 
G0 X2.375 Y2.622 Z8.001 
G1 X2.375 Y2.622 Z4.991 
G1 X2.366 Y2.620 Z4.991 
G2 X2.393 Y2.618 Z4.991 I0.009 J-0.051 
G3 X2.348 Y2.615 Z4.991 I-0.018 J-0.086 
G2 X2.412 Y2.613 Z4.991 I0.027 J-0.121 
G3 X2.329 Y2.610 Z4.991 I-0.037 J-0.155 
G2 X2.430 Y2.608 Z4.991 I0.046 J-0.190 
G3 X2.310 Y2.605 Z4.991 I-0.055 J-0.225 
G2 X2.449 Y2.603 Z4.991 I0.065 J-0.260 
G3 X2.292 Y2.600 Z4.991 I-0.074 J-0.295 
G2 X2.468 Y2.598 Z4.991 I0.083 J-0.330 
G3 X2.273 Y2.595 Z4.991 I-0.093 J-0.364 
G2 X2.486 Y2.593 Z4.991 I0.102 J-0.399 
G3 X2.254 Y2.590 Z4.991 I-0.111 J-0.434 
G1 X2.496 Y2.590 Z4.991 
G1 X2.496 Y2.590 Z4.986 
G1 X2.254 Y2.590 Z4.986 
G2 X2.486 Y2.593 Z4.986 I0.121 J-0.432 
G3 X2.273 Y2.595 Z4.986 I-0.111 J-0.397 
G2 X2.468 Y2.598 Z4.986 I0.102 J-0.362 
G3 X2.292 Y2.600 Z4.986 I-0.093 J-0.327 
G2 X2.449 Y2.603 Z4.986 I0.083 J-0.292 
G3 X2.310 Y2.605 Z4.986 I-0.074 J-0.257 
G2 X2.430 Y2.608 Z4.986 I0.065 J-0.223 
G3 X2.329 Y2.610 Z4.986 I-0.055 J-0.188 
G2 X2.412 Y2.613 Z4.986 I0.046 J-0.153 
G3 X2.348 Y2.615 Z4.986 I-0.037 J-0.118 
G2 X2.393 Y2.618 Z4.986 I0.027 J-0.083 
G3 X2.366 Y2.620 Z4.986 I-0.018 J-0.049 
G1 X2.375 Y2.622 Z4.986 
G0 Z10.001 
G0 X2.251 Y2.589 Z10.001 
G0 X2.251 Y2.589 Z8.001 
G1 X2.251 Y2.589 Z4.986 
G2 X2.496 Y2.590 Z4.986 I0.124 J-0.456 
G2 X2.500 Y2.588 Z4.986 I0.000 J-0.005 
G1 X2.250 Y2.588 Z4.986 
G1 X2.247 Y2.585 Z4.986 
G1 X2.503 Y2.585 Z4.986 
G1 X2.505 Y2.583 Z4.986 
G1 X2.245 Y2.583 Z4.986 
G1 X2.242 Y2.580 Z4.986 
G1 X2.508 Y2.580 Z4.986 
G1 X2.510 Y2.578 Z4.986 
G1 X2.240 Y2.578 Z4.986 
G1 X2.237 Y2.575 Z4.986 
G1 X2.513 Y2.575 Z4.986 
G1 X2.515 Y2.573 Z4.986 
G1 X2.235 Y2.573 Z4.986 
G1 X2.232 Y2.570 Z4.986 
G1 X2.518 Y2.570 Z4.986 
G1 X2.520 Y2.568 Z4.986 
G1 X2.230 Y2.568 Z4.986 
G1 X2.227 Y2.565 Z4.986 
G1 X2.523 Y2.565 Z4.986 
G1 X2.525 Y2.563 Z4.986 
G1 X2.225 Y2.563 Z4.986 
G1 X2.222 Y2.560 Z4.986 
G1 X2.528 Y2.560 Z4.986 
G1 X2.530 Y2.558 Z4.986 
G1 X2.220 Y2.558 Z4.986 
G1 X2.217 Y2.555 Z4.986 
G1 X2.533 Y2.555 Z4.986 
G1 X2.535 Y2.553 Z4.986 
G1 X2.215 Y2.553 Z4.986 
G1 X2.212 Y2.550 Z4.986 
G1 X2.538 Y2.550 Z4.986 
G1 X2.540 Y2.548 Z4.986 
G1 X2.210 Y2.548 Z4.986 
G1 X2.207 Y2.545 Z4.986 
G1 X2.543 Y2.545 Z4.986 
G1 X2.545 Y2.543 Z4.986 
G1 X2.205 Y2.543 Z4.986 
G1 X2.202 Y2.540 Z4.986 
G1 X2.548 Y2.540 Z4.986 
G1 X2.550 Y2.538 Z4.986 
G1 X2.200 Y2.538 Z4.986 
G1 X2.197 Y2.535 Z4.986 
G1 X2.553 Y2.535 Z4.986 
G1 X2.555 Y2.533 Z4.986 
G1 X2.195 Y2.533 Z4.986 
G1 X2.192 Y2.530 Z4.986 
G1 X2.558 Y2.530 Z4.986 
G1 X2.560 Y2.528 Z4.986 
G1 X2.190 Y2.528 Z4.986 
G1 X2.187 Y2.525 Z4.986 
G1 X2.563 Y2.525 Z4.986 
G1 X2.565 Y2.523 Z4.986 
G1 X2.185 Y2.523 Z4.986 
G1 X2.182 Y2.520 Z4.986 
G1 X2.568 Y2.520 Z4.986 
G1 X2.570 Y2.518 Z4.986 
G1 X2.180 Y2.518 Z4.986 
G1 X2.177 Y2.515 Z4.986 
G1 X2.573 Y2.515 Z4.986 
G1 X2.575 Y2.513 Z4.986 
G1 X2.175 Y2.513 Z4.986 
G1 X2.172 Y2.510 Z4.986 
G1 X2.578 Y2.510 Z4.986 
G1 X2.580 Y2.508 Z4.986 
G1 X2.170 Y2.508 Z4.986 
G1 X2.167 Y2.505 Z4.986 
G1 X2.583 Y2.505 Z4.986 
G1 X2.585 Y2.503 Z4.986 
G1 X2.165 Y2.503 Z4.986 
G1 X2.162 Y2.500 Z4.986 
G1 X2.589 Y2.499 Z4.986 
G1 X2.590 Y2.498 Z4.986 
G1 X2.160 Y2.498 Z4.986 
G1 X2.160 Y2.495 Z4.986 
G1 X2.590 Y2.495 Z4.986 
G1 X2.591 Y2.493 Z4.986 
G1 X2.159 Y2.493 Z4.986 
G1 X2.158 Y2.490 Z4.986 
G1 X2.592 Y2.490 Z4.986 
G1 X2.592 Y2.488 Z4.986 
G1 X2.158 Y2.488 Z4.986 
G1 X2.157 Y2.485 Z4.986 
G1 X2.593 Y2.485 Z4.986 
G1 X2.594 Y2.483 Z4.986 
G1 X2.156 Y2.483 Z4.986 
G1 X2.156 Y2.480 Z4.986 
G1 X2.594 Y2.480 Z4.986 
G1 X2.595 Y2.478 Z4.986 
G1 X2.155 Y2.478 Z4.986 
G1 X2.154 Y2.475 Z4.986 
G1 X2.596 Y2.475 Z4.986 
G1 X2.596 Y2.473 Z4.986 
G1 X2.154 Y2.473 Z4.986 
G1 X2.153 Y2.470 Z4.986 
G1 X2.597 Y2.470 Z4.986 
G1 X2.598 Y2.468 Z4.986 
G1 X2.152 Y2.468 Z4.986 
G1 X2.152 Y2.465 Z4.986 
G1 X2.598 Y2.465 Z4.986 
G1 X2.599 Y2.463 Z4.986 
G1 X2.151 Y2.463 Z4.986 
G1 X2.150 Y2.460 Z4.986 
G1 X2.600 Y2.460 Z4.986 
G1 X2.600 Y2.458 Z4.986 
G1 X2.150 Y2.458 Z4.986 
G1 X2.149 Y2.455 Z4.986 
G1 X2.601 Y2.455 Z4.986 
G1 X2.602 Y2.453 Z4.986 
G1 X2.148 Y2.453 Z4.986 
G1 X2.148 Y2.450 Z4.986 
G1 X2.602 Y2.450 Z4.986 
G1 X2.603 Y2.448 Z4.986 
G1 X2.147 Y2.448 Z4.986 
G1 X2.146 Y2.445 Z4.986 
G1 X2.604 Y2.445 Z4.986 
G1 X2.604 Y2.443 Z4.986 
G1 X2.146 Y2.443 Z4.986 
G1 X2.145 Y2.440 Z4.986 
G1 X2.605 Y2.440 Z4.986 
G1 X2.606 Y2.438 Z4.986 
G1 X2.144 Y2.438 Z4.986 
G1 X2.144 Y2.435 Z4.986 
G1 X2.606 Y2.435 Z4.986 
G1 X2.607 Y2.433 Z4.986 
G1 X2.143 Y2.433 Z4.986 
G1 X2.142 Y2.430 Z4.986 
G1 X2.608 Y2.430 Z4.986 
G1 X2.608 Y2.428 Z4.986 
G1 X2.142 Y2.428 Z4.986 
G1 X2.141 Y2.425 Z4.986 
G1 X2.609 Y2.425 Z4.986 
G1 X2.610 Y2.423 Z4.986 
G1 X2.140 Y2.423 Z4.986 
G1 X2.140 Y2.420 Z4.986 
G1 X2.610 Y2.420 Z4.986 
G1 X2.611 Y2.418 Z4.986 
G1 X2.139 Y2.418 Z4.986 
G1 X2.138 Y2.415 Z4.986 
G1 X2.612 Y2.415 Z4.986 
G1 X2.612 Y2.413 Z4.986 
G1 X2.138 Y2.413 Z4.986 
G1 X2.137 Y2.410 Z4.986 
G1 X2.613 Y2.410 Z4.986 
G1 X2.614 Y2.408 Z4.986 
G1 X2.136 Y2.408 Z4.986 
G1 X2.136 Y2.405 Z4.986 
G1 X2.614 Y2.405 Z4.986 
G1 X2.615 Y2.403 Z4.986 
G1 X2.135 Y2.403 Z4.986 
G1 X2.134 Y2.400 Z4.986 
G1 X2.616 Y2.400 Z4.986 
G1 X2.616 Y2.398 Z4.986 
G1 X2.134 Y2.398 Z4.986 
G1 X2.133 Y2.395 Z4.986 
G1 X2.617 Y2.395 Z4.986 
G1 X2.618 Y2.393 Z4.986 
G1 X2.132 Y2.393 Z4.986 
G1 X2.132 Y2.390 Z4.986 
G1 X2.618 Y2.390 Z4.986 
G1 X2.619 Y2.388 Z4.986 
G1 X2.131 Y2.388 Z4.986 
G1 X2.130 Y2.385 Z4.986 
G1 X2.620 Y2.385 Z4.986 
G1 X2.620 Y2.383 Z4.986 
G1 X2.130 Y2.383 Z4.986 
G1 X2.129 Y2.380 Z4.986 
G1 X2.621 Y2.380 Z4.986 
G1 X2.622 Y2.378 Z4.986 
G1 X2.128 Y2.378 Z4.986 
G1 X2.128 Y2.375 Z4.986 
G1 X2.622 Y2.375 Z4.986 
G1 X2.622 Y2.373 Z4.986 
G1 X2.128 Y2.373 Z4.986 
G1 X2.129 Y2.370 Z4.986 
G1 X2.621 Y2.370 Z4.986 
G1 X2.620 Y2.368 Z4.986 
G1 X2.130 Y2.368 Z4.986 
G1 X2.130 Y2.365 Z4.986 
G1 X2.620 Y2.365 Z4.986 
G1 X2.619 Y2.363 Z4.986 
G1 X2.131 Y2.363 Z4.986 
G1 X2.132 Y2.360 Z4.986 
G1 X2.618 Y2.360 Z4.986 
G1 X2.618 Y2.358 Z4.986 
G1 X2.132 Y2.358 Z4.986 
G1 X2.133 Y2.355 Z4.986 
G1 X2.617 Y2.355 Z4.986 
G1 X2.616 Y2.353 Z4.986 
G1 X2.134 Y2.353 Z4.986 
G1 X2.134 Y2.350 Z4.986 
G1 X2.616 Y2.350 Z4.986 
G1 X2.615 Y2.348 Z4.986 
G1 X2.135 Y2.348 Z4.986 
G1 X2.136 Y2.345 Z4.986 
G1 X2.614 Y2.345 Z4.986 
G1 X2.614 Y2.343 Z4.986 
G1 X2.136 Y2.343 Z4.986 
G1 X2.137 Y2.340 Z4.986 
G1 X2.613 Y2.340 Z4.986 
G1 X2.612 Y2.338 Z4.986 
G1 X2.138 Y2.338 Z4.986 
G1 X2.138 Y2.335 Z4.986 
G1 X2.612 Y2.335 Z4.986 
G1 X2.611 Y2.333 Z4.986 
G1 X2.139 Y2.333 Z4.986 
G1 X2.140 Y2.330 Z4.986 
G1 X2.610 Y2.330 Z4.986 
G1 X2.610 Y2.328 Z4.986 
G1 X2.140 Y2.328 Z4.986 
G1 X2.141 Y2.325 Z4.986 
G1 X2.609 Y2.325 Z4.986 
G1 X2.608 Y2.323 Z4.986 
G1 X2.142 Y2.323 Z4.986 
G1 X2.142 Y2.320 Z4.986 
G1 X2.608 Y2.320 Z4.986 
G1 X2.607 Y2.318 Z4.986 
G1 X2.143 Y2.318 Z4.986 
G1 X2.144 Y2.315 Z4.986 
G1 X2.606 Y2.315 Z4.986 
G1 X2.606 Y2.313 Z4.986 
G1 X2.144 Y2.313 Z4.986 
G1 X2.145 Y2.310 Z4.986 
G1 X2.605 Y2.310 Z4.986 
G1 X2.604 Y2.308 Z4.986 
G1 X2.146 Y2.308 Z4.986 
G1 X2.146 Y2.305 Z4.986 
G1 X2.604 Y2.305 Z4.986 
G1 X2.603 Y2.303 Z4.986 
G1 X2.147 Y2.303 Z4.986 
G1 X2.148 Y2.300 Z4.986 
G1 X2.602 Y2.300 Z4.986 
G1 X2.602 Y2.298 Z4.986 
G1 X2.148 Y2.298 Z4.986 
G1 X2.149 Y2.295 Z4.986 
G1 X2.601 Y2.295 Z4.986 
G1 X2.600 Y2.293 Z4.986 
G1 X2.150 Y2.293 Z4.986 
G1 X2.150 Y2.290 Z4.986 
G1 X2.600 Y2.290 Z4.986 
G1 X2.599 Y2.288 Z4.986 
G1 X2.151 Y2.288 Z4.986 
G1 X2.152 Y2.285 Z4.986 
G1 X2.598 Y2.285 Z4.986 
G1 X2.598 Y2.283 Z4.986 
G1 X2.152 Y2.283 Z4.986 
G1 X2.153 Y2.280 Z4.986 
G1 X2.597 Y2.280 Z4.986 
G1 X2.596 Y2.278 Z4.986 
G1 X2.154 Y2.278 Z4.986 
G1 X2.154 Y2.275 Z4.986 
G1 X2.596 Y2.275 Z4.986 
G1 X2.595 Y2.273 Z4.986 
G1 X2.155 Y2.273 Z4.986 
G1 X2.156 Y2.270 Z4.986 
G1 X2.594 Y2.270 Z4.986 
G1 X2.594 Y2.268 Z4.986 
G1 X2.156 Y2.268 Z4.986 
G1 X2.157 Y2.265 Z4.986 
G1 X2.593 Y2.265 Z4.986 
G1 X2.592 Y2.263 Z4.986 
G1 X2.158 Y2.263 Z4.986 
G1 X2.158 Y2.260 Z4.986 
G1 X2.592 Y2.260 Z4.986 
G1 X2.591 Y2.258 Z4.986 
G1 X2.159 Y2.258 Z4.986 
G1 X2.160 Y2.255 Z4.986 
G1 X2.590 Y2.255 Z4.986 
G1 X2.590 Y2.253 Z4.986 
G1 X2.160 Y2.253 Z4.986 
G3 X2.162 Y2.250 Z4.986 I0.003 J0.000 
G1 X2.588 Y2.250 Z4.986 
G1 X2.586 Y2.248 Z4.986 
G1 X2.164 Y2.248 Z4.986 
G1 X2.167 Y2.245 Z4.986 
G1 X2.583 Y2.245 Z4.986 
G1 X2.581 Y2.243 Z4.986 
G1 X2.169 Y2.243 Z4.986 
G1 X2.172 Y2.240 Z4.986 
G1 X2.578 Y2.240 Z4.986 
G1 X2.576 Y2.238 Z4.986 
G1 X2.174 Y2.238 Z4.986 
G1 X2.177 Y2.235 Z4.986 
G1 X2.573 Y2.235 Z4.986 
G1 X2.571 Y2.233 Z4.986 
G1 X2.179 Y2.233 Z4.986 
G1 X2.182 Y2.230 Z4.986 
G1 X2.568 Y2.230 Z4.986 
G1 X2.566 Y2.228 Z4.986 
G1 X2.184 Y2.228 Z4.986 
G1 X2.187 Y2.225 Z4.986 
G1 X2.563 Y2.225 Z4.986 
G1 X2.561 Y2.223 Z4.986 
G1 X2.189 Y2.223 Z4.986 
G1 X2.192 Y2.220 Z4.986 
G1 X2.558 Y2.220 Z4.986 
G1 X2.556 Y2.218 Z4.986 
G1 X2.194 Y2.218 Z4.986 
G1 X2.197 Y2.215 Z4.986 
G1 X2.553 Y2.215 Z4.986 
G1 X2.551 Y2.213 Z4.986 
G1 X2.199 Y2.213 Z4.986 
G1 X2.202 Y2.210 Z4.986 
G1 X2.548 Y2.210 Z4.986 
G1 X2.546 Y2.208 Z4.986 
G1 X2.204 Y2.208 Z4.986 
G1 X2.207 Y2.205 Z4.986 
G1 X2.543 Y2.205 Z4.986 
G1 X2.541 Y2.203 Z4.986 
G1 X2.209 Y2.203 Z4.986 
G1 X2.212 Y2.200 Z4.986 
G1 X2.538 Y2.200 Z4.986 
G1 X2.536 Y2.198 Z4.986 
G1 X2.214 Y2.198 Z4.986 
G1 X2.217 Y2.195 Z4.986 
G1 X2.533 Y2.195 Z4.986 
G1 X2.531 Y2.193 Z4.986 
G1 X2.219 Y2.193 Z4.986 
G1 X2.222 Y2.190 Z4.986 
G1 X2.528 Y2.190 Z4.986 
G1 X2.526 Y2.188 Z4.986 
G1 X2.224 Y2.188 Z4.986 
G1 X2.227 Y2.185 Z4.986 
G1 X2.523 Y2.185 Z4.986 
G1 X2.521 Y2.183 Z4.986 
G1 X2.229 Y2.183 Z4.986 
G1 X2.232 Y2.180 Z4.986 
G1 X2.518 Y2.180 Z4.986 
G1 X2.516 Y2.178 Z4.986 
G1 X2.234 Y2.178 Z4.986 
G1 X2.237 Y2.175 Z4.986 
G1 X2.513 Y2.175 Z4.986 
G1 X2.511 Y2.173 Z4.986 
G1 X2.239 Y2.173 Z4.986 
G1 X2.242 Y2.170 Z4.986 
G1 X2.508 Y2.170 Z4.986 
G1 X2.506 Y2.168 Z4.986 
G1 X2.244 Y2.168 Z4.986 
G1 X2.247 Y2.165 Z4.986 
G1 X2.503 Y2.165 Z4.986 
G1 X2.501 Y2.163 Z4.986 
G1 X2.249 Y2.163 Z4.986 
G1 X2.251 Y2.161 Z4.986 
G3 X2.499 Y2.161 Z4.986 I0.124 J0.457 
G0 Z10.001 
G0 X2.375 Y2.128 Z10.001 
G0 X2.375 Y2.128 Z8.001 
G1 X2.375 Y2.128 Z4.986 
G1 X2.384 Y2.130 Z4.986 
G2 X2.356 Y2.133 Z4.986 I-0.009 J0.053 
G3 X2.403 Y2.135 Z4.986 I0.019 J0.088 
G2 X2.338 Y2.138 Z4.986 I-0.028 J0.123 
G3 X2.422 Y2.140 Z4.986 I0.037 J0.158 
G2 X2.319 Y2.143 Z4.986 I-0.047 J0.193 
G3 X2.440 Y2.145 Z4.986 I0.056 J0.228 
G2 X2.300 Y2.148 Z4.986 I-0.065 J0.262 
G3 X2.459 Y2.150 Z4.986 I0.075 J0.297 
G2 X2.282 Y2.153 Z4.986 I-0.084 J0.332 
G3 X2.478 Y2.155 Z4.986 I0.093 J0.367 
G2 X2.263 Y2.158 Z4.986 I-0.103 J0.402 
G3 X2.496 Y2.160 Z4.986 I0.112 J0.437 
G1 X2.254 Y2.160 Z4.986 
G1 X2.254 Y2.160 Z4.981 
G1 X2.496 Y2.160 Z4.981 
G2 X2.263 Y2.158 Z4.981 I-0.121 J0.434 
G3 X2.478 Y2.155 Z4.981 I0.112 J0.399 
G2 X2.282 Y2.153 Z4.981 I-0.103 J0.364 
G3 X2.459 Y2.150 Z4.981 I0.093 J0.330 
G2 X2.300 Y2.148 Z4.981 I-0.084 J0.295 
G3 X2.440 Y2.145 Z4.981 I0.075 J0.260 
G2 X2.319 Y2.143 Z4.981 I-0.065 J0.225 
G3 X2.422 Y2.140 Z4.981 I0.056 J0.190 
G2 X2.338 Y2.138 Z4.981 I-0.047 J0.155 
G3 X2.403 Y2.135 Z4.981 I0.037 J0.121 
G2 X2.356 Y2.133 Z4.981 I-0.028 J0.086 
G3 X2.384 Y2.130 Z4.981 I0.019 J0.051 
G1 X2.375 Y2.128 Z4.981 
G0 Z10.001 
G0 X2.499 Y2.161 Z10.001 
G0 X2.499 Y2.161 Z8.001 
G1 X2.499 Y2.161 Z4.981 
G2 X2.251 Y2.161 Z4.981 I-0.124 J0.457 
G1 X2.249 Y2.163 Z4.981 
G1 X2.501 Y2.163 Z4.981 
G1 X2.503 Y2.165 Z4.981 
G1 X2.247 Y2.165 Z4.981 
G1 X2.244 Y2.168 Z4.981 
G1 X2.506 Y2.168 Z4.981 
G1 X2.508 Y2.170 Z4.981 
G1 X2.242 Y2.170 Z4.981 
G1 X2.239 Y2.173 Z4.981 
G1 X2.511 Y2.173 Z4.981 
G1 X2.513 Y2.175 Z4.981 
G1 X2.237 Y2.175 Z4.981 
G1 X2.234 Y2.178 Z4.981 
G1 X2.516 Y2.178 Z4.981 
G1 X2.518 Y2.180 Z4.981 
G1 X2.232 Y2.180 Z4.981 
G1 X2.229 Y2.183 Z4.981 
G1 X2.521 Y2.183 Z4.981 
G1 X2.523 Y2.185 Z4.981 
G1 X2.227 Y2.185 Z4.981 
G1 X2.224 Y2.188 Z4.981 
G1 X2.526 Y2.188 Z4.981 
G1 X2.528 Y2.190 Z4.981 
G1 X2.222 Y2.190 Z4.981 
G1 X2.219 Y2.193 Z4.981 
G1 X2.531 Y2.193 Z4.981 
G1 X2.533 Y2.195 Z4.981 
G1 X2.217 Y2.195 Z4.981 
G1 X2.214 Y2.198 Z4.981 
G1 X2.536 Y2.198 Z4.981 
G1 X2.538 Y2.200 Z4.981 
G1 X2.212 Y2.200 Z4.981 
G1 X2.209 Y2.203 Z4.981 
G1 X2.541 Y2.203 Z4.981 
G1 X2.543 Y2.205 Z4.981 
G1 X2.207 Y2.205 Z4.981 
G1 X2.204 Y2.208 Z4.981 
G1 X2.546 Y2.208 Z4.981 
G1 X2.548 Y2.210 Z4.981 
G1 X2.202 Y2.210 Z4.981 
G1 X2.199 Y2.213 Z4.981 
G1 X2.551 Y2.213 Z4.981 
G1 X2.553 Y2.215 Z4.981 
G1 X2.197 Y2.215 Z4.981 
G1 X2.194 Y2.218 Z4.981 
G1 X2.556 Y2.218 Z4.981 
G1 X2.558 Y2.220 Z4.981 
G1 X2.192 Y2.220 Z4.981 
G1 X2.189 Y2.223 Z4.981 
G1 X2.561 Y2.223 Z4.981 
G1 X2.563 Y2.225 Z4.981 
G1 X2.187 Y2.225 Z4.981 
G1 X2.184 Y2.228 Z4.981 
G1 X2.566 Y2.228 Z4.981 
G1 X2.568 Y2.230 Z4.981 
G1 X2.182 Y2.230 Z4.981 
G1 X2.179 Y2.233 Z4.981 
G1 X2.571 Y2.233 Z4.981 
G1 X2.573 Y2.235 Z4.981 
G1 X2.177 Y2.235 Z4.981 
G1 X2.174 Y2.238 Z4.981 
G1 X2.576 Y2.238 Z4.981 
G1 X2.578 Y2.240 Z4.981 
G1 X2.172 Y2.240 Z4.981 
G1 X2.169 Y2.243 Z4.981 
G1 X2.581 Y2.243 Z4.981 
G1 X2.583 Y2.245 Z4.981 
G1 X2.167 Y2.245 Z4.981 
G1 X2.164 Y2.248 Z4.981 
G1 X2.586 Y2.248 Z4.981 
G1 X2.588 Y2.250 Z4.981 
G1 X2.162 Y2.250 Z4.981 
G2 X2.160 Y2.253 Z4.981 I0.001 J0.003 
G1 X2.590 Y2.253 Z4.981 
G1 X2.590 Y2.255 Z4.981 
G1 X2.160 Y2.255 Z4.981 
G1 X2.159 Y2.258 Z4.981 
G1 X2.591 Y2.258 Z4.981 
G1 X2.592 Y2.260 Z4.981 
G1 X2.158 Y2.260 Z4.981 
G1 X2.158 Y2.263 Z4.981 
G1 X2.592 Y2.263 Z4.981 
G1 X2.593 Y2.265 Z4.981 
G1 X2.157 Y2.265 Z4.981 
G1 X2.156 Y2.268 Z4.981 
G1 X2.594 Y2.268 Z4.981 
G1 X2.594 Y2.270 Z4.981 
G1 X2.156 Y2.270 Z4.981 
G1 X2.155 Y2.273 Z4.981 
G1 X2.595 Y2.273 Z4.981 
G1 X2.596 Y2.275 Z4.981 
G1 X2.154 Y2.275 Z4.981 
G1 X2.154 Y2.278 Z4.981 
G1 X2.596 Y2.278 Z4.981 
G1 X2.597 Y2.280 Z4.981 
G1 X2.153 Y2.280 Z4.981 
G1 X2.152 Y2.283 Z4.981 
G1 X2.598 Y2.283 Z4.981 
G1 X2.598 Y2.285 Z4.981 
G1 X2.152 Y2.285 Z4.981 
G1 X2.151 Y2.288 Z4.981 
G1 X2.599 Y2.288 Z4.981 
G1 X2.600 Y2.290 Z4.981 
G1 X2.150 Y2.290 Z4.981 
G1 X2.150 Y2.293 Z4.981 
G1 X2.600 Y2.293 Z4.981 
G1 X2.601 Y2.295 Z4.981 
G1 X2.149 Y2.295 Z4.981 
G1 X2.148 Y2.298 Z4.981 
G1 X2.602 Y2.298 Z4.981 
G1 X2.602 Y2.300 Z4.981 
G1 X2.148 Y2.300 Z4.981 
G1 X2.147 Y2.303 Z4.981 
G1 X2.603 Y2.303 Z4.981 
G1 X2.604 Y2.305 Z4.981 
G1 X2.146 Y2.305 Z4.981 
G1 X2.146 Y2.308 Z4.981 
G1 X2.604 Y2.308 Z4.981 
G1 X2.605 Y2.310 Z4.981 
G1 X2.145 Y2.310 Z4.981 
G1 X2.144 Y2.313 Z4.981 
G1 X2.606 Y2.313 Z4.981 
G1 X2.606 Y2.315 Z4.981 
G1 X2.144 Y2.315 Z4.981 
G1 X2.143 Y2.318 Z4.981 
G1 X2.607 Y2.318 Z4.981 
G1 X2.608 Y2.320 Z4.981 
G1 X2.142 Y2.320 Z4.981 
G1 X2.142 Y2.323 Z4.981 
G1 X2.608 Y2.323 Z4.981 
G1 X2.609 Y2.325 Z4.981 
G1 X2.141 Y2.325 Z4.981 
G1 X2.140 Y2.328 Z4.981 
G1 X2.610 Y2.328 Z4.981 
G1 X2.610 Y2.330 Z4.981 
G1 X2.140 Y2.330 Z4.981 
G1 X2.139 Y2.333 Z4.981 
G1 X2.611 Y2.333 Z4.981 
G1 X2.612 Y2.335 Z4.981 
G1 X2.138 Y2.335 Z4.981 
G1 X2.138 Y2.338 Z4.981 
G1 X2.612 Y2.338 Z4.981 
G1 X2.613 Y2.340 Z4.981 
G1 X2.137 Y2.340 Z4.981 
G1 X2.136 Y2.343 Z4.981 
G1 X2.614 Y2.343 Z4.981 
G1 X2.614 Y2.345 Z4.981 
G1 X2.136 Y2.345 Z4.981 
G1 X2.135 Y2.348 Z4.981 
G1 X2.615 Y2.348 Z4.981 
G1 X2.616 Y2.350 Z4.981 
G1 X2.134 Y2.350 Z4.981 
G1 X2.134 Y2.353 Z4.981 
G1 X2.616 Y2.353 Z4.981 
G1 X2.617 Y2.355 Z4.981 
G1 X2.133 Y2.355 Z4.981 
G1 X2.132 Y2.358 Z4.981 
G1 X2.618 Y2.358 Z4.981 
G1 X2.618 Y2.360 Z4.981 
G1 X2.132 Y2.360 Z4.981 
G1 X2.131 Y2.363 Z4.981 
G1 X2.619 Y2.363 Z4.981 
G1 X2.620 Y2.365 Z4.981 
G1 X2.130 Y2.365 Z4.981 
G1 X2.130 Y2.368 Z4.981 
G1 X2.620 Y2.368 Z4.981 
G1 X2.621 Y2.370 Z4.981 
G1 X2.129 Y2.370 Z4.981 
G1 X2.128 Y2.373 Z4.981 
G1 X2.622 Y2.373 Z4.981 
G1 X2.622 Y2.375 Z4.981 
G1 X2.128 Y2.375 Z4.981 
G1 X2.128 Y2.378 Z4.981 
G1 X2.622 Y2.378 Z4.981 
G1 X2.621 Y2.380 Z4.981 
G1 X2.129 Y2.380 Z4.981 
G1 X2.130 Y2.383 Z4.981 
G1 X2.620 Y2.383 Z4.981 
G1 X2.620 Y2.385 Z4.981 
G1 X2.130 Y2.385 Z4.981 
G1 X2.131 Y2.388 Z4.981 
G1 X2.619 Y2.388 Z4.981 
G1 X2.618 Y2.390 Z4.981 
G1 X2.132 Y2.390 Z4.981 
G1 X2.132 Y2.393 Z4.981 
G1 X2.618 Y2.393 Z4.981 
G1 X2.617 Y2.395 Z4.981 
G1 X2.133 Y2.395 Z4.981 
G1 X2.134 Y2.398 Z4.981 
G1 X2.616 Y2.398 Z4.981 
G1 X2.616 Y2.400 Z4.981 
G1 X2.134 Y2.400 Z4.981 
G1 X2.135 Y2.403 Z4.981 
G1 X2.615 Y2.403 Z4.981 
G1 X2.614 Y2.405 Z4.981 
G1 X2.136 Y2.405 Z4.981 
G1 X2.136 Y2.408 Z4.981 
G1 X2.614 Y2.408 Z4.981 
G1 X2.613 Y2.410 Z4.981 
G1 X2.137 Y2.410 Z4.981 
G1 X2.138 Y2.413 Z4.981 
G1 X2.612 Y2.413 Z4.981 
G1 X2.612 Y2.415 Z4.981 
G1 X2.138 Y2.415 Z4.981 
G1 X2.139 Y2.418 Z4.981 
G1 X2.611 Y2.418 Z4.981 
G1 X2.610 Y2.420 Z4.981 
G1 X2.140 Y2.420 Z4.981 
G1 X2.140 Y2.423 Z4.981 
G1 X2.610 Y2.423 Z4.981 
G1 X2.609 Y2.425 Z4.981 
G1 X2.141 Y2.425 Z4.981 
G1 X2.142 Y2.428 Z4.981 
G1 X2.608 Y2.428 Z4.981 
G1 X2.608 Y2.430 Z4.981 
G1 X2.142 Y2.430 Z4.981 
G1 X2.143 Y2.433 Z4.981 
G1 X2.607 Y2.433 Z4.981 
G1 X2.606 Y2.435 Z4.981 
G1 X2.144 Y2.435 Z4.981 
G1 X2.144 Y2.438 Z4.981 
G1 X2.606 Y2.438 Z4.981 
G1 X2.605 Y2.440 Z4.981 
G1 X2.145 Y2.440 Z4.981 
G1 X2.146 Y2.443 Z4.981 
G1 X2.604 Y2.443 Z4.981 
G1 X2.604 Y2.445 Z4.981 
G1 X2.146 Y2.445 Z4.981 
G1 X2.147 Y2.448 Z4.981 
G1 X2.603 Y2.448 Z4.981 
G1 X2.602 Y2.450 Z4.981 
G1 X2.148 Y2.450 Z4.981 
G1 X2.148 Y2.453 Z4.981 
G1 X2.602 Y2.453 Z4.981 
G1 X2.601 Y2.455 Z4.981 
G1 X2.149 Y2.455 Z4.981 
G1 X2.150 Y2.458 Z4.981 
G1 X2.600 Y2.458 Z4.981 
G1 X2.600 Y2.460 Z4.981 
G1 X2.150 Y2.460 Z4.981 
G1 X2.151 Y2.463 Z4.981 
G1 X2.599 Y2.463 Z4.981 
G1 X2.598 Y2.465 Z4.981 
G1 X2.152 Y2.465 Z4.981 
G1 X2.152 Y2.468 Z4.981 
G1 X2.598 Y2.468 Z4.981 
G1 X2.597 Y2.470 Z4.981 
G1 X2.153 Y2.470 Z4.981 
G1 X2.154 Y2.473 Z4.981 
G1 X2.596 Y2.473 Z4.981 
G1 X2.596 Y2.475 Z4.981 
G1 X2.154 Y2.475 Z4.981 
G1 X2.155 Y2.478 Z4.981 
G1 X2.595 Y2.478 Z4.981 
G1 X2.594 Y2.480 Z4.981 
G1 X2.156 Y2.480 Z4.981 
G1 X2.156 Y2.483 Z4.981 
G1 X2.594 Y2.483 Z4.981 
G1 X2.593 Y2.485 Z4.981 
G1 X2.157 Y2.485 Z4.981 
G1 X2.158 Y2.488 Z4.981 
G1 X2.592 Y2.488 Z4.981 
G1 X2.592 Y2.490 Z4.981 
G1 X2.158 Y2.490 Z4.981 
G1 X2.159 Y2.493 Z4.981 
G1 X2.591 Y2.493 Z4.981 
G1 X2.590 Y2.495 Z4.981 
G1 X2.160 Y2.495 Z4.981 
G1 X2.160 Y2.498 Z4.981 
G1 X2.590 Y2.498 Z4.981 
G1 X2.589 Y2.499 Z4.981 
G1 X2.162 Y2.500 Z4.981 
G1 X2.165 Y2.503 Z4.981 
G1 X2.585 Y2.503 Z4.981 
G1 X2.583 Y2.505 Z4.981 
G1 X2.167 Y2.505 Z4.981 
G1 X2.170 Y2.508 Z4.981 
G1 X2.580 Y2.508 Z4.981 
G1 X2.578 Y2.510 Z4.981 
G1 X2.172 Y2.510 Z4.981 
G1 X2.175 Y2.513 Z4.981 
G1 X2.575 Y2.513 Z4.981 
G1 X2.573 Y2.515 Z4.981 
G1 X2.177 Y2.515 Z4.981 
G1 X2.180 Y2.518 Z4.981 
G1 X2.570 Y2.518 Z4.981 
G1 X2.568 Y2.520 Z4.981 
G1 X2.182 Y2.520 Z4.981 
G1 X2.185 Y2.523 Z4.981 
G1 X2.565 Y2.523 Z4.981 
G1 X2.563 Y2.525 Z4.981 
G1 X2.187 Y2.525 Z4.981 
G1 X2.190 Y2.528 Z4.981 
G1 X2.560 Y2.528 Z4.981 
G1 X2.558 Y2.530 Z4.981 
G1 X2.192 Y2.530 Z4.981 
G1 X2.195 Y2.533 Z4.981 
G1 X2.555 Y2.533 Z4.981 
G1 X2.553 Y2.535 Z4.981 
G1 X2.197 Y2.535 Z4.981 
G1 X2.200 Y2.538 Z4.981 
G1 X2.550 Y2.538 Z4.981 
G1 X2.548 Y2.540 Z4.981 
G1 X2.202 Y2.540 Z4.981 
G1 X2.205 Y2.543 Z4.981 
G1 X2.545 Y2.543 Z4.981 
G1 X2.543 Y2.545 Z4.981 
G1 X2.207 Y2.545 Z4.981 
G1 X2.210 Y2.548 Z4.981 
G1 X2.540 Y2.548 Z4.981 
G1 X2.538 Y2.550 Z4.981 
G1 X2.212 Y2.550 Z4.981 
G1 X2.215 Y2.553 Z4.981 
G1 X2.535 Y2.553 Z4.981 
G1 X2.533 Y2.555 Z4.981 
G1 X2.217 Y2.555 Z4.981 
G1 X2.220 Y2.558 Z4.981 
G1 X2.530 Y2.558 Z4.981 
G1 X2.528 Y2.560 Z4.981 
G1 X2.222 Y2.560 Z4.981 
G1 X2.225 Y2.563 Z4.981 
G1 X2.525 Y2.563 Z4.981 
G1 X2.523 Y2.565 Z4.981 
G1 X2.227 Y2.565 Z4.981 
G1 X2.230 Y2.568 Z4.981 
G1 X2.520 Y2.568 Z4.981 
G1 X2.518 Y2.570 Z4.981 
G1 X2.232 Y2.570 Z4.981 
G1 X2.235 Y2.573 Z4.981 
G1 X2.515 Y2.573 Z4.981 
G1 X2.513 Y2.575 Z4.981 
G1 X2.237 Y2.575 Z4.981 
G1 X2.240 Y2.578 Z4.981 
G1 X2.510 Y2.578 Z4.981 
G1 X2.508 Y2.580 Z4.981 
G1 X2.242 Y2.580 Z4.981 
G1 X2.245 Y2.583 Z4.981 
G1 X2.505 Y2.583 Z4.981 
G1 X2.503 Y2.585 Z4.981 
G1 X2.247 Y2.585 Z4.981 
G1 X2.250 Y2.588 Z4.981 
G1 X2.500 Y2.588 Z4.981 
G3 X2.496 Y2.590 Z4.981 I-0.005 J-0.003 
G3 X2.251 Y2.589 Z4.981 I-0.121 J-0.456 
G0 Z10.001 
G0 X2.375 Y2.622 Z10.001 
G0 X2.375 Y2.622 Z8.001 
G1 X2.375 Y2.622 Z4.981 
G1 X2.366 Y2.620 Z4.981 
G2 X2.393 Y2.618 Z4.981 I0.009 J-0.051 
G3 X2.348 Y2.615 Z4.981 I-0.018 J-0.086 
G2 X2.412 Y2.613 Z4.981 I0.027 J-0.121 
G3 X2.329 Y2.610 Z4.981 I-0.037 J-0.155 
G2 X2.430 Y2.608 Z4.981 I0.046 J-0.190 
G3 X2.310 Y2.605 Z4.981 I-0.055 J-0.225 
G2 X2.449 Y2.603 Z4.981 I0.065 J-0.260 
G3 X2.292 Y2.600 Z4.981 I-0.074 J-0.295 
G2 X2.468 Y2.598 Z4.981 I0.083 J-0.330 
G3 X2.273 Y2.595 Z4.981 I-0.093 J-0.364 
G2 X2.486 Y2.593 Z4.981 I0.102 J-0.399 
G3 X2.254 Y2.590 Z4.981 I-0.111 J-0.434 
G1 X2.496 Y2.590 Z4.981 
G1 X2.496 Y2.590 Z4.976 
G1 X2.254 Y2.590 Z4.976 
G2 X2.486 Y2.593 Z4.976 I0.121 J-0.432 
G3 X2.273 Y2.595 Z4.976 I-0.111 J-0.397 
G2 X2.468 Y2.598 Z4.976 I0.102 J-0.362 
G3 X2.292 Y2.600 Z4.976 I-0.093 J-0.327 
G2 X2.449 Y2.603 Z4.976 I0.083 J-0.292 
G3 X2.310 Y2.605 Z4.976 I-0.074 J-0.257 
G2 X2.430 Y2.608 Z4.976 I0.065 J-0.223 
G3 X2.329 Y2.610 Z4.976 I-0.055 J-0.188 
G2 X2.412 Y2.613 Z4.976 I0.046 J-0.153 
G3 X2.348 Y2.615 Z4.976 I-0.037 J-0.118 
G2 X2.393 Y2.618 Z4.976 I0.027 J-0.083 
G3 X2.366 Y2.620 Z4.976 I-0.018 J-0.049 
G1 X2.375 Y2.622 Z4.976 
G0 Z10.001 
G0 X2.251 Y2.589 Z10.001 
G0 X2.251 Y2.589 Z8.001 
G1 X2.251 Y2.589 Z4.976 
G2 X2.496 Y2.590 Z4.976 I0.124 J-0.456 
G2 X2.500 Y2.588 Z4.976 I0.000 J-0.005 
G1 X2.250 Y2.588 Z4.976 
G1 X2.247 Y2.585 Z4.976 
G1 X2.503 Y2.585 Z4.976 
G1 X2.505 Y2.583 Z4.976 
G1 X2.245 Y2.583 Z4.976 
G1 X2.242 Y2.580 Z4.976 
G1 X2.508 Y2.580 Z4.976 
G1 X2.510 Y2.578 Z4.976 
G1 X2.240 Y2.578 Z4.976 
G1 X2.237 Y2.575 Z4.976 
G1 X2.513 Y2.575 Z4.976 
G1 X2.515 Y2.573 Z4.976 
G1 X2.235 Y2.573 Z4.976 
G1 X2.232 Y2.570 Z4.976 
G1 X2.518 Y2.570 Z4.976 
G1 X2.520 Y2.568 Z4.976 
G1 X2.230 Y2.568 Z4.976 
G1 X2.227 Y2.565 Z4.976 
G1 X2.523 Y2.565 Z4.976 
G1 X2.525 Y2.563 Z4.976 
G1 X2.225 Y2.563 Z4.976 
G1 X2.222 Y2.560 Z4.976 
G1 X2.528 Y2.560 Z4.976 
G1 X2.530 Y2.558 Z4.976 
G1 X2.220 Y2.558 Z4.976 
G1 X2.217 Y2.555 Z4.976 
G1 X2.533 Y2.555 Z4.976 
G1 X2.535 Y2.553 Z4.976 
G1 X2.215 Y2.553 Z4.976 
G1 X2.212 Y2.550 Z4.976 
G1 X2.538 Y2.550 Z4.976 
G1 X2.540 Y2.548 Z4.976 
G1 X2.210 Y2.548 Z4.976 
G1 X2.207 Y2.545 Z4.976 
G1 X2.543 Y2.545 Z4.976 
G1 X2.545 Y2.543 Z4.976 
G1 X2.205 Y2.543 Z4.976 
G1 X2.202 Y2.540 Z4.976 
G1 X2.548 Y2.540 Z4.976 
G1 X2.550 Y2.538 Z4.976 
G1 X2.200 Y2.538 Z4.976 
G1 X2.197 Y2.535 Z4.976 
G1 X2.553 Y2.535 Z4.976 
G1 X2.555 Y2.533 Z4.976 
G1 X2.195 Y2.533 Z4.976 
G1 X2.192 Y2.530 Z4.976 
G1 X2.558 Y2.530 Z4.976 
G1 X2.560 Y2.528 Z4.976 
G1 X2.190 Y2.528 Z4.976 
G1 X2.187 Y2.525 Z4.976 
G1 X2.563 Y2.525 Z4.976 
G1 X2.565 Y2.523 Z4.976 
G1 X2.185 Y2.523 Z4.976 
G1 X2.182 Y2.520 Z4.976 
G1 X2.568 Y2.520 Z4.976 
G1 X2.570 Y2.518 Z4.976 
G1 X2.180 Y2.518 Z4.976 
G1 X2.177 Y2.515 Z4.976 
G1 X2.573 Y2.515 Z4.976 
G1 X2.575 Y2.513 Z4.976 
G1 X2.175 Y2.513 Z4.976 
G1 X2.172 Y2.510 Z4.976 
G1 X2.578 Y2.510 Z4.976 
G1 X2.580 Y2.508 Z4.976 
G1 X2.170 Y2.508 Z4.976 
G1 X2.167 Y2.505 Z4.976 
G1 X2.583 Y2.505 Z4.976 
G1 X2.585 Y2.503 Z4.976 
G1 X2.165 Y2.503 Z4.976 
G1 X2.162 Y2.500 Z4.976 
G1 X2.589 Y2.499 Z4.976 
G1 X2.590 Y2.498 Z4.976 
G1 X2.160 Y2.498 Z4.976 
G1 X2.160 Y2.495 Z4.976 
G1 X2.590 Y2.495 Z4.976 
G1 X2.591 Y2.493 Z4.976 
G1 X2.159 Y2.493 Z4.976 
G1 X2.158 Y2.490 Z4.976 
G1 X2.592 Y2.490 Z4.976 
G1 X2.592 Y2.488 Z4.976 
G1 X2.158 Y2.488 Z4.976 
G1 X2.157 Y2.485 Z4.976 
G1 X2.593 Y2.485 Z4.976 
G1 X2.594 Y2.483 Z4.976 
G1 X2.156 Y2.483 Z4.976 
G1 X2.156 Y2.480 Z4.976 
G1 X2.594 Y2.480 Z4.976 
G1 X2.595 Y2.478 Z4.976 
G1 X2.155 Y2.478 Z4.976 
G1 X2.154 Y2.475 Z4.976 
G1 X2.596 Y2.475 Z4.976 
G1 X2.596 Y2.473 Z4.976 
G1 X2.154 Y2.473 Z4.976 
G1 X2.153 Y2.470 Z4.976 
G1 X2.597 Y2.470 Z4.976 
G1 X2.598 Y2.468 Z4.976 
G1 X2.152 Y2.468 Z4.976 
G1 X2.152 Y2.465 Z4.976 
G1 X2.598 Y2.465 Z4.976 
G1 X2.599 Y2.463 Z4.976 
G1 X2.151 Y2.463 Z4.976 
G1 X2.150 Y2.460 Z4.976 
G1 X2.600 Y2.460 Z4.976 
G1 X2.600 Y2.458 Z4.976 
G1 X2.150 Y2.458 Z4.976 
G1 X2.149 Y2.455 Z4.976 
G1 X2.601 Y2.455 Z4.976 
G1 X2.602 Y2.453 Z4.976 
G1 X2.148 Y2.453 Z4.976 
G1 X2.148 Y2.450 Z4.976 
G1 X2.602 Y2.450 Z4.976 
G1 X2.603 Y2.448 Z4.976 
G1 X2.147 Y2.448 Z4.976 
G1 X2.146 Y2.445 Z4.976 
G1 X2.604 Y2.445 Z4.976 
G1 X2.604 Y2.443 Z4.976 
G1 X2.146 Y2.443 Z4.976 
G1 X2.145 Y2.440 Z4.976 
G1 X2.605 Y2.440 Z4.976 
G1 X2.606 Y2.438 Z4.976 
G1 X2.144 Y2.438 Z4.976 
G1 X2.144 Y2.435 Z4.976 
G1 X2.606 Y2.435 Z4.976 
G1 X2.607 Y2.433 Z4.976 
G1 X2.143 Y2.433 Z4.976 
G1 X2.142 Y2.430 Z4.976 
G1 X2.608 Y2.430 Z4.976 
G1 X2.608 Y2.428 Z4.976 
G1 X2.142 Y2.428 Z4.976 
G1 X2.141 Y2.425 Z4.976 
G1 X2.609 Y2.425 Z4.976 
G1 X2.610 Y2.423 Z4.976 
G1 X2.140 Y2.423 Z4.976 
G1 X2.140 Y2.420 Z4.976 
G1 X2.610 Y2.420 Z4.976 
G1 X2.611 Y2.418 Z4.976 
G1 X2.139 Y2.418 Z4.976 
G1 X2.138 Y2.415 Z4.976 
G1 X2.612 Y2.415 Z4.976 
G1 X2.612 Y2.413 Z4.976 
G1 X2.138 Y2.413 Z4.976 
G1 X2.137 Y2.410 Z4.976 
G1 X2.613 Y2.410 Z4.976 
G1 X2.614 Y2.408 Z4.976 
G1 X2.136 Y2.408 Z4.976 
G1 X2.136 Y2.405 Z4.976 
G1 X2.614 Y2.405 Z4.976 
G1 X2.615 Y2.403 Z4.976 
G1 X2.135 Y2.403 Z4.976 
G1 X2.134 Y2.400 Z4.976 
G1 X2.616 Y2.400 Z4.976 
G1 X2.616 Y2.398 Z4.976 
G1 X2.134 Y2.398 Z4.976 
G1 X2.133 Y2.395 Z4.976 
G1 X2.617 Y2.395 Z4.976 
G1 X2.618 Y2.393 Z4.976 
G1 X2.132 Y2.393 Z4.976 
G1 X2.132 Y2.390 Z4.976 
G1 X2.618 Y2.390 Z4.976 
G1 X2.619 Y2.388 Z4.976 
G1 X2.131 Y2.388 Z4.976 
G1 X2.130 Y2.385 Z4.976 
G1 X2.620 Y2.385 Z4.976 
G1 X2.620 Y2.383 Z4.976 
G1 X2.130 Y2.383 Z4.976 
G1 X2.129 Y2.380 Z4.976 
G1 X2.621 Y2.380 Z4.976 
G1 X2.622 Y2.378 Z4.976 
G1 X2.128 Y2.378 Z4.976 
G1 X2.128 Y2.375 Z4.976 
G1 X2.622 Y2.375 Z4.976 
G1 X2.622 Y2.373 Z4.976 
G1 X2.128 Y2.373 Z4.976 
G1 X2.129 Y2.370 Z4.976 
G1 X2.621 Y2.370 Z4.976 
G1 X2.620 Y2.368 Z4.976 
G1 X2.130 Y2.368 Z4.976 
G1 X2.130 Y2.365 Z4.976 
G1 X2.620 Y2.365 Z4.976 
G1 X2.619 Y2.363 Z4.976 
G1 X2.131 Y2.363 Z4.976 
G1 X2.132 Y2.360 Z4.976 
G1 X2.618 Y2.360 Z4.976 
G1 X2.618 Y2.358 Z4.976 
G1 X2.132 Y2.358 Z4.976 
G1 X2.133 Y2.355 Z4.976 
G1 X2.617 Y2.355 Z4.976 
G1 X2.616 Y2.353 Z4.976 
G1 X2.134 Y2.353 Z4.976 
G1 X2.134 Y2.350 Z4.976 
G1 X2.616 Y2.350 Z4.976 
G1 X2.615 Y2.348 Z4.976 
G1 X2.135 Y2.348 Z4.976 
G1 X2.136 Y2.345 Z4.976 
G1 X2.614 Y2.345 Z4.976 
G1 X2.614 Y2.343 Z4.976 
G1 X2.136 Y2.343 Z4.976 
G1 X2.137 Y2.340 Z4.976 
G1 X2.613 Y2.340 Z4.976 
G1 X2.612 Y2.338 Z4.976 
G1 X2.138 Y2.338 Z4.976 
G1 X2.138 Y2.335 Z4.976 
G1 X2.612 Y2.335 Z4.976 
G1 X2.611 Y2.333 Z4.976 
G1 X2.139 Y2.333 Z4.976 
G1 X2.140 Y2.330 Z4.976 
G1 X2.610 Y2.330 Z4.976 
G1 X2.610 Y2.328 Z4.976 
G1 X2.140 Y2.328 Z4.976 
G1 X2.141 Y2.325 Z4.976 
G1 X2.609 Y2.325 Z4.976 
G1 X2.608 Y2.323 Z4.976 
G1 X2.142 Y2.323 Z4.976 
G1 X2.142 Y2.320 Z4.976 
G1 X2.608 Y2.320 Z4.976 
G1 X2.607 Y2.318 Z4.976 
G1 X2.143 Y2.318 Z4.976 
G1 X2.144 Y2.315 Z4.976 
G1 X2.606 Y2.315 Z4.976 
G1 X2.606 Y2.313 Z4.976 
G1 X2.144 Y2.313 Z4.976 
G1 X2.145 Y2.310 Z4.976 
G1 X2.605 Y2.310 Z4.976 
G1 X2.604 Y2.308 Z4.976 
G1 X2.146 Y2.308 Z4.976 
G1 X2.146 Y2.305 Z4.976 
G1 X2.604 Y2.305 Z4.976 
G1 X2.603 Y2.303 Z4.976 
G1 X2.147 Y2.303 Z4.976 
G1 X2.148 Y2.300 Z4.976 
G1 X2.602 Y2.300 Z4.976 
G1 X2.602 Y2.298 Z4.976 
G1 X2.148 Y2.298 Z4.976 
G1 X2.149 Y2.295 Z4.976 
G1 X2.601 Y2.295 Z4.976 
G1 X2.600 Y2.293 Z4.976 
G1 X2.150 Y2.293 Z4.976 
G1 X2.150 Y2.290 Z4.976 
G1 X2.600 Y2.290 Z4.976 
G1 X2.599 Y2.288 Z4.976 
G1 X2.151 Y2.288 Z4.976 
G1 X2.152 Y2.285 Z4.976 
G1 X2.598 Y2.285 Z4.976 
G1 X2.598 Y2.283 Z4.976 
G1 X2.152 Y2.283 Z4.976 
G1 X2.153 Y2.280 Z4.976 
G1 X2.597 Y2.280 Z4.976 
G1 X2.596 Y2.278 Z4.976 
G1 X2.154 Y2.278 Z4.976 
G1 X2.154 Y2.275 Z4.976 
G1 X2.596 Y2.275 Z4.976 
G1 X2.595 Y2.273 Z4.976 
G1 X2.155 Y2.273 Z4.976 
G1 X2.156 Y2.270 Z4.976 
G1 X2.594 Y2.270 Z4.976 
G1 X2.594 Y2.268 Z4.976 
G1 X2.156 Y2.268 Z4.976 
G1 X2.157 Y2.265 Z4.976 
G1 X2.593 Y2.265 Z4.976 
G1 X2.592 Y2.263 Z4.976 
G1 X2.158 Y2.263 Z4.976 
G1 X2.158 Y2.260 Z4.976 
G1 X2.592 Y2.260 Z4.976 
G1 X2.591 Y2.258 Z4.976 
G1 X2.159 Y2.258 Z4.976 
G1 X2.160 Y2.255 Z4.976 
G1 X2.590 Y2.255 Z4.976 
G1 X2.590 Y2.253 Z4.976 
G1 X2.160 Y2.253 Z4.976 
G3 X2.162 Y2.250 Z4.976 I0.003 J0.000 
G1 X2.588 Y2.250 Z4.976 
G1 X2.586 Y2.248 Z4.976 
G1 X2.164 Y2.248 Z4.976 
G1 X2.167 Y2.245 Z4.976 
G1 X2.583 Y2.245 Z4.976 
G1 X2.581 Y2.243 Z4.976 
G1 X2.169 Y2.243 Z4.976 
G1 X2.172 Y2.240 Z4.976 
G1 X2.578 Y2.240 Z4.976 
G1 X2.576 Y2.238 Z4.976 
G1 X2.174 Y2.238 Z4.976 
G1 X2.177 Y2.235 Z4.976 
G1 X2.573 Y2.235 Z4.976 
G1 X2.571 Y2.233 Z4.976 
G1 X2.179 Y2.233 Z4.976 
G1 X2.182 Y2.230 Z4.976 
G1 X2.568 Y2.230 Z4.976 
G1 X2.566 Y2.228 Z4.976 
G1 X2.184 Y2.228 Z4.976 
G1 X2.187 Y2.225 Z4.976 
G1 X2.563 Y2.225 Z4.976 
G1 X2.561 Y2.223 Z4.976 
G1 X2.189 Y2.223 Z4.976 
G1 X2.192 Y2.220 Z4.976 
G1 X2.558 Y2.220 Z4.976 
G1 X2.556 Y2.218 Z4.976 
G1 X2.194 Y2.218 Z4.976 
G1 X2.197 Y2.215 Z4.976 
G1 X2.553 Y2.215 Z4.976 
G1 X2.551 Y2.213 Z4.976 
G1 X2.199 Y2.213 Z4.976 
G1 X2.202 Y2.210 Z4.976 
G1 X2.548 Y2.210 Z4.976 
G1 X2.546 Y2.208 Z4.976 
G1 X2.204 Y2.208 Z4.976 
G1 X2.207 Y2.205 Z4.976 
G1 X2.543 Y2.205 Z4.976 
G1 X2.541 Y2.203 Z4.976 
G1 X2.209 Y2.203 Z4.976 
G1 X2.212 Y2.200 Z4.976 
G1 X2.538 Y2.200 Z4.976 
G1 X2.536 Y2.198 Z4.976 
G1 X2.214 Y2.198 Z4.976 
G1 X2.217 Y2.195 Z4.976 
G1 X2.533 Y2.195 Z4.976 
G1 X2.531 Y2.193 Z4.976 
G1 X2.219 Y2.193 Z4.976 
G1 X2.222 Y2.190 Z4.976 
G1 X2.528 Y2.190 Z4.976 
G1 X2.526 Y2.188 Z4.976 
G1 X2.224 Y2.188 Z4.976 
G1 X2.227 Y2.185 Z4.976 
G1 X2.523 Y2.185 Z4.976 
G1 X2.521 Y2.183 Z4.976 
G1 X2.229 Y2.183 Z4.976 
G1 X2.232 Y2.180 Z4.976 
G1 X2.518 Y2.180 Z4.976 
G1 X2.516 Y2.178 Z4.976 
G1 X2.234 Y2.178 Z4.976 
G1 X2.237 Y2.175 Z4.976 
G1 X2.513 Y2.175 Z4.976 
G1 X2.511 Y2.173 Z4.976 
G1 X2.239 Y2.173 Z4.976 
G1 X2.242 Y2.170 Z4.976 
G1 X2.508 Y2.170 Z4.976 
G1 X2.506 Y2.168 Z4.976 
G1 X2.244 Y2.168 Z4.976 
G1 X2.247 Y2.165 Z4.976 
G1 X2.503 Y2.165 Z4.976 
G1 X2.501 Y2.163 Z4.976 
G1 X2.249 Y2.163 Z4.976 
G1 X2.251 Y2.161 Z4.976 
G3 X2.499 Y2.161 Z4.976 I0.124 J0.457 
G0 Z10.001 
G0 X2.375 Y2.128 Z10.001 
G0 X2.375 Y2.128 Z8.001 
G1 X2.375 Y2.128 Z4.976 
G1 X2.384 Y2.130 Z4.976 
G2 X2.356 Y2.133 Z4.976 I-0.009 J0.053 
G3 X2.403 Y2.135 Z4.976 I0.019 J0.088 
G2 X2.338 Y2.138 Z4.976 I-0.028 J0.123 
G3 X2.422 Y2.140 Z4.976 I0.037 J0.158 
G2 X2.319 Y2.143 Z4.976 I-0.047 J0.193 
G3 X2.440 Y2.145 Z4.976 I0.056 J0.228 
G2 X2.300 Y2.148 Z4.976 I-0.065 J0.262 
G3 X2.459 Y2.150 Z4.976 I0.075 J0.297 
G2 X2.282 Y2.153 Z4.976 I-0.084 J0.332 
G3 X2.478 Y2.155 Z4.976 I0.093 J0.367 
G2 X2.263 Y2.158 Z4.976 I-0.103 J0.402 
G3 X2.496 Y2.160 Z4.976 I0.112 J0.437 
G1 X2.254 Y2.160 Z4.976 
G1 X2.254 Y2.160 Z4.971 
G1 X2.496 Y2.160 Z4.971 
G2 X2.263 Y2.158 Z4.971 I-0.121 J0.434 
G3 X2.478 Y2.155 Z4.971 I0.112 J0.399 
G2 X2.282 Y2.153 Z4.971 I-0.103 J0.364 
G3 X2.459 Y2.150 Z4.971 I0.093 J0.330 
G2 X2.300 Y2.148 Z4.971 I-0.084 J0.295 
G3 X2.440 Y2.145 Z4.971 I0.075 J0.260 
G2 X2.319 Y2.143 Z4.971 I-0.065 J0.225 
G3 X2.422 Y2.140 Z4.971 I0.056 J0.190 
G2 X2.338 Y2.138 Z4.971 I-0.047 J0.155 
G3 X2.403 Y2.135 Z4.971 I0.037 J0.121 
G2 X2.356 Y2.133 Z4.971 I-0.028 J0.086 
G3 X2.384 Y2.130 Z4.971 I0.019 J0.051 
G1 X2.375 Y2.128 Z4.971 
G0 Z10.001 
G0 X2.499 Y2.161 Z10.001 
G0 X2.499 Y2.161 Z8.001 
G1 X2.499 Y2.161 Z4.971 
G2 X2.251 Y2.161 Z4.971 I-0.124 J0.457 
G1 X2.249 Y2.163 Z4.971 
G1 X2.501 Y2.163 Z4.971 
G1 X2.503 Y2.165 Z4.971 
G1 X2.247 Y2.165 Z4.971 
G1 X2.244 Y2.168 Z4.971 
G1 X2.506 Y2.168 Z4.971 
G1 X2.508 Y2.170 Z4.971 
G1 X2.242 Y2.170 Z4.971 
G1 X2.239 Y2.173 Z4.971 
G1 X2.511 Y2.173 Z4.971 
G1 X2.513 Y2.175 Z4.971 
G1 X2.237 Y2.175 Z4.971 
G1 X2.234 Y2.178 Z4.971 
G1 X2.516 Y2.178 Z4.971 
G1 X2.518 Y2.180 Z4.971 
G1 X2.232 Y2.180 Z4.971 
G1 X2.229 Y2.183 Z4.971 
G1 X2.521 Y2.183 Z4.971 
G1 X2.523 Y2.185 Z4.971 
G1 X2.227 Y2.185 Z4.971 
G1 X2.224 Y2.188 Z4.971 
G1 X2.526 Y2.188 Z4.971 
G1 X2.528 Y2.190 Z4.971 
G1 X2.222 Y2.190 Z4.971 
G1 X2.219 Y2.193 Z4.971 
G1 X2.531 Y2.193 Z4.971 
G1 X2.533 Y2.195 Z4.971 
G1 X2.217 Y2.195 Z4.971 
G1 X2.214 Y2.198 Z4.971 
G1 X2.536 Y2.198 Z4.971 
G1 X2.538 Y2.200 Z4.971 
G1 X2.212 Y2.200 Z4.971 
G1 X2.209 Y2.203 Z4.971 
G1 X2.541 Y2.203 Z4.971 
G1 X2.543 Y2.205 Z4.971 
G1 X2.207 Y2.205 Z4.971 
G1 X2.204 Y2.208 Z4.971 
G1 X2.546 Y2.208 Z4.971 
G1 X2.548 Y2.210 Z4.971 
G1 X2.202 Y2.210 Z4.971 
G1 X2.199 Y2.213 Z4.971 
G1 X2.551 Y2.213 Z4.971 
G1 X2.553 Y2.215 Z4.971 
G1 X2.197 Y2.215 Z4.971 
G1 X2.194 Y2.218 Z4.971 
G1 X2.556 Y2.218 Z4.971 
G1 X2.558 Y2.220 Z4.971 
G1 X2.192 Y2.220 Z4.971 
G1 X2.189 Y2.223 Z4.971 
G1 X2.561 Y2.223 Z4.971 
G1 X2.563 Y2.225 Z4.971 
G1 X2.187 Y2.225 Z4.971 
G1 X2.184 Y2.228 Z4.971 
G1 X2.566 Y2.228 Z4.971 
G1 X2.568 Y2.230 Z4.971 
G1 X2.182 Y2.230 Z4.971 
G1 X2.179 Y2.233 Z4.971 
G1 X2.571 Y2.233 Z4.971 
G1 X2.573 Y2.235 Z4.971 
G1 X2.177 Y2.235 Z4.971 
G1 X2.174 Y2.238 Z4.971 
G1 X2.576 Y2.238 Z4.971 
G1 X2.578 Y2.240 Z4.971 
G1 X2.172 Y2.240 Z4.971 
G1 X2.169 Y2.243 Z4.971 
G1 X2.581 Y2.243 Z4.971 
G1 X2.583 Y2.245 Z4.971 
G1 X2.167 Y2.245 Z4.971 
G1 X2.164 Y2.248 Z4.971 
G1 X2.586 Y2.248 Z4.971 
G1 X2.588 Y2.250 Z4.971 
G1 X2.162 Y2.250 Z4.971 
G2 X2.160 Y2.253 Z4.971 I0.001 J0.003 
G1 X2.590 Y2.253 Z4.971 
G1 X2.590 Y2.255 Z4.971 
G1 X2.160 Y2.255 Z4.971 
G1 X2.159 Y2.258 Z4.971 
G1 X2.591 Y2.258 Z4.971 
G1 X2.592 Y2.260 Z4.971 
G1 X2.158 Y2.260 Z4.971 
G1 X2.158 Y2.263 Z4.971 
G1 X2.592 Y2.263 Z4.971 
G1 X2.593 Y2.265 Z4.971 
G1 X2.157 Y2.265 Z4.971 
G1 X2.156 Y2.268 Z4.971 
G1 X2.594 Y2.268 Z4.971 
G1 X2.594 Y2.270 Z4.971 
G1 X2.156 Y2.270 Z4.971 
G1 X2.155 Y2.273 Z4.971 
G1 X2.595 Y2.273 Z4.971 
G1 X2.596 Y2.275 Z4.971 
G1 X2.154 Y2.275 Z4.971 
G1 X2.154 Y2.278 Z4.971 
G1 X2.596 Y2.278 Z4.971 
G1 X2.597 Y2.280 Z4.971 
G1 X2.153 Y2.280 Z4.971 
G1 X2.152 Y2.283 Z4.971 
G1 X2.598 Y2.283 Z4.971 
G1 X2.598 Y2.285 Z4.971 
G1 X2.152 Y2.285 Z4.971 
G1 X2.151 Y2.288 Z4.971 
G1 X2.599 Y2.288 Z4.971 
G1 X2.600 Y2.290 Z4.971 
G1 X2.150 Y2.290 Z4.971 
G1 X2.150 Y2.293 Z4.971 
G1 X2.600 Y2.293 Z4.971 
G1 X2.601 Y2.295 Z4.971 
G1 X2.149 Y2.295 Z4.971 
G1 X2.148 Y2.298 Z4.971 
G1 X2.602 Y2.298 Z4.971 
G1 X2.602 Y2.300 Z4.971 
G1 X2.148 Y2.300 Z4.971 
G1 X2.147 Y2.303 Z4.971 
G1 X2.603 Y2.303 Z4.971 
G1 X2.604 Y2.305 Z4.971 
G1 X2.146 Y2.305 Z4.971 
G1 X2.146 Y2.308 Z4.971 
G1 X2.604 Y2.308 Z4.971 
G1 X2.605 Y2.310 Z4.971 
G1 X2.145 Y2.310 Z4.971 
G1 X2.144 Y2.313 Z4.971 
G1 X2.606 Y2.313 Z4.971 
G1 X2.606 Y2.315 Z4.971 
G1 X2.144 Y2.315 Z4.971 
G1 X2.143 Y2.318 Z4.971 
G1 X2.607 Y2.318 Z4.971 
G1 X2.608 Y2.320 Z4.971 
G1 X2.142 Y2.320 Z4.971 
G1 X2.142 Y2.323 Z4.971 
G1 X2.608 Y2.323 Z4.971 
G1 X2.609 Y2.325 Z4.971 
G1 X2.141 Y2.325 Z4.971 
G1 X2.140 Y2.328 Z4.971 
G1 X2.610 Y2.328 Z4.971 
G1 X2.610 Y2.330 Z4.971 
G1 X2.140 Y2.330 Z4.971 
G1 X2.139 Y2.333 Z4.971 
G1 X2.611 Y2.333 Z4.971 
G1 X2.612 Y2.335 Z4.971 
G1 X2.138 Y2.335 Z4.971 
G1 X2.138 Y2.338 Z4.971 
G1 X2.612 Y2.338 Z4.971 
G1 X2.613 Y2.340 Z4.971 
G1 X2.137 Y2.340 Z4.971 
G1 X2.136 Y2.343 Z4.971 
G1 X2.614 Y2.343 Z4.971 
G1 X2.614 Y2.345 Z4.971 
G1 X2.136 Y2.345 Z4.971 
G1 X2.135 Y2.348 Z4.971 
G1 X2.615 Y2.348 Z4.971 
G1 X2.616 Y2.350 Z4.971 
G1 X2.134 Y2.350 Z4.971 
G1 X2.134 Y2.353 Z4.971 
G1 X2.616 Y2.353 Z4.971 
G1 X2.617 Y2.355 Z4.971 
G1 X2.133 Y2.355 Z4.971 
G1 X2.132 Y2.358 Z4.971 
G1 X2.618 Y2.358 Z4.971 
G1 X2.618 Y2.360 Z4.971 
G1 X2.132 Y2.360 Z4.971 
G1 X2.131 Y2.363 Z4.971 
G1 X2.619 Y2.363 Z4.971 
G1 X2.620 Y2.365 Z4.971 
G1 X2.130 Y2.365 Z4.971 
G1 X2.130 Y2.368 Z4.971 
G1 X2.620 Y2.368 Z4.971 
G1 X2.621 Y2.370 Z4.971 
G1 X2.129 Y2.370 Z4.971 
G1 X2.128 Y2.373 Z4.971 
G1 X2.622 Y2.373 Z4.971 
G1 X2.622 Y2.375 Z4.971 
G1 X2.128 Y2.375 Z4.971 
G1 X2.128 Y2.378 Z4.971 
G1 X2.622 Y2.378 Z4.971 
G1 X2.621 Y2.380 Z4.971 
G1 X2.129 Y2.380 Z4.971 
G1 X2.130 Y2.383 Z4.971 
G1 X2.620 Y2.383 Z4.971 
G1 X2.620 Y2.385 Z4.971 
G1 X2.130 Y2.385 Z4.971 
G1 X2.131 Y2.388 Z4.971 
G1 X2.619 Y2.388 Z4.971 
G1 X2.618 Y2.390 Z4.971 
G1 X2.132 Y2.390 Z4.971 
G1 X2.132 Y2.393 Z4.971 
G1 X2.618 Y2.393 Z4.971 
G1 X2.617 Y2.395 Z4.971 
G1 X2.133 Y2.395 Z4.971 
G1 X2.134 Y2.398 Z4.971 
G1 X2.616 Y2.398 Z4.971 
G1 X2.616 Y2.400 Z4.971 
G1 X2.134 Y2.400 Z4.971 
G1 X2.135 Y2.403 Z4.971 
G1 X2.615 Y2.403 Z4.971 
G1 X2.614 Y2.405 Z4.971 
G1 X2.136 Y2.405 Z4.971 
G1 X2.136 Y2.408 Z4.971 
G1 X2.614 Y2.408 Z4.971 
G1 X2.613 Y2.410 Z4.971 
G1 X2.137 Y2.410 Z4.971 
G1 X2.138 Y2.413 Z4.971 
G1 X2.612 Y2.413 Z4.971 
G1 X2.612 Y2.415 Z4.971 
G1 X2.138 Y2.415 Z4.971 
G1 X2.139 Y2.418 Z4.971 
G1 X2.611 Y2.418 Z4.971 
G1 X2.610 Y2.420 Z4.971 
G1 X2.140 Y2.420 Z4.971 
G1 X2.140 Y2.423 Z4.971 
G1 X2.610 Y2.423 Z4.971 
G1 X2.609 Y2.425 Z4.971 
G1 X2.141 Y2.425 Z4.971 
G1 X2.142 Y2.428 Z4.971 
G1 X2.608 Y2.428 Z4.971 
G1 X2.608 Y2.430 Z4.971 
G1 X2.142 Y2.430 Z4.971 
G1 X2.143 Y2.433 Z4.971 
G1 X2.607 Y2.433 Z4.971 
G1 X2.606 Y2.435 Z4.971 
G1 X2.144 Y2.435 Z4.971 
G1 X2.144 Y2.438 Z4.971 
G1 X2.606 Y2.438 Z4.971 
G1 X2.605 Y2.440 Z4.971 
G1 X2.145 Y2.440 Z4.971 
G1 X2.146 Y2.443 Z4.971 
G1 X2.604 Y2.443 Z4.971 
G1 X2.604 Y2.445 Z4.971 
G1 X2.146 Y2.445 Z4.971 
G1 X2.147 Y2.448 Z4.971 
G1 X2.603 Y2.448 Z4.971 
G1 X2.602 Y2.450 Z4.971 
G1 X2.148 Y2.450 Z4.971 
G1 X2.148 Y2.453 Z4.971 
G1 X2.602 Y2.453 Z4.971 
G1 X2.601 Y2.455 Z4.971 
G1 X2.149 Y2.455 Z4.971 
G1 X2.150 Y2.458 Z4.971 
G1 X2.600 Y2.458 Z4.971 
G1 X2.600 Y2.460 Z4.971 
G1 X2.150 Y2.460 Z4.971 
G1 X2.151 Y2.463 Z4.971 
G1 X2.599 Y2.463 Z4.971 
G1 X2.598 Y2.465 Z4.971 
G1 X2.152 Y2.465 Z4.971 
G1 X2.152 Y2.468 Z4.971 
G1 X2.598 Y2.468 Z4.971 
G1 X2.597 Y2.470 Z4.971 
G1 X2.153 Y2.470 Z4.971 
G1 X2.154 Y2.473 Z4.971 
G1 X2.596 Y2.473 Z4.971 
G1 X2.596 Y2.475 Z4.971 
G1 X2.154 Y2.475 Z4.971 
G1 X2.155 Y2.478 Z4.971 
G1 X2.595 Y2.478 Z4.971 
G1 X2.594 Y2.480 Z4.971 
G1 X2.156 Y2.480 Z4.971 
G1 X2.156 Y2.483 Z4.971 
G1 X2.594 Y2.483 Z4.971 
G1 X2.593 Y2.485 Z4.971 
G1 X2.157 Y2.485 Z4.971 
G1 X2.158 Y2.488 Z4.971 
G1 X2.592 Y2.488 Z4.971 
G1 X2.592 Y2.490 Z4.971 
G1 X2.158 Y2.490 Z4.971 
G1 X2.159 Y2.493 Z4.971 
G1 X2.591 Y2.493 Z4.971 
G1 X2.590 Y2.495 Z4.971 
G1 X2.160 Y2.495 Z4.971 
G1 X2.160 Y2.498 Z4.971 
G1 X2.590 Y2.498 Z4.971 
G1 X2.589 Y2.499 Z4.971 
G1 X2.162 Y2.500 Z4.971 
G1 X2.165 Y2.503 Z4.971 
G1 X2.585 Y2.503 Z4.971 
G1 X2.583 Y2.505 Z4.971 
G1 X2.167 Y2.505 Z4.971 
G1 X2.170 Y2.508 Z4.971 
G1 X2.580 Y2.508 Z4.971 
G1 X2.578 Y2.510 Z4.971 
G1 X2.172 Y2.510 Z4.971 
G1 X2.175 Y2.513 Z4.971 
G1 X2.575 Y2.513 Z4.971 
G1 X2.573 Y2.515 Z4.971 
G1 X2.177 Y2.515 Z4.971 
G1 X2.180 Y2.518 Z4.971 
G1 X2.570 Y2.518 Z4.971 
G1 X2.568 Y2.520 Z4.971 
G1 X2.182 Y2.520 Z4.971 
G1 X2.185 Y2.523 Z4.971 
G1 X2.565 Y2.523 Z4.971 
G1 X2.563 Y2.525 Z4.971 
G1 X2.187 Y2.525 Z4.971 
G1 X2.190 Y2.528 Z4.971 
G1 X2.560 Y2.528 Z4.971 
G1 X2.558 Y2.530 Z4.971 
G1 X2.192 Y2.530 Z4.971 
G1 X2.195 Y2.533 Z4.971 
G1 X2.555 Y2.533 Z4.971 
G1 X2.553 Y2.535 Z4.971 
G1 X2.197 Y2.535 Z4.971 
G1 X2.200 Y2.538 Z4.971 
G1 X2.550 Y2.538 Z4.971 
G1 X2.548 Y2.540 Z4.971 
G1 X2.202 Y2.540 Z4.971 
G1 X2.205 Y2.543 Z4.971 
G1 X2.545 Y2.543 Z4.971 
G1 X2.543 Y2.545 Z4.971 
G1 X2.207 Y2.545 Z4.971 
G1 X2.210 Y2.548 Z4.971 
G1 X2.540 Y2.548 Z4.971 
G1 X2.538 Y2.550 Z4.971 
G1 X2.212 Y2.550 Z4.971 
G1 X2.215 Y2.553 Z4.971 
G1 X2.535 Y2.553 Z4.971 
G1 X2.533 Y2.555 Z4.971 
G1 X2.217 Y2.555 Z4.971 
G1 X2.220 Y2.558 Z4.971 
G1 X2.530 Y2.558 Z4.971 
G1 X2.528 Y2.560 Z4.971 
G1 X2.222 Y2.560 Z4.971 
G1 X2.225 Y2.563 Z4.971 
G1 X2.525 Y2.563 Z4.971 
G1 X2.523 Y2.565 Z4.971 
G1 X2.227 Y2.565 Z4.971 
G1 X2.230 Y2.568 Z4.971 
G1 X2.520 Y2.568 Z4.971 
G1 X2.518 Y2.570 Z4.971 
G1 X2.232 Y2.570 Z4.971 
G1 X2.235 Y2.573 Z4.971 
G1 X2.515 Y2.573 Z4.971 
G1 X2.513 Y2.575 Z4.971 
G1 X2.237 Y2.575 Z4.971 
G1 X2.240 Y2.578 Z4.971 
G1 X2.510 Y2.578 Z4.971 
G1 X2.508 Y2.580 Z4.971 
G1 X2.242 Y2.580 Z4.971 
G1 X2.245 Y2.583 Z4.971 
G1 X2.505 Y2.583 Z4.971 
G1 X2.503 Y2.585 Z4.971 
G1 X2.247 Y2.585 Z4.971 
G1 X2.250 Y2.588 Z4.971 
G1 X2.500 Y2.588 Z4.971 
G3 X2.496 Y2.590 Z4.971 I-0.005 J-0.003 
G3 X2.251 Y2.589 Z4.971 I-0.121 J-0.456 
G0 Z10.001 
G0 X2.375 Y2.622 Z10.001 
G0 X2.375 Y2.622 Z8.001 
G1 X2.375 Y2.622 Z4.971 
G1 X2.366 Y2.620 Z4.971 
G2 X2.393 Y2.618 Z4.971 I0.009 J-0.051 
G3 X2.348 Y2.615 Z4.971 I-0.018 J-0.086 
G2 X2.412 Y2.613 Z4.971 I0.027 J-0.121 
G3 X2.329 Y2.610 Z4.971 I-0.037 J-0.155 
G2 X2.430 Y2.608 Z4.971 I0.046 J-0.190 
G3 X2.310 Y2.605 Z4.971 I-0.055 J-0.225 
G2 X2.449 Y2.603 Z4.971 I0.065 J-0.260 
G3 X2.292 Y2.600 Z4.971 I-0.074 J-0.295 
G2 X2.468 Y2.598 Z4.971 I0.083 J-0.330 
G3 X2.273 Y2.595 Z4.971 I-0.093 J-0.364 
G2 X2.486 Y2.593 Z4.971 I0.102 J-0.399 
G3 X2.254 Y2.590 Z4.971 I-0.111 J-0.434 
G1 X2.496 Y2.590 Z4.971 
G1 X2.496 Y2.590 Z4.966 
G1 X2.254 Y2.590 Z4.966 
G2 X2.486 Y2.593 Z4.966 I0.121 J-0.432 
G3 X2.273 Y2.595 Z4.966 I-0.111 J-0.397 
G2 X2.468 Y2.598 Z4.966 I0.102 J-0.362 
G3 X2.292 Y2.600 Z4.966 I-0.093 J-0.327 
G2 X2.449 Y2.603 Z4.966 I0.083 J-0.292 
G3 X2.310 Y2.605 Z4.966 I-0.074 J-0.257 
G2 X2.430 Y2.608 Z4.966 I0.065 J-0.223 
G3 X2.329 Y2.610 Z4.966 I-0.055 J-0.188 
G2 X2.412 Y2.613 Z4.966 I0.046 J-0.153 
G3 X2.348 Y2.615 Z4.966 I-0.037 J-0.118 
G2 X2.393 Y2.618 Z4.966 I0.027 J-0.083 
G3 X2.366 Y2.620 Z4.966 I-0.018 J-0.049 
G1 X2.375 Y2.622 Z4.966 
G0 Z10.001 
G0 X2.251 Y2.589 Z10.001 
G0 X2.251 Y2.589 Z8.001 
G1 X2.251 Y2.589 Z4.966 
G2 X2.496 Y2.590 Z4.966 I0.124 J-0.456 
G2 X2.500 Y2.588 Z4.966 I0.000 J-0.005 
G1 X2.250 Y2.588 Z4.966 
G1 X2.247 Y2.585 Z4.966 
G1 X2.503 Y2.585 Z4.966 
G1 X2.505 Y2.583 Z4.966 
G1 X2.245 Y2.583 Z4.966 
G1 X2.242 Y2.580 Z4.966 
G1 X2.508 Y2.580 Z4.966 
G1 X2.510 Y2.578 Z4.966 
G1 X2.240 Y2.578 Z4.966 
G1 X2.237 Y2.575 Z4.966 
G1 X2.513 Y2.575 Z4.966 
G1 X2.515 Y2.573 Z4.966 
G1 X2.235 Y2.573 Z4.966 
G1 X2.232 Y2.570 Z4.966 
G1 X2.518 Y2.570 Z4.966 
G1 X2.520 Y2.568 Z4.966 
G1 X2.230 Y2.568 Z4.966 
G1 X2.227 Y2.565 Z4.966 
G1 X2.523 Y2.565 Z4.966 
G1 X2.525 Y2.563 Z4.966 
G1 X2.225 Y2.563 Z4.966 
G1 X2.222 Y2.560 Z4.966 
G1 X2.528 Y2.560 Z4.966 
G1 X2.530 Y2.558 Z4.966 
G1 X2.220 Y2.558 Z4.966 
G1 X2.217 Y2.555 Z4.966 
G1 X2.533 Y2.555 Z4.966 
G1 X2.535 Y2.553 Z4.966 
G1 X2.215 Y2.553 Z4.966 
G1 X2.212 Y2.550 Z4.966 
G1 X2.538 Y2.550 Z4.966 
G1 X2.540 Y2.548 Z4.966 
G1 X2.210 Y2.548 Z4.966 
G1 X2.207 Y2.545 Z4.966 
G1 X2.543 Y2.545 Z4.966 
G1 X2.545 Y2.543 Z4.966 
G1 X2.205 Y2.543 Z4.966 
G1 X2.202 Y2.540 Z4.966 
G1 X2.548 Y2.540 Z4.966 
G1 X2.550 Y2.538 Z4.966 
G1 X2.200 Y2.538 Z4.966 
G1 X2.197 Y2.535 Z4.966 
G1 X2.553 Y2.535 Z4.966 
G1 X2.555 Y2.533 Z4.966 
G1 X2.195 Y2.533 Z4.966 
G1 X2.192 Y2.530 Z4.966 
G1 X2.558 Y2.530 Z4.966 
G1 X2.560 Y2.528 Z4.966 
G1 X2.190 Y2.528 Z4.966 
G1 X2.187 Y2.525 Z4.966 
G1 X2.563 Y2.525 Z4.966 
G1 X2.565 Y2.523 Z4.966 
G1 X2.185 Y2.523 Z4.966 
G1 X2.182 Y2.520 Z4.966 
G1 X2.568 Y2.520 Z4.966 
G1 X2.570 Y2.518 Z4.966 
G1 X2.180 Y2.518 Z4.966 
G1 X2.177 Y2.515 Z4.966 
G1 X2.573 Y2.515 Z4.966 
G1 X2.575 Y2.513 Z4.966 
G1 X2.175 Y2.513 Z4.966 
G1 X2.172 Y2.510 Z4.966 
G1 X2.578 Y2.510 Z4.966 
G1 X2.580 Y2.508 Z4.966 
G1 X2.170 Y2.508 Z4.966 
G1 X2.167 Y2.505 Z4.966 
G1 X2.583 Y2.505 Z4.966 
G1 X2.585 Y2.503 Z4.966 
G1 X2.165 Y2.503 Z4.966 
G1 X2.162 Y2.500 Z4.966 
G1 X2.589 Y2.499 Z4.966 
G1 X2.590 Y2.498 Z4.966 
G1 X2.160 Y2.498 Z4.966 
G1 X2.160 Y2.495 Z4.966 
G1 X2.590 Y2.495 Z4.966 
G1 X2.591 Y2.493 Z4.966 
G1 X2.159 Y2.493 Z4.966 
G1 X2.158 Y2.490 Z4.966 
G1 X2.592 Y2.490 Z4.966 
G1 X2.592 Y2.488 Z4.966 
G1 X2.158 Y2.488 Z4.966 
G1 X2.157 Y2.485 Z4.966 
G1 X2.593 Y2.485 Z4.966 
G1 X2.594 Y2.483 Z4.966 
G1 X2.156 Y2.483 Z4.966 
G1 X2.156 Y2.480 Z4.966 
G1 X2.594 Y2.480 Z4.966 
G1 X2.595 Y2.478 Z4.966 
G1 X2.155 Y2.478 Z4.966 
G1 X2.154 Y2.475 Z4.966 
G1 X2.596 Y2.475 Z4.966 
G1 X2.596 Y2.473 Z4.966 
G1 X2.154 Y2.473 Z4.966 
G1 X2.153 Y2.470 Z4.966 
G1 X2.597 Y2.470 Z4.966 
G1 X2.598 Y2.468 Z4.966 
G1 X2.152 Y2.468 Z4.966 
G1 X2.152 Y2.465 Z4.966 
G1 X2.598 Y2.465 Z4.966 
G1 X2.599 Y2.463 Z4.966 
G1 X2.151 Y2.463 Z4.966 
G1 X2.150 Y2.460 Z4.966 
G1 X2.600 Y2.460 Z4.966 
G1 X2.600 Y2.458 Z4.966 
G1 X2.150 Y2.458 Z4.966 
G1 X2.149 Y2.455 Z4.966 
G1 X2.601 Y2.455 Z4.966 
G1 X2.602 Y2.453 Z4.966 
G1 X2.148 Y2.453 Z4.966 
G1 X2.148 Y2.450 Z4.966 
G1 X2.602 Y2.450 Z4.966 
G1 X2.603 Y2.448 Z4.966 
G1 X2.147 Y2.448 Z4.966 
G1 X2.146 Y2.445 Z4.966 
G1 X2.604 Y2.445 Z4.966 
G1 X2.604 Y2.443 Z4.966 
G1 X2.146 Y2.443 Z4.966 
G1 X2.145 Y2.440 Z4.966 
G1 X2.605 Y2.440 Z4.966 
G1 X2.606 Y2.438 Z4.966 
G1 X2.144 Y2.438 Z4.966 
G1 X2.144 Y2.435 Z4.966 
G1 X2.606 Y2.435 Z4.966 
G1 X2.607 Y2.433 Z4.966 
G1 X2.143 Y2.433 Z4.966 
G1 X2.142 Y2.430 Z4.966 
G1 X2.608 Y2.430 Z4.966 
G1 X2.608 Y2.428 Z4.966 
G1 X2.142 Y2.428 Z4.966 
G1 X2.141 Y2.425 Z4.966 
G1 X2.609 Y2.425 Z4.966 
G1 X2.610 Y2.423 Z4.966 
G1 X2.140 Y2.423 Z4.966 
G1 X2.140 Y2.420 Z4.966 
G1 X2.610 Y2.420 Z4.966 
G1 X2.611 Y2.418 Z4.966 
G1 X2.139 Y2.418 Z4.966 
G1 X2.138 Y2.415 Z4.966 
G1 X2.612 Y2.415 Z4.966 
G1 X2.612 Y2.413 Z4.966 
G1 X2.138 Y2.413 Z4.966 
G1 X2.137 Y2.410 Z4.966 
G1 X2.613 Y2.410 Z4.966 
G1 X2.614 Y2.408 Z4.966 
G1 X2.136 Y2.408 Z4.966 
G1 X2.136 Y2.405 Z4.966 
G1 X2.614 Y2.405 Z4.966 
G1 X2.615 Y2.403 Z4.966 
G1 X2.135 Y2.403 Z4.966 
G1 X2.134 Y2.400 Z4.966 
G1 X2.616 Y2.400 Z4.966 
G1 X2.616 Y2.398 Z4.966 
G1 X2.134 Y2.398 Z4.966 
G1 X2.133 Y2.395 Z4.966 
G1 X2.617 Y2.395 Z4.966 
G1 X2.618 Y2.393 Z4.966 
G1 X2.132 Y2.393 Z4.966 
G1 X2.132 Y2.390 Z4.966 
G1 X2.618 Y2.390 Z4.966 
G1 X2.619 Y2.388 Z4.966 
G1 X2.131 Y2.388 Z4.966 
G1 X2.130 Y2.385 Z4.966 
G1 X2.620 Y2.385 Z4.966 
G1 X2.620 Y2.383 Z4.966 
G1 X2.130 Y2.383 Z4.966 
G1 X2.129 Y2.380 Z4.966 
G1 X2.621 Y2.380 Z4.966 
G1 X2.622 Y2.378 Z4.966 
G1 X2.128 Y2.378 Z4.966 
G1 X2.128 Y2.375 Z4.966 
G1 X2.622 Y2.375 Z4.966 
G1 X2.622 Y2.373 Z4.966 
G1 X2.128 Y2.373 Z4.966 
G1 X2.129 Y2.370 Z4.966 
G1 X2.621 Y2.370 Z4.966 
G1 X2.620 Y2.368 Z4.966 
G1 X2.130 Y2.368 Z4.966 
G1 X2.130 Y2.365 Z4.966 
G1 X2.620 Y2.365 Z4.966 
G1 X2.619 Y2.363 Z4.966 
G1 X2.131 Y2.363 Z4.966 
G1 X2.132 Y2.360 Z4.966 
G1 X2.618 Y2.360 Z4.966 
G1 X2.618 Y2.358 Z4.966 
G1 X2.132 Y2.358 Z4.966 
G1 X2.133 Y2.355 Z4.966 
G1 X2.617 Y2.355 Z4.966 
G1 X2.616 Y2.353 Z4.966 
G1 X2.134 Y2.353 Z4.966 
G1 X2.134 Y2.350 Z4.966 
G1 X2.616 Y2.350 Z4.966 
G1 X2.615 Y2.348 Z4.966 
G1 X2.135 Y2.348 Z4.966 
G1 X2.136 Y2.345 Z4.966 
G1 X2.614 Y2.345 Z4.966 
G1 X2.614 Y2.343 Z4.966 
G1 X2.136 Y2.343 Z4.966 
G1 X2.137 Y2.340 Z4.966 
G1 X2.613 Y2.340 Z4.966 
G1 X2.612 Y2.338 Z4.966 
G1 X2.138 Y2.338 Z4.966 
G1 X2.138 Y2.335 Z4.966 
G1 X2.612 Y2.335 Z4.966 
G1 X2.611 Y2.333 Z4.966 
G1 X2.139 Y2.333 Z4.966 
G1 X2.140 Y2.330 Z4.966 
G1 X2.610 Y2.330 Z4.966 
G1 X2.610 Y2.328 Z4.966 
G1 X2.140 Y2.328 Z4.966 
G1 X2.141 Y2.325 Z4.966 
G1 X2.609 Y2.325 Z4.966 
G1 X2.608 Y2.323 Z4.966 
G1 X2.142 Y2.323 Z4.966 
G1 X2.142 Y2.320 Z4.966 
G1 X2.608 Y2.320 Z4.966 
G1 X2.607 Y2.318 Z4.966 
G1 X2.143 Y2.318 Z4.966 
G1 X2.144 Y2.315 Z4.966 
G1 X2.606 Y2.315 Z4.966 
G1 X2.606 Y2.313 Z4.966 
G1 X2.144 Y2.313 Z4.966 
G1 X2.145 Y2.310 Z4.966 
G1 X2.605 Y2.310 Z4.966 
G1 X2.604 Y2.308 Z4.966 
G1 X2.146 Y2.308 Z4.966 
G1 X2.146 Y2.305 Z4.966 
G1 X2.604 Y2.305 Z4.966 
G1 X2.603 Y2.303 Z4.966 
G1 X2.147 Y2.303 Z4.966 
G1 X2.148 Y2.300 Z4.966 
G1 X2.602 Y2.300 Z4.966 
G1 X2.602 Y2.298 Z4.966 
G1 X2.148 Y2.298 Z4.966 
G1 X2.149 Y2.295 Z4.966 
G1 X2.601 Y2.295 Z4.966 
G1 X2.600 Y2.293 Z4.966 
G1 X2.150 Y2.293 Z4.966 
G1 X2.150 Y2.290 Z4.966 
G1 X2.600 Y2.290 Z4.966 
G1 X2.599 Y2.288 Z4.966 
G1 X2.151 Y2.288 Z4.966 
G1 X2.152 Y2.285 Z4.966 
G1 X2.598 Y2.285 Z4.966 
G1 X2.598 Y2.283 Z4.966 
G1 X2.152 Y2.283 Z4.966 
G1 X2.153 Y2.280 Z4.966 
G1 X2.597 Y2.280 Z4.966 
G1 X2.596 Y2.278 Z4.966 
G1 X2.154 Y2.278 Z4.966 
G1 X2.154 Y2.275 Z4.966 
G1 X2.596 Y2.275 Z4.966 
G1 X2.595 Y2.273 Z4.966 
G1 X2.155 Y2.273 Z4.966 
G1 X2.156 Y2.270 Z4.966 
G1 X2.594 Y2.270 Z4.966 
G1 X2.594 Y2.268 Z4.966 
G1 X2.156 Y2.268 Z4.966 
G1 X2.157 Y2.265 Z4.966 
G1 X2.593 Y2.265 Z4.966 
G1 X2.592 Y2.263 Z4.966 
G1 X2.158 Y2.263 Z4.966 
G1 X2.158 Y2.260 Z4.966 
G1 X2.592 Y2.260 Z4.966 
G1 X2.591 Y2.258 Z4.966 
G1 X2.159 Y2.258 Z4.966 
G1 X2.160 Y2.255 Z4.966 
G1 X2.590 Y2.255 Z4.966 
G1 X2.590 Y2.253 Z4.966 
G1 X2.160 Y2.253 Z4.966 
G3 X2.162 Y2.250 Z4.966 I0.003 J0.000 
G1 X2.588 Y2.250 Z4.966 
G1 X2.586 Y2.248 Z4.966 
G1 X2.164 Y2.248 Z4.966 
G1 X2.167 Y2.245 Z4.966 
G1 X2.583 Y2.245 Z4.966 
G1 X2.581 Y2.243 Z4.966 
G1 X2.169 Y2.243 Z4.966 
G1 X2.172 Y2.240 Z4.966 
G1 X2.578 Y2.240 Z4.966 
G1 X2.576 Y2.238 Z4.966 
G1 X2.174 Y2.238 Z4.966 
G1 X2.177 Y2.235 Z4.966 
G1 X2.573 Y2.235 Z4.966 
G1 X2.571 Y2.233 Z4.966 
G1 X2.179 Y2.233 Z4.966 
G1 X2.182 Y2.230 Z4.966 
G1 X2.568 Y2.230 Z4.966 
G1 X2.566 Y2.228 Z4.966 
G1 X2.184 Y2.228 Z4.966 
G1 X2.187 Y2.225 Z4.966 
G1 X2.563 Y2.225 Z4.966 
G1 X2.561 Y2.223 Z4.966 
G1 X2.189 Y2.223 Z4.966 
G1 X2.192 Y2.220 Z4.966 
G1 X2.558 Y2.220 Z4.966 
G1 X2.556 Y2.218 Z4.966 
G1 X2.194 Y2.218 Z4.966 
G1 X2.197 Y2.215 Z4.966 
G1 X2.553 Y2.215 Z4.966 
G1 X2.551 Y2.213 Z4.966 
G1 X2.199 Y2.213 Z4.966 
G1 X2.202 Y2.210 Z4.966 
G1 X2.548 Y2.210 Z4.966 
G1 X2.546 Y2.208 Z4.966 
G1 X2.204 Y2.208 Z4.966 
G1 X2.207 Y2.205 Z4.966 
G1 X2.543 Y2.205 Z4.966 
G1 X2.541 Y2.203 Z4.966 
G1 X2.209 Y2.203 Z4.966 
G1 X2.212 Y2.200 Z4.966 
G1 X2.538 Y2.200 Z4.966 
G1 X2.536 Y2.198 Z4.966 
G1 X2.214 Y2.198 Z4.966 
G1 X2.217 Y2.195 Z4.966 
G1 X2.533 Y2.195 Z4.966 
G1 X2.531 Y2.193 Z4.966 
G1 X2.219 Y2.193 Z4.966 
G1 X2.222 Y2.190 Z4.966 
G1 X2.528 Y2.190 Z4.966 
G1 X2.526 Y2.188 Z4.966 
G1 X2.224 Y2.188 Z4.966 
G1 X2.227 Y2.185 Z4.966 
G1 X2.523 Y2.185 Z4.966 
G1 X2.521 Y2.183 Z4.966 
G1 X2.229 Y2.183 Z4.966 
G1 X2.232 Y2.180 Z4.966 
G1 X2.518 Y2.180 Z4.966 
G1 X2.516 Y2.178 Z4.966 
G1 X2.234 Y2.178 Z4.966 
G1 X2.237 Y2.175 Z4.966 
G1 X2.513 Y2.175 Z4.966 
G1 X2.511 Y2.173 Z4.966 
G1 X2.239 Y2.173 Z4.966 
G1 X2.242 Y2.170 Z4.966 
G1 X2.508 Y2.170 Z4.966 
G1 X2.506 Y2.168 Z4.966 
G1 X2.244 Y2.168 Z4.966 
G1 X2.247 Y2.165 Z4.966 
G1 X2.503 Y2.165 Z4.966 
G1 X2.501 Y2.163 Z4.966 
G1 X2.249 Y2.163 Z4.966 
G1 X2.251 Y2.161 Z4.966 
G3 X2.499 Y2.161 Z4.966 I0.124 J0.457 
G0 Z10.001 
G0 X2.375 Y2.128 Z10.001 
G0 X2.375 Y2.128 Z8.001 
G1 X2.375 Y2.128 Z4.966 
G1 X2.384 Y2.130 Z4.966 
G2 X2.356 Y2.133 Z4.966 I-0.009 J0.053 
G3 X2.403 Y2.135 Z4.966 I0.019 J0.088 
G2 X2.338 Y2.138 Z4.966 I-0.028 J0.123 
G3 X2.422 Y2.140 Z4.966 I0.037 J0.158 
G2 X2.319 Y2.143 Z4.966 I-0.047 J0.193 
G3 X2.440 Y2.145 Z4.966 I0.056 J0.228 
G2 X2.300 Y2.148 Z4.966 I-0.065 J0.262 
G3 X2.459 Y2.150 Z4.966 I0.075 J0.297 
G2 X2.282 Y2.153 Z4.966 I-0.084 J0.332 
G3 X2.478 Y2.155 Z4.966 I0.093 J0.367 
G2 X2.263 Y2.158 Z4.966 I-0.103 J0.402 
G3 X2.496 Y2.160 Z4.966 I0.112 J0.437 
G1 X2.254 Y2.160 Z4.966 
G1 X2.254 Y2.160 Z4.961 
G1 X2.496 Y2.160 Z4.961 
G2 X2.263 Y2.158 Z4.961 I-0.121 J0.434 
G3 X2.478 Y2.155 Z4.961 I0.112 J0.399 
G2 X2.282 Y2.153 Z4.961 I-0.103 J0.364 
G3 X2.459 Y2.150 Z4.961 I0.093 J0.330 
G2 X2.300 Y2.148 Z4.961 I-0.084 J0.295 
G3 X2.440 Y2.145 Z4.961 I0.075 J0.260 
G2 X2.319 Y2.143 Z4.961 I-0.065 J0.225 
G3 X2.422 Y2.140 Z4.961 I0.056 J0.190 
G2 X2.338 Y2.138 Z4.961 I-0.047 J0.155 
G3 X2.403 Y2.135 Z4.961 I0.037 J0.121 
G2 X2.356 Y2.133 Z4.961 I-0.028 J0.086 
G3 X2.384 Y2.130 Z4.961 I0.019 J0.051 
G1 X2.375 Y2.128 Z4.961 
G0 Z10.001 
G0 X2.499 Y2.161 Z10.001 
G0 X2.499 Y2.161 Z8.001 
G1 X2.499 Y2.161 Z4.961 
G2 X2.251 Y2.161 Z4.961 I-0.124 J0.457 
G1 X2.249 Y2.163 Z4.961 
G1 X2.501 Y2.163 Z4.961 
G1 X2.503 Y2.165 Z4.961 
G1 X2.247 Y2.165 Z4.961 
G1 X2.244 Y2.168 Z4.961 
G1 X2.506 Y2.168 Z4.961 
G1 X2.508 Y2.170 Z4.961 
G1 X2.242 Y2.170 Z4.961 
G1 X2.239 Y2.173 Z4.961 
G1 X2.511 Y2.173 Z4.961 
G1 X2.513 Y2.175 Z4.961 
G1 X2.237 Y2.175 Z4.961 
G1 X2.234 Y2.178 Z4.961 
G1 X2.516 Y2.178 Z4.961 
G1 X2.518 Y2.180 Z4.961 
G1 X2.232 Y2.180 Z4.961 
G1 X2.229 Y2.183 Z4.961 
G1 X2.521 Y2.183 Z4.961 
G1 X2.523 Y2.185 Z4.961 
G1 X2.227 Y2.185 Z4.961 
G1 X2.224 Y2.188 Z4.961 
G1 X2.526 Y2.188 Z4.961 
G1 X2.528 Y2.190 Z4.961 
G1 X2.222 Y2.190 Z4.961 
G1 X2.219 Y2.193 Z4.961 
G1 X2.531 Y2.193 Z4.961 
G1 X2.533 Y2.195 Z4.961 
G1 X2.217 Y2.195 Z4.961 
G1 X2.214 Y2.198 Z4.961 
G1 X2.536 Y2.198 Z4.961 
G1 X2.538 Y2.200 Z4.961 
G1 X2.212 Y2.200 Z4.961 
G1 X2.209 Y2.203 Z4.961 
G1 X2.541 Y2.203 Z4.961 
G1 X2.543 Y2.205 Z4.961 
G1 X2.207 Y2.205 Z4.961 
G1 X2.204 Y2.208 Z4.961 
G1 X2.546 Y2.208 Z4.961 
G1 X2.548 Y2.210 Z4.961 
G1 X2.202 Y2.210 Z4.961 
G1 X2.199 Y2.213 Z4.961 
G1 X2.551 Y2.213 Z4.961 
G1 X2.553 Y2.215 Z4.961 
G1 X2.197 Y2.215 Z4.961 
G1 X2.194 Y2.218 Z4.961 
G1 X2.556 Y2.218 Z4.961 
G1 X2.558 Y2.220 Z4.961 
G1 X2.192 Y2.220 Z4.961 
G1 X2.189 Y2.223 Z4.961 
G1 X2.561 Y2.223 Z4.961 
G1 X2.563 Y2.225 Z4.961 
G1 X2.187 Y2.225 Z4.961 
G1 X2.184 Y2.228 Z4.961 
G1 X2.566 Y2.228 Z4.961 
G1 X2.568 Y2.230 Z4.961 
G1 X2.182 Y2.230 Z4.961 
G1 X2.179 Y2.233 Z4.961 
G1 X2.571 Y2.233 Z4.961 
G1 X2.573 Y2.235 Z4.961 
G1 X2.177 Y2.235 Z4.961 
G1 X2.174 Y2.238 Z4.961 
G1 X2.576 Y2.238 Z4.961 
G1 X2.578 Y2.240 Z4.961 
G1 X2.172 Y2.240 Z4.961 
G1 X2.169 Y2.243 Z4.961 
G1 X2.581 Y2.243 Z4.961 
G1 X2.583 Y2.245 Z4.961 
G1 X2.167 Y2.245 Z4.961 
G1 X2.164 Y2.248 Z4.961 
G1 X2.586 Y2.248 Z4.961 
G1 X2.588 Y2.250 Z4.961 
G1 X2.162 Y2.250 Z4.961 
G2 X2.160 Y2.253 Z4.961 I0.001 J0.003 
G1 X2.590 Y2.253 Z4.961 
G1 X2.590 Y2.255 Z4.961 
G1 X2.160 Y2.255 Z4.961 
G1 X2.159 Y2.258 Z4.961 
G1 X2.591 Y2.258 Z4.961 
G1 X2.592 Y2.260 Z4.961 
G1 X2.158 Y2.260 Z4.961 
G1 X2.158 Y2.263 Z4.961 
G1 X2.592 Y2.263 Z4.961 
G1 X2.593 Y2.265 Z4.961 
G1 X2.157 Y2.265 Z4.961 
G1 X2.156 Y2.268 Z4.961 
G1 X2.594 Y2.268 Z4.961 
G1 X2.594 Y2.270 Z4.961 
G1 X2.156 Y2.270 Z4.961 
G1 X2.155 Y2.273 Z4.961 
G1 X2.595 Y2.273 Z4.961 
G1 X2.596 Y2.275 Z4.961 
G1 X2.154 Y2.275 Z4.961 
G1 X2.154 Y2.278 Z4.961 
G1 X2.596 Y2.278 Z4.961 
G1 X2.597 Y2.280 Z4.961 
G1 X2.153 Y2.280 Z4.961 
G1 X2.152 Y2.283 Z4.961 
G1 X2.598 Y2.283 Z4.961 
G1 X2.598 Y2.285 Z4.961 
G1 X2.152 Y2.285 Z4.961 
G1 X2.151 Y2.288 Z4.961 
G1 X2.599 Y2.288 Z4.961 
G1 X2.600 Y2.290 Z4.961 
G1 X2.150 Y2.290 Z4.961 
G1 X2.150 Y2.293 Z4.961 
G1 X2.600 Y2.293 Z4.961 
G1 X2.601 Y2.295 Z4.961 
G1 X2.149 Y2.295 Z4.961 
G1 X2.148 Y2.298 Z4.961 
G1 X2.602 Y2.298 Z4.961 
G1 X2.602 Y2.300 Z4.961 
G1 X2.148 Y2.300 Z4.961 
G1 X2.147 Y2.303 Z4.961 
G1 X2.603 Y2.303 Z4.961 
G1 X2.604 Y2.305 Z4.961 
G1 X2.146 Y2.305 Z4.961 
G1 X2.146 Y2.308 Z4.961 
G1 X2.604 Y2.308 Z4.961 
G1 X2.605 Y2.310 Z4.961 
G1 X2.145 Y2.310 Z4.961 
G1 X2.144 Y2.313 Z4.961 
G1 X2.606 Y2.313 Z4.961 
G1 X2.606 Y2.315 Z4.961 
G1 X2.144 Y2.315 Z4.961 
G1 X2.143 Y2.318 Z4.961 
G1 X2.607 Y2.318 Z4.961 
G1 X2.608 Y2.320 Z4.961 
G1 X2.142 Y2.320 Z4.961 
G1 X2.142 Y2.323 Z4.961 
G1 X2.608 Y2.323 Z4.961 
G1 X2.609 Y2.325 Z4.961 
G1 X2.141 Y2.325 Z4.961 
G1 X2.140 Y2.328 Z4.961 
G1 X2.610 Y2.328 Z4.961 
G1 X2.610 Y2.330 Z4.961 
G1 X2.140 Y2.330 Z4.961 
G1 X2.139 Y2.333 Z4.961 
G1 X2.611 Y2.333 Z4.961 
G1 X2.612 Y2.335 Z4.961 
G1 X2.138 Y2.335 Z4.961 
G1 X2.138 Y2.338 Z4.961 
G1 X2.612 Y2.338 Z4.961 
G1 X2.613 Y2.340 Z4.961 
G1 X2.137 Y2.340 Z4.961 
G1 X2.136 Y2.343 Z4.961 
G1 X2.614 Y2.343 Z4.961 
G1 X2.614 Y2.345 Z4.961 
G1 X2.136 Y2.345 Z4.961 
G1 X2.135 Y2.348 Z4.961 
G1 X2.615 Y2.348 Z4.961 
G1 X2.616 Y2.350 Z4.961 
G1 X2.134 Y2.350 Z4.961 
G1 X2.134 Y2.353 Z4.961 
G1 X2.616 Y2.353 Z4.961 
G1 X2.617 Y2.355 Z4.961 
G1 X2.133 Y2.355 Z4.961 
G1 X2.132 Y2.358 Z4.961 
G1 X2.618 Y2.358 Z4.961 
G1 X2.618 Y2.360 Z4.961 
G1 X2.132 Y2.360 Z4.961 
G1 X2.131 Y2.363 Z4.961 
G1 X2.619 Y2.363 Z4.961 
G1 X2.620 Y2.365 Z4.961 
G1 X2.130 Y2.365 Z4.961 
G1 X2.130 Y2.368 Z4.961 
G1 X2.620 Y2.368 Z4.961 
G1 X2.621 Y2.370 Z4.961 
G1 X2.129 Y2.370 Z4.961 
G1 X2.128 Y2.373 Z4.961 
G1 X2.622 Y2.373 Z4.961 
G1 X2.622 Y2.375 Z4.961 
G1 X2.128 Y2.375 Z4.961 
G1 X2.128 Y2.378 Z4.961 
G1 X2.622 Y2.378 Z4.961 
G1 X2.621 Y2.380 Z4.961 
G1 X2.129 Y2.380 Z4.961 
G1 X2.130 Y2.383 Z4.961 
G1 X2.620 Y2.383 Z4.961 
G1 X2.620 Y2.385 Z4.961 
G1 X2.130 Y2.385 Z4.961 
G1 X2.131 Y2.388 Z4.961 
G1 X2.619 Y2.388 Z4.961 
G1 X2.618 Y2.390 Z4.961 
G1 X2.132 Y2.390 Z4.961 
G1 X2.132 Y2.393 Z4.961 
G1 X2.618 Y2.393 Z4.961 
G1 X2.617 Y2.395 Z4.961 
G1 X2.133 Y2.395 Z4.961 
G1 X2.134 Y2.398 Z4.961 
G1 X2.616 Y2.398 Z4.961 
G1 X2.616 Y2.400 Z4.961 
G1 X2.134 Y2.400 Z4.961 
G1 X2.135 Y2.403 Z4.961 
G1 X2.615 Y2.403 Z4.961 
G1 X2.614 Y2.405 Z4.961 
G1 X2.136 Y2.405 Z4.961 
G1 X2.136 Y2.408 Z4.961 
G1 X2.614 Y2.408 Z4.961 
G1 X2.613 Y2.410 Z4.961 
G1 X2.137 Y2.410 Z4.961 
G1 X2.138 Y2.413 Z4.961 
G1 X2.612 Y2.413 Z4.961 
G1 X2.612 Y2.415 Z4.961 
G1 X2.138 Y2.415 Z4.961 
G1 X2.139 Y2.418 Z4.961 
G1 X2.611 Y2.418 Z4.961 
G1 X2.610 Y2.420 Z4.961 
G1 X2.140 Y2.420 Z4.961 
G1 X2.140 Y2.423 Z4.961 
G1 X2.610 Y2.423 Z4.961 
G1 X2.609 Y2.425 Z4.961 
G1 X2.141 Y2.425 Z4.961 
G1 X2.142 Y2.428 Z4.961 
G1 X2.608 Y2.428 Z4.961 
G1 X2.608 Y2.430 Z4.961 
G1 X2.142 Y2.430 Z4.961 
G1 X2.143 Y2.433 Z4.961 
G1 X2.607 Y2.433 Z4.961 
G1 X2.606 Y2.435 Z4.961 
G1 X2.144 Y2.435 Z4.961 
G1 X2.144 Y2.438 Z4.961 
G1 X2.606 Y2.438 Z4.961 
G1 X2.605 Y2.440 Z4.961 
G1 X2.145 Y2.440 Z4.961 
G1 X2.146 Y2.443 Z4.961 
G1 X2.604 Y2.443 Z4.961 
G1 X2.604 Y2.445 Z4.961 
G1 X2.146 Y2.445 Z4.961 
G1 X2.147 Y2.448 Z4.961 
G1 X2.603 Y2.448 Z4.961 
G1 X2.602 Y2.450 Z4.961 
G1 X2.148 Y2.450 Z4.961 
G1 X2.148 Y2.453 Z4.961 
G1 X2.602 Y2.453 Z4.961 
G1 X2.601 Y2.455 Z4.961 
G1 X2.149 Y2.455 Z4.961 
G1 X2.150 Y2.458 Z4.961 
G1 X2.600 Y2.458 Z4.961 
G1 X2.600 Y2.460 Z4.961 
G1 X2.150 Y2.460 Z4.961 
G1 X2.151 Y2.463 Z4.961 
G1 X2.599 Y2.463 Z4.961 
G1 X2.598 Y2.465 Z4.961 
G1 X2.152 Y2.465 Z4.961 
G1 X2.152 Y2.468 Z4.961 
G1 X2.598 Y2.468 Z4.961 
G1 X2.597 Y2.470 Z4.961 
G1 X2.153 Y2.470 Z4.961 
G1 X2.154 Y2.473 Z4.961 
G1 X2.596 Y2.473 Z4.961 
G1 X2.596 Y2.475 Z4.961 
G1 X2.154 Y2.475 Z4.961 
G1 X2.155 Y2.478 Z4.961 
G1 X2.595 Y2.478 Z4.961 
G1 X2.594 Y2.480 Z4.961 
G1 X2.156 Y2.480 Z4.961 
G1 X2.156 Y2.483 Z4.961 
G1 X2.594 Y2.483 Z4.961 
G1 X2.593 Y2.485 Z4.961 
G1 X2.157 Y2.485 Z4.961 
G1 X2.158 Y2.488 Z4.961 
G1 X2.592 Y2.488 Z4.961 
G1 X2.592 Y2.490 Z4.961 
G1 X2.158 Y2.490 Z4.961 
G1 X2.159 Y2.493 Z4.961 
G1 X2.591 Y2.493 Z4.961 
G1 X2.590 Y2.495 Z4.961 
G1 X2.160 Y2.495 Z4.961 
G1 X2.160 Y2.498 Z4.961 
G1 X2.590 Y2.498 Z4.961 
G1 X2.589 Y2.499 Z4.961 
G1 X2.162 Y2.500 Z4.961 
G1 X2.165 Y2.503 Z4.961 
G1 X2.585 Y2.503 Z4.961 
G1 X2.583 Y2.505 Z4.961 
G1 X2.167 Y2.505 Z4.961 
G1 X2.170 Y2.508 Z4.961 
G1 X2.580 Y2.508 Z4.961 
G1 X2.578 Y2.510 Z4.961 
G1 X2.172 Y2.510 Z4.961 
G1 X2.175 Y2.513 Z4.961 
G1 X2.575 Y2.513 Z4.961 
G1 X2.573 Y2.515 Z4.961 
G1 X2.177 Y2.515 Z4.961 
G1 X2.180 Y2.518 Z4.961 
G1 X2.570 Y2.518 Z4.961 
G1 X2.568 Y2.520 Z4.961 
G1 X2.182 Y2.520 Z4.961 
G1 X2.185 Y2.523 Z4.961 
G1 X2.565 Y2.523 Z4.961 
G1 X2.563 Y2.525 Z4.961 
G1 X2.187 Y2.525 Z4.961 
G1 X2.190 Y2.528 Z4.961 
G1 X2.560 Y2.528 Z4.961 
G1 X2.558 Y2.530 Z4.961 
G1 X2.192 Y2.530 Z4.961 
G1 X2.195 Y2.533 Z4.961 
G1 X2.555 Y2.533 Z4.961 
G1 X2.553 Y2.535 Z4.961 
G1 X2.197 Y2.535 Z4.961 
G1 X2.200 Y2.538 Z4.961 
G1 X2.550 Y2.538 Z4.961 
G1 X2.548 Y2.540 Z4.961 
G1 X2.202 Y2.540 Z4.961 
G1 X2.205 Y2.543 Z4.961 
G1 X2.545 Y2.543 Z4.961 
G1 X2.543 Y2.545 Z4.961 
G1 X2.207 Y2.545 Z4.961 
G1 X2.210 Y2.548 Z4.961 
G1 X2.540 Y2.548 Z4.961 
G1 X2.538 Y2.550 Z4.961 
G1 X2.212 Y2.550 Z4.961 
G1 X2.215 Y2.553 Z4.961 
G1 X2.535 Y2.553 Z4.961 
G1 X2.533 Y2.555 Z4.961 
G1 X2.217 Y2.555 Z4.961 
G1 X2.220 Y2.558 Z4.961 
G1 X2.530 Y2.558 Z4.961 
G1 X2.528 Y2.560 Z4.961 
G1 X2.222 Y2.560 Z4.961 
G1 X2.225 Y2.563 Z4.961 
G1 X2.525 Y2.563 Z4.961 
G1 X2.523 Y2.565 Z4.961 
G1 X2.227 Y2.565 Z4.961 
G1 X2.230 Y2.568 Z4.961 
G1 X2.520 Y2.568 Z4.961 
G1 X2.518 Y2.570 Z4.961 
G1 X2.232 Y2.570 Z4.961 
G1 X2.235 Y2.573 Z4.961 
G1 X2.515 Y2.573 Z4.961 
G1 X2.513 Y2.575 Z4.961 
G1 X2.237 Y2.575 Z4.961 
G1 X2.240 Y2.578 Z4.961 
G1 X2.510 Y2.578 Z4.961 
G1 X2.508 Y2.580 Z4.961 
G1 X2.242 Y2.580 Z4.961 
G1 X2.245 Y2.583 Z4.961 
G1 X2.505 Y2.583 Z4.961 
G1 X2.503 Y2.585 Z4.961 
G1 X2.247 Y2.585 Z4.961 
G1 X2.250 Y2.588 Z4.961 
G1 X2.500 Y2.588 Z4.961 
G3 X2.496 Y2.590 Z4.961 I-0.005 J-0.003 
G3 X2.251 Y2.589 Z4.961 I-0.121 J-0.456 
G0 Z10.001 
G0 X2.375 Y2.622 Z10.001 
G0 X2.375 Y2.622 Z8.001 
G1 X2.375 Y2.622 Z4.961 
G1 X2.366 Y2.620 Z4.961 
G2 X2.393 Y2.618 Z4.961 I0.009 J-0.051 
G3 X2.348 Y2.615 Z4.961 I-0.018 J-0.086 
G2 X2.412 Y2.613 Z4.961 I0.027 J-0.121 
G3 X2.329 Y2.610 Z4.961 I-0.037 J-0.155 
G2 X2.430 Y2.608 Z4.961 I0.046 J-0.190 
G3 X2.310 Y2.605 Z4.961 I-0.055 J-0.225 
G2 X2.449 Y2.603 Z4.961 I0.065 J-0.260 
G3 X2.292 Y2.600 Z4.961 I-0.074 J-0.295 
G2 X2.468 Y2.598 Z4.961 I0.083 J-0.330 
G3 X2.273 Y2.595 Z4.961 I-0.093 J-0.364 
G2 X2.486 Y2.593 Z4.961 I0.102 J-0.399 
G3 X2.254 Y2.590 Z4.961 I-0.111 J-0.434 
G1 X2.496 Y2.590 Z4.961 
G1 X2.496 Y2.590 Z4.956 
G1 X2.254 Y2.590 Z4.956 
G2 X2.486 Y2.593 Z4.956 I0.121 J-0.432 
G3 X2.273 Y2.595 Z4.956 I-0.111 J-0.397 
G2 X2.468 Y2.598 Z4.956 I0.102 J-0.362 
G3 X2.292 Y2.600 Z4.956 I-0.093 J-0.327 
G2 X2.449 Y2.603 Z4.956 I0.083 J-0.292 
G3 X2.310 Y2.605 Z4.956 I-0.074 J-0.257 
G2 X2.430 Y2.608 Z4.956 I0.065 J-0.223 
G3 X2.329 Y2.610 Z4.956 I-0.055 J-0.188 
G2 X2.412 Y2.613 Z4.956 I0.046 J-0.153 
G3 X2.348 Y2.615 Z4.956 I-0.037 J-0.118 
G2 X2.393 Y2.618 Z4.956 I0.027 J-0.083 
G3 X2.366 Y2.620 Z4.956 I-0.018 J-0.049 
G1 X2.375 Y2.622 Z4.956 
G0 Z10.001 
G0 X2.251 Y2.589 Z10.001 
G0 X2.251 Y2.589 Z8.001 
G1 X2.251 Y2.589 Z4.956 
G2 X2.496 Y2.590 Z4.956 I0.124 J-0.456 
G2 X2.500 Y2.588 Z4.956 I0.000 J-0.005 
G1 X2.250 Y2.588 Z4.956 
G1 X2.247 Y2.585 Z4.956 
G1 X2.503 Y2.585 Z4.956 
G1 X2.505 Y2.583 Z4.956 
G1 X2.245 Y2.583 Z4.956 
G1 X2.242 Y2.580 Z4.956 
G1 X2.508 Y2.580 Z4.956 
G1 X2.510 Y2.578 Z4.956 
G1 X2.240 Y2.578 Z4.956 
G1 X2.237 Y2.575 Z4.956 
G1 X2.513 Y2.575 Z4.956 
G1 X2.515 Y2.573 Z4.956 
G1 X2.235 Y2.573 Z4.956 
G1 X2.232 Y2.570 Z4.956 
G1 X2.518 Y2.570 Z4.956 
G1 X2.520 Y2.568 Z4.956 
G1 X2.230 Y2.568 Z4.956 
G1 X2.227 Y2.565 Z4.956 
G1 X2.523 Y2.565 Z4.956 
G1 X2.525 Y2.563 Z4.956 
G1 X2.225 Y2.563 Z4.956 
G1 X2.222 Y2.560 Z4.956 
G1 X2.528 Y2.560 Z4.956 
G1 X2.530 Y2.558 Z4.956 
G1 X2.220 Y2.558 Z4.956 
G1 X2.217 Y2.555 Z4.956 
G1 X2.533 Y2.555 Z4.956 
G1 X2.535 Y2.553 Z4.956 
G1 X2.215 Y2.553 Z4.956 
G1 X2.212 Y2.550 Z4.956 
G1 X2.538 Y2.550 Z4.956 
G1 X2.540 Y2.548 Z4.956 
G1 X2.210 Y2.548 Z4.956 
G1 X2.207 Y2.545 Z4.956 
G1 X2.543 Y2.545 Z4.956 
G1 X2.545 Y2.543 Z4.956 
G1 X2.205 Y2.543 Z4.956 
G1 X2.202 Y2.540 Z4.956 
G1 X2.548 Y2.540 Z4.956 
G1 X2.550 Y2.538 Z4.956 
G1 X2.200 Y2.538 Z4.956 
G1 X2.197 Y2.535 Z4.956 
G1 X2.553 Y2.535 Z4.956 
G1 X2.555 Y2.533 Z4.956 
G1 X2.195 Y2.533 Z4.956 
G1 X2.192 Y2.530 Z4.956 
G1 X2.558 Y2.530 Z4.956 
G1 X2.560 Y2.528 Z4.956 
G1 X2.190 Y2.528 Z4.956 
G1 X2.187 Y2.525 Z4.956 
G1 X2.563 Y2.525 Z4.956 
G1 X2.565 Y2.523 Z4.956 
G1 X2.185 Y2.523 Z4.956 
G1 X2.182 Y2.520 Z4.956 
G1 X2.568 Y2.520 Z4.956 
G1 X2.570 Y2.518 Z4.956 
G1 X2.180 Y2.518 Z4.956 
G1 X2.177 Y2.515 Z4.956 
G1 X2.573 Y2.515 Z4.956 
G1 X2.575 Y2.513 Z4.956 
G1 X2.175 Y2.513 Z4.956 
G1 X2.172 Y2.510 Z4.956 
G1 X2.578 Y2.510 Z4.956 
G1 X2.580 Y2.508 Z4.956 
G1 X2.170 Y2.508 Z4.956 
G1 X2.167 Y2.505 Z4.956 
G1 X2.583 Y2.505 Z4.956 
G1 X2.585 Y2.503 Z4.956 
G1 X2.165 Y2.503 Z4.956 
G1 X2.162 Y2.500 Z4.956 
G1 X2.589 Y2.499 Z4.956 
G1 X2.590 Y2.498 Z4.956 
G1 X2.160 Y2.498 Z4.956 
G1 X2.160 Y2.495 Z4.956 
G1 X2.590 Y2.495 Z4.956 
G1 X2.591 Y2.493 Z4.956 
G1 X2.159 Y2.493 Z4.956 
G1 X2.158 Y2.490 Z4.956 
G1 X2.592 Y2.490 Z4.956 
G1 X2.592 Y2.488 Z4.956 
G1 X2.158 Y2.488 Z4.956 
G1 X2.157 Y2.485 Z4.956 
G1 X2.593 Y2.485 Z4.956 
G1 X2.594 Y2.483 Z4.956 
G1 X2.156 Y2.483 Z4.956 
G1 X2.156 Y2.480 Z4.956 
G1 X2.594 Y2.480 Z4.956 
G1 X2.595 Y2.478 Z4.956 
G1 X2.155 Y2.478 Z4.956 
G1 X2.154 Y2.475 Z4.956 
G1 X2.596 Y2.475 Z4.956 
G1 X2.596 Y2.473 Z4.956 
G1 X2.154 Y2.473 Z4.956 
G1 X2.153 Y2.470 Z4.956 
G1 X2.597 Y2.470 Z4.956 
G1 X2.598 Y2.468 Z4.956 
G1 X2.152 Y2.468 Z4.956 
G1 X2.152 Y2.465 Z4.956 
G1 X2.598 Y2.465 Z4.956 
G1 X2.599 Y2.463 Z4.956 
G1 X2.151 Y2.463 Z4.956 
G1 X2.150 Y2.460 Z4.956 
G1 X2.600 Y2.460 Z4.956 
G1 X2.600 Y2.458 Z4.956 
G1 X2.150 Y2.458 Z4.956 
G1 X2.149 Y2.455 Z4.956 
G1 X2.601 Y2.455 Z4.956 
G1 X2.602 Y2.453 Z4.956 
G1 X2.148 Y2.453 Z4.956 
G1 X2.148 Y2.450 Z4.956 
G1 X2.602 Y2.450 Z4.956 
G1 X2.603 Y2.448 Z4.956 
G1 X2.147 Y2.448 Z4.956 
G1 X2.146 Y2.445 Z4.956 
G1 X2.604 Y2.445 Z4.956 
G1 X2.604 Y2.443 Z4.956 
G1 X2.146 Y2.443 Z4.956 
G1 X2.145 Y2.440 Z4.956 
G1 X2.605 Y2.440 Z4.956 
G1 X2.606 Y2.438 Z4.956 
G1 X2.144 Y2.438 Z4.956 
G1 X2.144 Y2.435 Z4.956 
G1 X2.606 Y2.435 Z4.956 
G1 X2.607 Y2.433 Z4.956 
G1 X2.143 Y2.433 Z4.956 
G1 X2.142 Y2.430 Z4.956 
G1 X2.608 Y2.430 Z4.956 
G1 X2.608 Y2.428 Z4.956 
G1 X2.142 Y2.428 Z4.956 
G1 X2.141 Y2.425 Z4.956 
G1 X2.609 Y2.425 Z4.956 
G1 X2.610 Y2.423 Z4.956 
G1 X2.140 Y2.423 Z4.956 
G1 X2.140 Y2.420 Z4.956 
G1 X2.610 Y2.420 Z4.956 
G1 X2.611 Y2.418 Z4.956 
G1 X2.139 Y2.418 Z4.956 
G1 X2.138 Y2.415 Z4.956 
G1 X2.612 Y2.415 Z4.956 
G1 X2.612 Y2.413 Z4.956 
G1 X2.138 Y2.413 Z4.956 
G1 X2.137 Y2.410 Z4.956 
G1 X2.613 Y2.410 Z4.956 
G1 X2.614 Y2.408 Z4.956 
G1 X2.136 Y2.408 Z4.956 
G1 X2.136 Y2.405 Z4.956 
G1 X2.614 Y2.405 Z4.956 
G1 X2.615 Y2.403 Z4.956 
G1 X2.135 Y2.403 Z4.956 
G1 X2.134 Y2.400 Z4.956 
G1 X2.616 Y2.400 Z4.956 
G1 X2.616 Y2.398 Z4.956 
G1 X2.134 Y2.398 Z4.956 
G1 X2.133 Y2.395 Z4.956 
G1 X2.617 Y2.395 Z4.956 
G1 X2.618 Y2.393 Z4.956 
G1 X2.132 Y2.393 Z4.956 
G1 X2.132 Y2.390 Z4.956 
G1 X2.618 Y2.390 Z4.956 
G1 X2.619 Y2.388 Z4.956 
G1 X2.131 Y2.388 Z4.956 
G1 X2.130 Y2.385 Z4.956 
G1 X2.620 Y2.385 Z4.956 
G1 X2.620 Y2.383 Z4.956 
G1 X2.130 Y2.383 Z4.956 
G1 X2.129 Y2.380 Z4.956 
G1 X2.621 Y2.380 Z4.956 
G1 X2.622 Y2.378 Z4.956 
G1 X2.128 Y2.378 Z4.956 
G1 X2.128 Y2.375 Z4.956 
G1 X2.622 Y2.375 Z4.956 
G1 X2.622 Y2.373 Z4.956 
G1 X2.128 Y2.373 Z4.956 
G1 X2.129 Y2.370 Z4.956 
G1 X2.621 Y2.370 Z4.956 
G1 X2.620 Y2.368 Z4.956 
G1 X2.130 Y2.368 Z4.956 
G1 X2.130 Y2.365 Z4.956 
G1 X2.620 Y2.365 Z4.956 
G1 X2.619 Y2.363 Z4.956 
G1 X2.131 Y2.363 Z4.956 
G1 X2.132 Y2.360 Z4.956 
G1 X2.618 Y2.360 Z4.956 
G1 X2.618 Y2.358 Z4.956 
G1 X2.132 Y2.358 Z4.956 
G1 X2.133 Y2.355 Z4.956 
G1 X2.617 Y2.355 Z4.956 
G1 X2.616 Y2.353 Z4.956 
G1 X2.134 Y2.353 Z4.956 
G1 X2.134 Y2.350 Z4.956 
G1 X2.616 Y2.350 Z4.956 
G1 X2.615 Y2.348 Z4.956 
G1 X2.135 Y2.348 Z4.956 
G1 X2.136 Y2.345 Z4.956 
G1 X2.614 Y2.345 Z4.956 
G1 X2.614 Y2.343 Z4.956 
G1 X2.136 Y2.343 Z4.956 
G1 X2.137 Y2.340 Z4.956 
G1 X2.613 Y2.340 Z4.956 
G1 X2.612 Y2.338 Z4.956 
G1 X2.138 Y2.338 Z4.956 
G1 X2.138 Y2.335 Z4.956 
G1 X2.612 Y2.335 Z4.956 
G1 X2.611 Y2.333 Z4.956 
G1 X2.139 Y2.333 Z4.956 
G1 X2.140 Y2.330 Z4.956 
G1 X2.610 Y2.330 Z4.956 
G1 X2.610 Y2.328 Z4.956 
G1 X2.140 Y2.328 Z4.956 
G1 X2.141 Y2.325 Z4.956 
G1 X2.609 Y2.325 Z4.956 
G1 X2.608 Y2.323 Z4.956 
G1 X2.142 Y2.323 Z4.956 
G1 X2.142 Y2.320 Z4.956 
G1 X2.608 Y2.320 Z4.956 
G1 X2.607 Y2.318 Z4.956 
G1 X2.143 Y2.318 Z4.956 
G1 X2.144 Y2.315 Z4.956 
G1 X2.606 Y2.315 Z4.956 
G1 X2.606 Y2.313 Z4.956 
G1 X2.144 Y2.313 Z4.956 
G1 X2.145 Y2.310 Z4.956 
G1 X2.605 Y2.310 Z4.956 
G1 X2.604 Y2.308 Z4.956 
G1 X2.146 Y2.308 Z4.956 
G1 X2.146 Y2.305 Z4.956 
G1 X2.604 Y2.305 Z4.956 
G1 X2.603 Y2.303 Z4.956 
G1 X2.147 Y2.303 Z4.956 
G1 X2.148 Y2.300 Z4.956 
G1 X2.602 Y2.300 Z4.956 
G1 X2.602 Y2.298 Z4.956 
G1 X2.148 Y2.298 Z4.956 
G1 X2.149 Y2.295 Z4.956 
G1 X2.601 Y2.295 Z4.956 
G1 X2.600 Y2.293 Z4.956 
G1 X2.150 Y2.293 Z4.956 
G1 X2.150 Y2.290 Z4.956 
G1 X2.600 Y2.290 Z4.956 
G1 X2.599 Y2.288 Z4.956 
G1 X2.151 Y2.288 Z4.956 
G1 X2.152 Y2.285 Z4.956 
G1 X2.598 Y2.285 Z4.956 
G1 X2.598 Y2.283 Z4.956 
G1 X2.152 Y2.283 Z4.956 
G1 X2.153 Y2.280 Z4.956 
G1 X2.597 Y2.280 Z4.956 
G1 X2.596 Y2.278 Z4.956 
G1 X2.154 Y2.278 Z4.956 
G1 X2.154 Y2.275 Z4.956 
G1 X2.596 Y2.275 Z4.956 
G1 X2.595 Y2.273 Z4.956 
G1 X2.155 Y2.273 Z4.956 
G1 X2.156 Y2.270 Z4.956 
G1 X2.594 Y2.270 Z4.956 
G1 X2.594 Y2.268 Z4.956 
G1 X2.156 Y2.268 Z4.956 
G1 X2.157 Y2.265 Z4.956 
G1 X2.593 Y2.265 Z4.956 
G1 X2.592 Y2.263 Z4.956 
G1 X2.158 Y2.263 Z4.956 
G1 X2.158 Y2.260 Z4.956 
G1 X2.592 Y2.260 Z4.956 
G1 X2.591 Y2.258 Z4.956 
G1 X2.159 Y2.258 Z4.956 
G1 X2.160 Y2.255 Z4.956 
G1 X2.590 Y2.255 Z4.956 
G1 X2.590 Y2.253 Z4.956 
G1 X2.160 Y2.253 Z4.956 
G3 X2.162 Y2.250 Z4.956 I0.003 J0.000 
G1 X2.588 Y2.250 Z4.956 
G1 X2.586 Y2.248 Z4.956 
G1 X2.164 Y2.248 Z4.956 
G1 X2.167 Y2.245 Z4.956 
G1 X2.583 Y2.245 Z4.956 
G1 X2.581 Y2.243 Z4.956 
G1 X2.169 Y2.243 Z4.956 
G1 X2.172 Y2.240 Z4.956 
G1 X2.578 Y2.240 Z4.956 
G1 X2.576 Y2.238 Z4.956 
G1 X2.174 Y2.238 Z4.956 
G1 X2.177 Y2.235 Z4.956 
G1 X2.573 Y2.235 Z4.956 
G1 X2.571 Y2.233 Z4.956 
G1 X2.179 Y2.233 Z4.956 
G1 X2.182 Y2.230 Z4.956 
G1 X2.568 Y2.230 Z4.956 
G1 X2.566 Y2.228 Z4.956 
G1 X2.184 Y2.228 Z4.956 
G1 X2.187 Y2.225 Z4.956 
G1 X2.563 Y2.225 Z4.956 
G1 X2.561 Y2.223 Z4.956 
G1 X2.189 Y2.223 Z4.956 
G1 X2.192 Y2.220 Z4.956 
G1 X2.558 Y2.220 Z4.956 
G1 X2.556 Y2.218 Z4.956 
G1 X2.194 Y2.218 Z4.956 
G1 X2.197 Y2.215 Z4.956 
G1 X2.553 Y2.215 Z4.956 
G1 X2.551 Y2.213 Z4.956 
G1 X2.199 Y2.213 Z4.956 
G1 X2.202 Y2.210 Z4.956 
G1 X2.548 Y2.210 Z4.956 
G1 X2.546 Y2.208 Z4.956 
G1 X2.204 Y2.208 Z4.956 
G1 X2.207 Y2.205 Z4.956 
G1 X2.543 Y2.205 Z4.956 
G1 X2.541 Y2.203 Z4.956 
G1 X2.209 Y2.203 Z4.956 
G1 X2.212 Y2.200 Z4.956 
G1 X2.538 Y2.200 Z4.956 
G1 X2.536 Y2.198 Z4.956 
G1 X2.214 Y2.198 Z4.956 
G1 X2.217 Y2.195 Z4.956 
G1 X2.533 Y2.195 Z4.956 
G1 X2.531 Y2.193 Z4.956 
G1 X2.219 Y2.193 Z4.956 
G1 X2.222 Y2.190 Z4.956 
G1 X2.528 Y2.190 Z4.956 
G1 X2.526 Y2.188 Z4.956 
G1 X2.224 Y2.188 Z4.956 
G1 X2.227 Y2.185 Z4.956 
G1 X2.523 Y2.185 Z4.956 
G1 X2.521 Y2.183 Z4.956 
G1 X2.229 Y2.183 Z4.956 
G1 X2.232 Y2.180 Z4.956 
G1 X2.518 Y2.180 Z4.956 
G1 X2.516 Y2.178 Z4.956 
G1 X2.234 Y2.178 Z4.956 
G1 X2.237 Y2.175 Z4.956 
G1 X2.513 Y2.175 Z4.956 
G1 X2.511 Y2.173 Z4.956 
G1 X2.239 Y2.173 Z4.956 
G1 X2.242 Y2.170 Z4.956 
G1 X2.508 Y2.170 Z4.956 
G1 X2.506 Y2.168 Z4.956 
G1 X2.244 Y2.168 Z4.956 
G1 X2.247 Y2.165 Z4.956 
G1 X2.503 Y2.165 Z4.956 
G1 X2.501 Y2.163 Z4.956 
G1 X2.249 Y2.163 Z4.956 
G1 X2.251 Y2.161 Z4.956 
G3 X2.499 Y2.161 Z4.956 I0.124 J0.457 
G0 Z10.001 
G0 X2.375 Y2.128 Z10.001 
G0 X2.375 Y2.128 Z8.001 
G1 X2.375 Y2.128 Z4.956 
G1 X2.384 Y2.130 Z4.956 
G2 X2.356 Y2.133 Z4.956 I-0.009 J0.053 
G3 X2.403 Y2.135 Z4.956 I0.019 J0.088 
G2 X2.338 Y2.138 Z4.956 I-0.028 J0.123 
G3 X2.422 Y2.140 Z4.956 I0.037 J0.158 
G2 X2.319 Y2.143 Z4.956 I-0.047 J0.193 
G3 X2.440 Y2.145 Z4.956 I0.056 J0.228 
G2 X2.300 Y2.148 Z4.956 I-0.065 J0.262 
G3 X2.459 Y2.150 Z4.956 I0.075 J0.297 
G2 X2.282 Y2.153 Z4.956 I-0.084 J0.332 
G3 X2.478 Y2.155 Z4.956 I0.093 J0.367 
G2 X2.263 Y2.158 Z4.956 I-0.103 J0.402 
G3 X2.496 Y2.160 Z4.956 I0.112 J0.437 
G1 X2.254 Y2.160 Z4.956 
G1 X2.254 Y2.160 Z4.951 
G1 X2.496 Y2.160 Z4.951 
G2 X2.263 Y2.158 Z4.951 I-0.121 J0.434 
G3 X2.478 Y2.155 Z4.951 I0.112 J0.399 
G2 X2.282 Y2.153 Z4.951 I-0.103 J0.364 
G3 X2.459 Y2.150 Z4.951 I0.093 J0.330 
G2 X2.300 Y2.148 Z4.951 I-0.084 J0.295 
G3 X2.440 Y2.145 Z4.951 I0.075 J0.260 
G2 X2.319 Y2.143 Z4.951 I-0.065 J0.225 
G3 X2.422 Y2.140 Z4.951 I0.056 J0.190 
G2 X2.338 Y2.138 Z4.951 I-0.047 J0.155 
G3 X2.403 Y2.135 Z4.951 I0.037 J0.121 
G2 X2.356 Y2.133 Z4.951 I-0.028 J0.086 
G3 X2.384 Y2.130 Z4.951 I0.019 J0.051 
G1 X2.375 Y2.128 Z4.951 
G0 Z10.001 
G0 X2.499 Y2.161 Z10.001 
G0 X2.499 Y2.161 Z8.001 
G1 X2.499 Y2.161 Z4.951 
G2 X2.251 Y2.161 Z4.951 I-0.124 J0.457 
G1 X2.249 Y2.163 Z4.951 
G1 X2.501 Y2.163 Z4.951 
G1 X2.503 Y2.165 Z4.951 
G1 X2.247 Y2.165 Z4.951 
G1 X2.244 Y2.168 Z4.951 
G1 X2.506 Y2.168 Z4.951 
G1 X2.508 Y2.170 Z4.951 
G1 X2.242 Y2.170 Z4.951 
G1 X2.239 Y2.173 Z4.951 
G1 X2.511 Y2.173 Z4.951 
G1 X2.513 Y2.175 Z4.951 
G1 X2.237 Y2.175 Z4.951 
G1 X2.234 Y2.178 Z4.951 
G1 X2.516 Y2.178 Z4.951 
G1 X2.518 Y2.180 Z4.951 
G1 X2.232 Y2.180 Z4.951 
G1 X2.229 Y2.183 Z4.951 
G1 X2.521 Y2.183 Z4.951 
G1 X2.523 Y2.185 Z4.951 
G1 X2.227 Y2.185 Z4.951 
G1 X2.224 Y2.188 Z4.951 
G1 X2.526 Y2.188 Z4.951 
G1 X2.528 Y2.190 Z4.951 
G1 X2.222 Y2.190 Z4.951 
G1 X2.219 Y2.193 Z4.951 
G1 X2.531 Y2.193 Z4.951 
G1 X2.533 Y2.195 Z4.951 
G1 X2.217 Y2.195 Z4.951 
G1 X2.214 Y2.198 Z4.951 
G1 X2.536 Y2.198 Z4.951 
G1 X2.538 Y2.200 Z4.951 
G1 X2.212 Y2.200 Z4.951 
G1 X2.209 Y2.203 Z4.951 
G1 X2.541 Y2.203 Z4.951 
G1 X2.543 Y2.205 Z4.951 
G1 X2.207 Y2.205 Z4.951 
G1 X2.204 Y2.208 Z4.951 
G1 X2.546 Y2.208 Z4.951 
G1 X2.548 Y2.210 Z4.951 
G1 X2.202 Y2.210 Z4.951 
G1 X2.199 Y2.213 Z4.951 
G1 X2.551 Y2.213 Z4.951 
G1 X2.553 Y2.215 Z4.951 
G1 X2.197 Y2.215 Z4.951 
G1 X2.194 Y2.218 Z4.951 
G1 X2.556 Y2.218 Z4.951 
G1 X2.558 Y2.220 Z4.951 
G1 X2.192 Y2.220 Z4.951 
G1 X2.189 Y2.223 Z4.951 
G1 X2.561 Y2.223 Z4.951 
G1 X2.563 Y2.225 Z4.951 
G1 X2.187 Y2.225 Z4.951 
G1 X2.184 Y2.228 Z4.951 
G1 X2.566 Y2.228 Z4.951 
G1 X2.568 Y2.230 Z4.951 
G1 X2.182 Y2.230 Z4.951 
G1 X2.179 Y2.233 Z4.951 
G1 X2.571 Y2.233 Z4.951 
G1 X2.573 Y2.235 Z4.951 
G1 X2.177 Y2.235 Z4.951 
G1 X2.174 Y2.238 Z4.951 
G1 X2.576 Y2.238 Z4.951 
G1 X2.578 Y2.240 Z4.951 
G1 X2.172 Y2.240 Z4.951 
G1 X2.169 Y2.243 Z4.951 
G1 X2.581 Y2.243 Z4.951 
G1 X2.583 Y2.245 Z4.951 
G1 X2.167 Y2.245 Z4.951 
G1 X2.164 Y2.248 Z4.951 
G1 X2.586 Y2.248 Z4.951 
G1 X2.588 Y2.250 Z4.951 
G1 X2.162 Y2.250 Z4.951 
G2 X2.160 Y2.253 Z4.951 I0.001 J0.003 
G1 X2.590 Y2.253 Z4.951 
G1 X2.590 Y2.255 Z4.951 
G1 X2.160 Y2.255 Z4.951 
G1 X2.159 Y2.258 Z4.951 
G1 X2.591 Y2.258 Z4.951 
G1 X2.592 Y2.260 Z4.951 
G1 X2.158 Y2.260 Z4.951 
G1 X2.158 Y2.263 Z4.951 
G1 X2.592 Y2.263 Z4.951 
G1 X2.593 Y2.265 Z4.951 
G1 X2.157 Y2.265 Z4.951 
G1 X2.156 Y2.268 Z4.951 
G1 X2.594 Y2.268 Z4.951 
G1 X2.594 Y2.270 Z4.951 
G1 X2.156 Y2.270 Z4.951 
G1 X2.155 Y2.273 Z4.951 
G1 X2.595 Y2.273 Z4.951 
G1 X2.596 Y2.275 Z4.951 
G1 X2.154 Y2.275 Z4.951 
G1 X2.154 Y2.278 Z4.951 
G1 X2.596 Y2.278 Z4.951 
G1 X2.597 Y2.280 Z4.951 
G1 X2.153 Y2.280 Z4.951 
G1 X2.152 Y2.283 Z4.951 
G1 X2.598 Y2.283 Z4.951 
G1 X2.598 Y2.285 Z4.951 
G1 X2.152 Y2.285 Z4.951 
G1 X2.151 Y2.288 Z4.951 
G1 X2.599 Y2.288 Z4.951 
G1 X2.600 Y2.290 Z4.951 
G1 X2.150 Y2.290 Z4.951 
G1 X2.150 Y2.293 Z4.951 
G1 X2.600 Y2.293 Z4.951 
G1 X2.601 Y2.295 Z4.951 
G1 X2.149 Y2.295 Z4.951 
G1 X2.148 Y2.298 Z4.951 
G1 X2.602 Y2.298 Z4.951 
G1 X2.602 Y2.300 Z4.951 
G1 X2.148 Y2.300 Z4.951 
G1 X2.147 Y2.303 Z4.951 
G1 X2.603 Y2.303 Z4.951 
G1 X2.604 Y2.305 Z4.951 
G1 X2.146 Y2.305 Z4.951 
G1 X2.146 Y2.308 Z4.951 
G1 X2.604 Y2.308 Z4.951 
G1 X2.605 Y2.310 Z4.951 
G1 X2.145 Y2.310 Z4.951 
G1 X2.144 Y2.313 Z4.951 
G1 X2.606 Y2.313 Z4.951 
G1 X2.606 Y2.315 Z4.951 
G1 X2.144 Y2.315 Z4.951 
G1 X2.143 Y2.318 Z4.951 
G1 X2.607 Y2.318 Z4.951 
G1 X2.608 Y2.320 Z4.951 
G1 X2.142 Y2.320 Z4.951 
G1 X2.142 Y2.323 Z4.951 
G1 X2.608 Y2.323 Z4.951 
G1 X2.609 Y2.325 Z4.951 
G1 X2.141 Y2.325 Z4.951 
G1 X2.140 Y2.328 Z4.951 
G1 X2.610 Y2.328 Z4.951 
G1 X2.610 Y2.330 Z4.951 
G1 X2.140 Y2.330 Z4.951 
G1 X2.139 Y2.333 Z4.951 
G1 X2.611 Y2.333 Z4.951 
G1 X2.612 Y2.335 Z4.951 
G1 X2.138 Y2.335 Z4.951 
G1 X2.138 Y2.338 Z4.951 
G1 X2.612 Y2.338 Z4.951 
G1 X2.613 Y2.340 Z4.951 
G1 X2.137 Y2.340 Z4.951 
G1 X2.136 Y2.343 Z4.951 
G1 X2.614 Y2.343 Z4.951 
G1 X2.614 Y2.345 Z4.951 
G1 X2.136 Y2.345 Z4.951 
G1 X2.135 Y2.348 Z4.951 
G1 X2.615 Y2.348 Z4.951 
G1 X2.616 Y2.350 Z4.951 
G1 X2.134 Y2.350 Z4.951 
G1 X2.134 Y2.353 Z4.951 
G1 X2.616 Y2.353 Z4.951 
G1 X2.617 Y2.355 Z4.951 
G1 X2.133 Y2.355 Z4.951 
G1 X2.132 Y2.358 Z4.951 
G1 X2.618 Y2.358 Z4.951 
G1 X2.618 Y2.360 Z4.951 
G1 X2.132 Y2.360 Z4.951 
G1 X2.131 Y2.363 Z4.951 
G1 X2.619 Y2.363 Z4.951 
G1 X2.620 Y2.365 Z4.951 
G1 X2.130 Y2.365 Z4.951 
G1 X2.130 Y2.368 Z4.951 
G1 X2.620 Y2.368 Z4.951 
G1 X2.621 Y2.370 Z4.951 
G1 X2.129 Y2.370 Z4.951 
G1 X2.128 Y2.373 Z4.951 
G1 X2.622 Y2.373 Z4.951 
G1 X2.622 Y2.375 Z4.951 
G1 X2.128 Y2.375 Z4.951 
G1 X2.128 Y2.378 Z4.951 
G1 X2.622 Y2.378 Z4.951 
G1 X2.621 Y2.380 Z4.951 
G1 X2.129 Y2.380 Z4.951 
G1 X2.130 Y2.383 Z4.951 
G1 X2.620 Y2.383 Z4.951 
G1 X2.620 Y2.385 Z4.951 
G1 X2.130 Y2.385 Z4.951 
G1 X2.131 Y2.388 Z4.951 
G1 X2.619 Y2.388 Z4.951 
G1 X2.618 Y2.390 Z4.951 
G1 X2.132 Y2.390 Z4.951 
G1 X2.132 Y2.393 Z4.951 
G1 X2.618 Y2.393 Z4.951 
G1 X2.617 Y2.395 Z4.951 
G1 X2.133 Y2.395 Z4.951 
G1 X2.134 Y2.398 Z4.951 
G1 X2.616 Y2.398 Z4.951 
G1 X2.616 Y2.400 Z4.951 
G1 X2.134 Y2.400 Z4.951 
G1 X2.135 Y2.403 Z4.951 
G1 X2.615 Y2.403 Z4.951 
G1 X2.614 Y2.405 Z4.951 
G1 X2.136 Y2.405 Z4.951 
G1 X2.136 Y2.408 Z4.951 
G1 X2.614 Y2.408 Z4.951 
G1 X2.613 Y2.410 Z4.951 
G1 X2.137 Y2.410 Z4.951 
G1 X2.138 Y2.413 Z4.951 
G1 X2.612 Y2.413 Z4.951 
G1 X2.612 Y2.415 Z4.951 
G1 X2.138 Y2.415 Z4.951 
G1 X2.139 Y2.418 Z4.951 
G1 X2.611 Y2.418 Z4.951 
G1 X2.610 Y2.420 Z4.951 
G1 X2.140 Y2.420 Z4.951 
G1 X2.140 Y2.423 Z4.951 
G1 X2.610 Y2.423 Z4.951 
G1 X2.609 Y2.425 Z4.951 
G1 X2.141 Y2.425 Z4.951 
G1 X2.142 Y2.428 Z4.951 
G1 X2.608 Y2.428 Z4.951 
G1 X2.608 Y2.430 Z4.951 
G1 X2.142 Y2.430 Z4.951 
G1 X2.143 Y2.433 Z4.951 
G1 X2.607 Y2.433 Z4.951 
G1 X2.606 Y2.435 Z4.951 
G1 X2.144 Y2.435 Z4.951 
G1 X2.144 Y2.438 Z4.951 
G1 X2.606 Y2.438 Z4.951 
G1 X2.605 Y2.440 Z4.951 
G1 X2.145 Y2.440 Z4.951 
G1 X2.146 Y2.443 Z4.951 
G1 X2.604 Y2.443 Z4.951 
G1 X2.604 Y2.445 Z4.951 
G1 X2.146 Y2.445 Z4.951 
G1 X2.147 Y2.448 Z4.951 
G1 X2.603 Y2.448 Z4.951 
G1 X2.602 Y2.450 Z4.951 
G1 X2.148 Y2.450 Z4.951 
G1 X2.148 Y2.453 Z4.951 
G1 X2.602 Y2.453 Z4.951 
G1 X2.601 Y2.455 Z4.951 
G1 X2.149 Y2.455 Z4.951 
G1 X2.150 Y2.458 Z4.951 
G1 X2.600 Y2.458 Z4.951 
G1 X2.600 Y2.460 Z4.951 
G1 X2.150 Y2.460 Z4.951 
G1 X2.151 Y2.463 Z4.951 
G1 X2.599 Y2.463 Z4.951 
G1 X2.598 Y2.465 Z4.951 
G1 X2.152 Y2.465 Z4.951 
G1 X2.152 Y2.468 Z4.951 
G1 X2.598 Y2.468 Z4.951 
G1 X2.597 Y2.470 Z4.951 
G1 X2.153 Y2.470 Z4.951 
G1 X2.154 Y2.473 Z4.951 
G1 X2.596 Y2.473 Z4.951 
G1 X2.596 Y2.475 Z4.951 
G1 X2.154 Y2.475 Z4.951 
G1 X2.155 Y2.478 Z4.951 
G1 X2.595 Y2.478 Z4.951 
G1 X2.594 Y2.480 Z4.951 
G1 X2.156 Y2.480 Z4.951 
G1 X2.156 Y2.483 Z4.951 
G1 X2.594 Y2.483 Z4.951 
G1 X2.593 Y2.485 Z4.951 
G1 X2.157 Y2.485 Z4.951 
G1 X2.158 Y2.488 Z4.951 
G1 X2.592 Y2.488 Z4.951 
G1 X2.592 Y2.490 Z4.951 
G1 X2.158 Y2.490 Z4.951 
G1 X2.159 Y2.493 Z4.951 
G1 X2.591 Y2.493 Z4.951 
G1 X2.590 Y2.495 Z4.951 
G1 X2.160 Y2.495 Z4.951 
G1 X2.160 Y2.498 Z4.951 
G1 X2.590 Y2.498 Z4.951 
G1 X2.589 Y2.499 Z4.951 
G1 X2.162 Y2.500 Z4.951 
G1 X2.165 Y2.503 Z4.951 
G1 X2.585 Y2.503 Z4.951 
G1 X2.583 Y2.505 Z4.951 
G1 X2.167 Y2.505 Z4.951 
G1 X2.170 Y2.508 Z4.951 
G1 X2.580 Y2.508 Z4.951 
G1 X2.578 Y2.510 Z4.951 
G1 X2.172 Y2.510 Z4.951 
G1 X2.175 Y2.513 Z4.951 
G1 X2.575 Y2.513 Z4.951 
G1 X2.573 Y2.515 Z4.951 
G1 X2.177 Y2.515 Z4.951 
G1 X2.180 Y2.518 Z4.951 
G1 X2.570 Y2.518 Z4.951 
G1 X2.568 Y2.520 Z4.951 
G1 X2.182 Y2.520 Z4.951 
G1 X2.185 Y2.523 Z4.951 
G1 X2.565 Y2.523 Z4.951 
G1 X2.563 Y2.525 Z4.951 
G1 X2.187 Y2.525 Z4.951 
G1 X2.190 Y2.528 Z4.951 
G1 X2.560 Y2.528 Z4.951 
G1 X2.558 Y2.530 Z4.951 
G1 X2.192 Y2.530 Z4.951 
G1 X2.195 Y2.533 Z4.951 
G1 X2.555 Y2.533 Z4.951 
G1 X2.553 Y2.535 Z4.951 
G1 X2.197 Y2.535 Z4.951 
G1 X2.200 Y2.538 Z4.951 
G1 X2.550 Y2.538 Z4.951 
G1 X2.548 Y2.540 Z4.951 
G1 X2.202 Y2.540 Z4.951 
G1 X2.205 Y2.543 Z4.951 
G1 X2.545 Y2.543 Z4.951 
G1 X2.543 Y2.545 Z4.951 
G1 X2.207 Y2.545 Z4.951 
G1 X2.210 Y2.548 Z4.951 
G1 X2.540 Y2.548 Z4.951 
G1 X2.538 Y2.550 Z4.951 
G1 X2.212 Y2.550 Z4.951 
G1 X2.215 Y2.553 Z4.951 
G1 X2.535 Y2.553 Z4.951 
G1 X2.533 Y2.555 Z4.951 
G1 X2.217 Y2.555 Z4.951 
G1 X2.220 Y2.558 Z4.951 
G1 X2.530 Y2.558 Z4.951 
G1 X2.528 Y2.560 Z4.951 
G1 X2.222 Y2.560 Z4.951 
G1 X2.225 Y2.563 Z4.951 
G1 X2.525 Y2.563 Z4.951 
G1 X2.523 Y2.565 Z4.951 
G1 X2.227 Y2.565 Z4.951 
G1 X2.230 Y2.568 Z4.951 
G1 X2.520 Y2.568 Z4.951 
G1 X2.518 Y2.570 Z4.951 
G1 X2.232 Y2.570 Z4.951 
G1 X2.235 Y2.573 Z4.951 
G1 X2.515 Y2.573 Z4.951 
G1 X2.513 Y2.575 Z4.951 
G1 X2.237 Y2.575 Z4.951 
G1 X2.240 Y2.578 Z4.951 
G1 X2.510 Y2.578 Z4.951 
G1 X2.508 Y2.580 Z4.951 
G1 X2.242 Y2.580 Z4.951 
G1 X2.245 Y2.583 Z4.951 
G1 X2.505 Y2.583 Z4.951 
G1 X2.503 Y2.585 Z4.951 
G1 X2.247 Y2.585 Z4.951 
G1 X2.250 Y2.588 Z4.951 
G1 X2.500 Y2.588 Z4.951 
G3 X2.496 Y2.590 Z4.951 I-0.005 J-0.003 
G3 X2.251 Y2.589 Z4.951 I-0.121 J-0.456 
G0 Z10.001 
G0 X2.375 Y2.622 Z10.001 
G0 X2.375 Y2.622 Z8.001 
G1 X2.375 Y2.622 Z4.951 
G1 X2.366 Y2.620 Z4.951 
G2 X2.393 Y2.618 Z4.951 I0.009 J-0.051 
G3 X2.348 Y2.615 Z4.951 I-0.018 J-0.086 
G2 X2.412 Y2.613 Z4.951 I0.027 J-0.121 
G3 X2.329 Y2.610 Z4.951 I-0.037 J-0.155 
G2 X2.430 Y2.608 Z4.951 I0.046 J-0.190 
G3 X2.310 Y2.605 Z4.951 I-0.055 J-0.225 
G2 X2.449 Y2.603 Z4.951 I0.065 J-0.260 
G3 X2.292 Y2.600 Z4.951 I-0.074 J-0.295 
G2 X2.468 Y2.598 Z4.951 I0.083 J-0.330 
G3 X2.273 Y2.595 Z4.951 I-0.093 J-0.364 
G2 X2.486 Y2.593 Z4.951 I0.102 J-0.399 
G3 X2.254 Y2.590 Z4.951 I-0.111 J-0.434 
G1 X2.496 Y2.590 Z4.951 
G1 X2.496 Y2.590 Z4.950 
G1 X2.254 Y2.590 Z4.950 
