(Exported by FreeCAD)
(Post Processor: script_module)
(Output Time:2025-06-18 15:00:02.860291)
(begin preamble)
G17 G54 G40 G49 G80 G90
G21
(begin operation: Fixture)
(machine units: mm/min)
G54 
(finish operation: Fixture)
(begin operation: TC: Default Tool)
(machine units: mm/min)
(TC: Default Tool) 
M5
M6 T1 
G43 H1 
(finish operation: TC: Default Tool)
(begin operation: Pocket_Shape)
(machine units: mm/min)
(Pocket_Shape) 
G0 Z10.001 
G0 X24.998 Y24.998 
G0 Z8.001 
G1 X24.998 Y24.998 Z4.999 
G1 X5.002 Y24.998 Z4.999 
G1 X5.002 Y24.995 Z4.999 
G1 X24.998 Y24.995 Z4.999 
G1 X24.998 Y24.992 Z4.999 
G1 X5.002 Y24.992 Z4.999 
G1 X5.002 Y24.990 Z4.999 
G1 X24.998 Y24.990 Z4.999 
G1 X24.998 Y24.988 Z4.999 
G1 X5.002 Y24.988 Z4.999 
G1 X5.002 Y24.985 Z4.999 
G1 X24.998 Y24.985 Z4.999 
G1 X24.998 Y24.983 Z4.999 
G1 X5.002 Y24.983 Z4.999 
G1 X5.002 Y24.980 Z4.999 
G1 X24.998 Y24.980 Z4.999 
G1 X24.998 Y24.977 Z4.999 
G1 X5.002 Y24.977 Z4.999 
G1 X5.002 Y24.975 Z4.999 
G1 X24.998 Y24.975 Z4.999 
G1 X24.998 Y24.973 Z4.999 
G1 X5.002 Y24.973 Z4.999 
G1 X5.002 Y24.970 Z4.999 
G1 X24.998 Y24.970 Z4.999 
G1 X24.998 Y24.968 Z4.999 
G1 X5.002 Y24.968 Z4.999 
G1 X5.002 Y24.965 Z4.999 
G1 X24.998 Y24.965 Z4.999 
G1 X24.998 Y24.962 Z4.999 
G1 X5.002 Y24.962 Z4.999 
G1 X5.002 Y24.960 Z4.999 
G1 X24.998 Y24.960 Z4.999 
G1 X24.998 Y24.957 Z4.999 
G1 X5.002 Y24.957 Z4.999 
G1 X5.002 Y24.955 Z4.999 
G1 X24.998 Y24.955 Z4.999 
G1 X24.998 Y24.953 Z4.999 
G1 X5.002 Y24.953 Z4.999 
G1 X5.002 Y24.950 Z4.999 
G1 X24.998 Y24.950 Z4.999 
G1 X24.998 Y24.947 Z4.999 
G1 X5.002 Y24.947 Z4.999 
G1 X5.002 Y24.945 Z4.999 
G1 X24.998 Y24.945 Z4.999 
G1 X24.998 Y24.943 Z4.999 
G1 X5.002 Y24.943 Z4.999 
G1 X5.002 Y24.940 Z4.999 
G1 X24.998 Y24.940 Z4.999 
G1 X24.998 Y24.938 Z4.999 
G1 X5.002 Y24.938 Z4.999 
G1 X5.002 Y24.935 Z4.999 
G1 X24.998 Y24.935 Z4.999 
G1 X24.998 Y24.932 Z4.999 
G1 X5.002 Y24.932 Z4.999 
G1 X5.002 Y24.930 Z4.999 
G1 X24.998 Y24.930 Z4.999 
G1 X24.998 Y24.928 Z4.999 
G1 X5.002 Y24.928 Z4.999 
G1 X5.002 Y24.925 Z4.999 
G1 X24.998 Y24.925 Z4.999 
G1 X24.998 Y24.922 Z4.999 
G1 X5.002 Y24.922 Z4.999 
G1 X5.002 Y24.920 Z4.999 
G1 X24.998 Y24.920 Z4.999 
G1 X24.998 Y24.918 Z4.999 
G1 X5.002 Y24.918 Z4.999 
G1 X5.002 Y24.915 Z4.999 
G1 X24.998 Y24.915 Z4.999 
G1 X24.998 Y24.913 Z4.999 
G1 X5.002 Y24.913 Z4.999 
G1 X5.002 Y24.910 Z4.999 
G1 X24.998 Y24.910 Z4.999 
G1 X24.998 Y24.907 Z4.999 
G1 X5.002 Y24.907 Z4.999 
G1 X5.002 Y24.905 Z4.999 
G1 X24.998 Y24.905 Z4.999 
G1 X24.998 Y24.902 Z4.999 
G1 X5.002 Y24.902 Z4.999 
G1 X5.002 Y24.900 Z4.999 
G1 X24.998 Y24.900 Z4.999 
G1 X24.998 Y24.898 Z4.999 
G1 X5.002 Y24.898 Z4.999 
G1 X5.002 Y24.895 Z4.999 
G1 X24.998 Y24.895 Z4.999 
G1 X24.998 Y24.892 Z4.999 
G1 X5.002 Y24.892 Z4.999 
G1 X5.002 Y24.890 Z4.999 
G1 X24.998 Y24.890 Z4.999 
G1 X24.998 Y24.887 Z4.999 
G1 X5.002 Y24.887 Z4.999 
G1 X5.002 Y24.885 Z4.999 
G1 X24.998 Y24.885 Z4.999 
G1 X24.998 Y24.883 Z4.999 
G1 X5.002 Y24.883 Z4.999 
G1 X5.002 Y24.880 Z4.999 
G1 X24.998 Y24.880 Z4.999 
G1 X24.998 Y24.877 Z4.999 
G1 X5.002 Y24.877 Z4.999 
G1 X5.002 Y24.875 Z4.999 
G1 X24.998 Y24.875 Z4.999 
G1 X24.998 Y24.873 Z4.999 
G1 X5.002 Y24.873 Z4.999 
G1 X5.002 Y24.870 Z4.999 
G1 X24.998 Y24.870 Z4.999 
G1 X24.998 Y24.867 Z4.999 
G1 X5.002 Y24.867 Z4.999 
G1 X5.002 Y24.865 Z4.999 
G1 X24.998 Y24.865 Z4.999 
G1 X24.998 Y24.863 Z4.999 
G1 X5.002 Y24.863 Z4.999 
G1 X5.002 Y24.860 Z4.999 
G1 X24.998 Y24.860 Z4.999 
G1 X24.998 Y24.858 Z4.999 
G1 X5.002 Y24.858 Z4.999 
G1 X5.002 Y24.855 Z4.999 
G1 X24.998 Y24.855 Z4.999 
G1 X24.998 Y24.852 Z4.999 
G1 X5.002 Y24.852 Z4.999 
G1 X5.002 Y24.850 Z4.999 
G1 X24.998 Y24.850 Z4.999 
G1 X24.998 Y24.848 Z4.999 
G1 X5.002 Y24.848 Z4.999 
G1 X5.002 Y24.845 Z4.999 
G1 X24.998 Y24.845 Z4.999 
G1 X24.998 Y24.843 Z4.999 
G1 X5.002 Y24.843 Z4.999 
G1 X5.002 Y24.840 Z4.999 
G1 X24.998 Y24.840 Z4.999 
G1 X24.998 Y24.837 Z4.999 
G1 X5.002 Y24.837 Z4.999 
G1 X5.002 Y24.835 Z4.999 
G1 X24.998 Y24.835 Z4.999 
G1 X24.998 Y24.832 Z4.999 
G1 X5.002 Y24.832 Z4.999 
G1 X5.002 Y24.830 Z4.999 
G1 X24.998 Y24.830 Z4.999 
G1 X24.998 Y24.828 Z4.999 
G1 X5.002 Y24.828 Z4.999 
G1 X5.002 Y24.825 Z4.999 
G1 X24.998 Y24.825 Z4.999 
G1 X24.998 Y24.822 Z4.999 
G1 X5.002 Y24.822 Z4.999 
G1 X5.002 Y24.820 Z4.999 
G1 X24.998 Y24.820 Z4.999 
G1 X24.998 Y24.818 Z4.999 
G1 X5.002 Y24.818 Z4.999 
G1 X5.002 Y24.815 Z4.999 
G1 X24.998 Y24.815 Z4.999 
G1 X24.998 Y24.812 Z4.999 
G1 X5.002 Y24.812 Z4.999 
G1 X5.002 Y24.810 Z4.999 
G1 X24.998 Y24.810 Z4.999 
G1 X24.998 Y24.807 Z4.999 
G1 X5.002 Y24.807 Z4.999 
G1 X5.002 Y24.805 Z4.999 
G1 X24.998 Y24.805 Z4.999 
G1 X24.998 Y24.803 Z4.999 
G1 X5.002 Y24.803 Z4.999 
G1 X5.002 Y24.800 Z4.999 
G1 X24.998 Y24.800 Z4.999 
G1 X24.998 Y24.797 Z4.999 
G1 X5.002 Y24.797 Z4.999 
G1 X5.002 Y24.795 Z4.999 
G1 X24.998 Y24.795 Z4.999 
G1 X24.998 Y24.793 Z4.999 
G1 X5.002 Y24.793 Z4.999 
G1 X5.002 Y24.790 Z4.999 
G1 X24.998 Y24.790 Z4.999 
G1 X24.998 Y24.788 Z4.999 
G1 X5.002 Y24.788 Z4.999 
G1 X5.002 Y24.785 Z4.999 
G1 X24.998 Y24.785 Z4.999 
G1 X24.998 Y24.782 Z4.999 
G1 X5.002 Y24.782 Z4.999 
G1 X5.002 Y24.780 Z4.999 
G1 X24.998 Y24.780 Z4.999 
G1 X24.998 Y24.777 Z4.999 
G1 X5.002 Y24.777 Z4.999 
G1 X5.002 Y24.775 Z4.999 
G1 X24.998 Y24.775 Z4.999 
G1 X24.998 Y24.773 Z4.999 
G1 X5.002 Y24.773 Z4.999 
G1 X5.002 Y24.770 Z4.999 
G1 X24.998 Y24.770 Z4.999 
G1 X24.998 Y24.767 Z4.999 
G1 X5.002 Y24.767 Z4.999 
G1 X5.002 Y24.765 Z4.999 
G1 X24.998 Y24.765 Z4.999 
G1 X24.998 Y24.762 Z4.999 
G1 X5.002 Y24.762 Z4.999 
G1 X5.002 Y24.760 Z4.999 
G1 X24.998 Y24.760 Z4.999 
G1 X24.998 Y24.758 Z4.999 
G1 X5.002 Y24.758 Z4.999 
G1 X5.002 Y24.755 Z4.999 
G1 X24.998 Y24.755 Z4.999 
G1 X24.998 Y24.752 Z4.999 
G1 X5.002 Y24.752 Z4.999 
G1 X5.002 Y24.750 Z4.999 
G1 X24.998 Y24.750 Z4.999 
G1 X24.998 Y24.748 Z4.999 
G1 X5.002 Y24.748 Z4.999 
G1 X5.002 Y24.745 Z4.999 
G1 X24.998 Y24.745 Z4.999 
G1 X24.998 Y24.742 Z4.999 
G1 X5.002 Y24.742 Z4.999 
G1 X5.002 Y24.740 Z4.999 
G1 X24.998 Y24.740 Z4.999 
G1 X24.998 Y24.738 Z4.999 
G1 X5.002 Y24.738 Z4.999 
G1 X5.002 Y24.735 Z4.999 
G1 X24.998 Y24.735 Z4.999 
G1 X24.998 Y24.733 Z4.999 
G1 X5.002 Y24.733 Z4.999 
G1 X5.002 Y24.730 Z4.999 
G1 X24.998 Y24.730 Z4.999 
G1 X24.998 Y24.727 Z4.999 
G1 X5.002 Y24.727 Z4.999 
G1 X5.002 Y24.725 Z4.999 
G1 X24.998 Y24.725 Z4.999 
G1 X24.998 Y24.723 Z4.999 
G1 X5.002 Y24.723 Z4.999 
G1 X5.002 Y24.720 Z4.999 
G1 X24.998 Y24.720 Z4.999 
G1 X24.998 Y24.718 Z4.999 
G1 X5.002 Y24.718 Z4.999 
G1 X5.002 Y24.715 Z4.999 
G1 X24.998 Y24.715 Z4.999 
G1 X24.998 Y24.712 Z4.999 
G1 X5.002 Y24.712 Z4.999 
G1 X5.002 Y24.710 Z4.999 
G1 X24.998 Y24.710 Z4.999 
G1 X24.998 Y24.707 Z4.999 
G1 X5.002 Y24.707 Z4.999 
G1 X5.002 Y24.705 Z4.999 
G1 X24.998 Y24.705 Z4.999 
G1 X24.998 Y24.703 Z4.999 
G1 X5.002 Y24.703 Z4.999 
G1 X5.002 Y24.700 Z4.999 
G1 X24.998 Y24.700 Z4.999 
G1 X24.998 Y24.697 Z4.999 
G1 X5.002 Y24.697 Z4.999 
G1 X5.002 Y24.695 Z4.999 
G1 X24.998 Y24.695 Z4.999 
G1 X24.998 Y24.693 Z4.999 
G1 X5.002 Y24.693 Z4.999 
G1 X5.002 Y24.690 Z4.999 
G1 X24.998 Y24.690 Z4.999 
G1 X24.998 Y24.688 Z4.999 
G1 X5.002 Y24.688 Z4.999 
G1 X5.002 Y24.685 Z4.999 
G1 X24.998 Y24.685 Z4.999 
G1 X24.998 Y24.682 Z4.999 
G1 X5.002 Y24.682 Z4.999 
G1 X5.002 Y24.680 Z4.999 
G1 X24.998 Y24.680 Z4.999 
G1 X24.998 Y24.678 Z4.999 
G1 X5.002 Y24.678 Z4.999 
G1 X5.002 Y24.675 Z4.999 
G1 X24.998 Y24.675 Z4.999 
G1 X24.998 Y24.672 Z4.999 
G1 X5.002 Y24.672 Z4.999 
G1 X5.002 Y24.670 Z4.999 
G1 X24.998 Y24.670 Z4.999 
G1 X24.998 Y24.668 Z4.999 
G1 X5.002 Y24.668 Z4.999 
G1 X5.002 Y24.665 Z4.999 
G1 X24.998 Y24.665 Z4.999 
G1 X24.998 Y24.663 Z4.999 
G1 X5.002 Y24.663 Z4.999 
G1 X5.002 Y24.660 Z4.999 
G1 X24.998 Y24.660 Z4.999 
G1 X24.998 Y24.657 Z4.999 
G1 X5.002 Y24.657 Z4.999 
G1 X5.002 Y24.655 Z4.999 
G1 X24.998 Y24.655 Z4.999 
G1 X24.998 Y24.652 Z4.999 
G1 X5.002 Y24.652 Z4.999 
G1 X5.002 Y24.650 Z4.999 
G1 X24.998 Y24.650 Z4.999 
G1 X24.998 Y24.648 Z4.999 
G1 X5.002 Y24.648 Z4.999 
G1 X5.002 Y24.645 Z4.999 
G1 X24.998 Y24.645 Z4.999 
G1 X24.998 Y24.642 Z4.999 
G1 X5.002 Y24.642 Z4.999 
G1 X5.002 Y24.640 Z4.999 
G1 X24.998 Y24.640 Z4.999 
G1 X24.998 Y24.637 Z4.999 
G1 X5.002 Y24.637 Z4.999 
G1 X5.002 Y24.635 Z4.999 
G1 X24.998 Y24.635 Z4.999 
G1 X24.998 Y24.633 Z4.999 
G1 X5.002 Y24.633 Z4.999 
G1 X5.002 Y24.630 Z4.999 
G1 X24.998 Y24.630 Z4.999 
G1 X24.998 Y24.627 Z4.999 
G1 X5.002 Y24.627 Z4.999 
G1 X5.002 Y24.625 Z4.999 
G1 X24.998 Y24.625 Z4.999 
G1 X24.998 Y24.623 Z4.999 
G1 X5.002 Y24.623 Z4.999 
G1 X5.002 Y24.620 Z4.999 
G1 X24.998 Y24.620 Z4.999 
G1 X24.998 Y24.617 Z4.999 
G1 X5.002 Y24.617 Z4.999 
G1 X5.002 Y24.615 Z4.999 
G1 X24.998 Y24.615 Z4.999 
G1 X24.998 Y24.613 Z4.999 
G1 X5.002 Y24.613 Z4.999 
G1 X5.002 Y24.610 Z4.999 
G1 X24.998 Y24.610 Z4.999 
G1 X24.998 Y24.608 Z4.999 
G1 X5.002 Y24.608 Z4.999 
G1 X5.002 Y24.605 Z4.999 
G1 X24.998 Y24.605 Z4.999 
G1 X24.998 Y24.602 Z4.999 
G1 X5.002 Y24.602 Z4.999 
G1 X5.002 Y24.600 Z4.999 
G1 X24.998 Y24.600 Z4.999 
G1 X24.998 Y24.598 Z4.999 
G1 X5.002 Y24.598 Z4.999 
G1 X5.002 Y24.595 Z4.999 
G1 X24.998 Y24.595 Z4.999 
G1 X24.998 Y24.593 Z4.999 
G1 X5.002 Y24.593 Z4.999 
G1 X5.002 Y24.590 Z4.999 
G1 X24.998 Y24.590 Z4.999 
G1 X24.998 Y24.587 Z4.999 
G1 X5.002 Y24.587 Z4.999 
G1 X5.002 Y24.585 Z4.999 
G1 X24.998 Y24.585 Z4.999 
G1 X24.998 Y24.582 Z4.999 
G1 X5.002 Y24.582 Z4.999 
G1 X5.002 Y24.580 Z4.999 
G1 X24.998 Y24.580 Z4.999 
G1 X24.998 Y24.578 Z4.999 
G1 X5.002 Y24.578 Z4.999 
G1 X5.002 Y24.575 Z4.999 
G1 X24.998 Y24.575 Z4.999 
G1 X24.998 Y24.572 Z4.999 
G1 X5.002 Y24.572 Z4.999 
G1 X5.002 Y24.570 Z4.999 
G1 X24.998 Y24.570 Z4.999 
G1 X24.998 Y24.568 Z4.999 
G1 X5.002 Y24.568 Z4.999 
G1 X5.002 Y24.565 Z4.999 
G1 X24.998 Y24.565 Z4.999 
G1 X24.998 Y24.562 Z4.999 
G1 X5.002 Y24.562 Z4.999 
G1 X5.002 Y24.560 Z4.999 
G1 X24.998 Y24.560 Z4.999 
G1 X24.998 Y24.557 Z4.999 
G1 X5.002 Y24.557 Z4.999 
G1 X5.002 Y24.555 Z4.999 
G1 X24.998 Y24.555 Z4.999 
G1 X24.998 Y24.553 Z4.999 
G1 X5.002 Y24.553 Z4.999 
G1 X5.002 Y24.550 Z4.999 
G1 X24.998 Y24.550 Z4.999 
G1 X24.998 Y24.547 Z4.999 
G1 X5.002 Y24.547 Z4.999 
G1 X5.002 Y24.545 Z4.999 
G1 X24.998 Y24.545 Z4.999 
G1 X24.998 Y24.543 Z4.999 
G1 X5.002 Y24.543 Z4.999 
G1 X5.002 Y24.540 Z4.999 
G1 X24.998 Y24.540 Z4.999 
G1 X24.998 Y24.538 Z4.999 
G1 X5.002 Y24.538 Z4.999 
G1 X5.002 Y24.535 Z4.999 
G1 X24.998 Y24.535 Z4.999 
G1 X24.998 Y24.532 Z4.999 
G1 X5.002 Y24.532 Z4.999 
G1 X5.002 Y24.530 Z4.999 
G1 X24.998 Y24.530 Z4.999 
G1 X24.998 Y24.527 Z4.999 
G1 X5.002 Y24.527 Z4.999 
G1 X5.002 Y24.525 Z4.999 
G1 X24.998 Y24.525 Z4.999 
G1 X24.998 Y24.523 Z4.999 
G1 X5.002 Y24.523 Z4.999 
G1 X5.002 Y24.520 Z4.999 
G1 X24.998 Y24.520 Z4.999 
G1 X24.998 Y24.517 Z4.999 
G1 X5.002 Y24.517 Z4.999 
G1 X5.002 Y24.515 Z4.999 
G1 X24.998 Y24.515 Z4.999 
G1 X24.998 Y24.512 Z4.999 
G1 X5.002 Y24.512 Z4.999 
G1 X5.002 Y24.510 Z4.999 
G1 X24.998 Y24.510 Z4.999 
G1 X24.998 Y24.508 Z4.999 
G1 X5.002 Y24.508 Z4.999 
G1 X5.002 Y24.505 Z4.999 
G1 X24.998 Y24.505 Z4.999 
G1 X24.998 Y24.502 Z4.999 
G1 X5.002 Y24.502 Z4.999 
G1 X5.002 Y24.500 Z4.999 
G1 X24.998 Y24.500 Z4.999 
G1 X24.998 Y24.498 Z4.999 
G1 X5.002 Y24.498 Z4.999 
G1 X5.002 Y24.495 Z4.999 
G1 X24.998 Y24.495 Z4.999 
G1 X24.998 Y24.492 Z4.999 
G1 X5.002 Y24.492 Z4.999 
G1 X5.002 Y24.490 Z4.999 
G1 X24.998 Y24.490 Z4.999 
G1 X24.998 Y24.488 Z4.999 
G1 X5.002 Y24.488 Z4.999 
G1 X5.002 Y24.485 Z4.999 
G1 X24.998 Y24.485 Z4.999 
G1 X24.998 Y24.483 Z4.999 
G1 X5.002 Y24.483 Z4.999 
G1 X5.002 Y24.480 Z4.999 
G1 X24.998 Y24.480 Z4.999 
G1 X24.998 Y24.477 Z4.999 
G1 X5.002 Y24.477 Z4.999 
G1 X5.002 Y24.475 Z4.999 
G1 X24.998 Y24.475 Z4.999 
G1 X24.998 Y24.473 Z4.999 
G1 X5.002 Y24.473 Z4.999 
G1 X5.002 Y24.470 Z4.999 
G1 X24.998 Y24.470 Z4.999 
G1 X24.998 Y24.468 Z4.999 
G1 X5.002 Y24.468 Z4.999 
G1 X5.002 Y24.465 Z4.999 
G1 X24.998 Y24.465 Z4.999 
G1 X24.998 Y24.462 Z4.999 
G1 X5.002 Y24.462 Z4.999 
G1 X5.002 Y24.460 Z4.999 
G1 X24.998 Y24.460 Z4.999 
G1 X24.998 Y24.457 Z4.999 
G1 X5.002 Y24.457 Z4.999 
G1 X5.002 Y24.455 Z4.999 
G1 X24.998 Y24.455 Z4.999 
G1 X24.998 Y24.453 Z4.999 
G1 X5.002 Y24.453 Z4.999 
G1 X5.002 Y24.450 Z4.999 
G1 X24.998 Y24.450 Z4.999 
G1 X24.998 Y24.447 Z4.999 
G1 X5.002 Y24.447 Z4.999 
G1 X5.002 Y24.445 Z4.999 
G1 X24.998 Y24.445 Z4.999 
G1 X24.998 Y24.443 Z4.999 
G1 X5.002 Y24.443 Z4.999 
G1 X5.002 Y24.440 Z4.999 
G1 X24.998 Y24.440 Z4.999 
G1 X24.998 Y24.438 Z4.999 
G1 X5.002 Y24.438 Z4.999 
G1 X5.002 Y24.435 Z4.999 
G1 X24.998 Y24.435 Z4.999 
G1 X24.998 Y24.432 Z4.999 
G1 X5.002 Y24.432 Z4.999 
G1 X5.002 Y24.430 Z4.999 
G1 X24.998 Y24.430 Z4.999 
G1 X24.998 Y24.428 Z4.999 
G1 X5.002 Y24.428 Z4.999 
G1 X5.002 Y24.425 Z4.999 
G1 X24.998 Y24.425 Z4.999 
G1 X24.998 Y24.422 Z4.999 
G1 X5.002 Y24.422 Z4.999 
G1 X5.002 Y24.420 Z4.999 
G1 X24.998 Y24.420 Z4.999 
G1 X24.998 Y24.418 Z4.999 
G1 X5.002 Y24.418 Z4.999 
G1 X5.002 Y24.415 Z4.999 
G1 X24.998 Y24.415 Z4.999 
G1 X24.998 Y24.413 Z4.999 
G1 X5.002 Y24.413 Z4.999 
G1 X5.002 Y24.410 Z4.999 
G1 X24.998 Y24.410 Z4.999 
G1 X24.998 Y24.407 Z4.999 
G1 X5.002 Y24.407 Z4.999 
G1 X5.002 Y24.405 Z4.999 
G1 X24.998 Y24.405 Z4.999 
G1 X24.998 Y24.402 Z4.999 
G1 X5.002 Y24.402 Z4.999 
G1 X5.002 Y24.400 Z4.999 
G1 X24.998 Y24.400 Z4.999 
G1 X24.998 Y24.398 Z4.999 
G1 X5.002 Y24.398 Z4.999 
G1 X5.002 Y24.395 Z4.999 
G1 X24.998 Y24.395 Z4.999 
G1 X24.998 Y24.392 Z4.999 
G1 X5.002 Y24.392 Z4.999 
G1 X5.002 Y24.390 Z4.999 
G1 X24.998 Y24.390 Z4.999 
G1 X24.998 Y24.387 Z4.999 
G1 X5.002 Y24.387 Z4.999 
G1 X5.002 Y24.385 Z4.999 
G1 X24.998 Y24.385 Z4.999 
G1 X24.998 Y24.383 Z4.999 
G1 X5.002 Y24.383 Z4.999 
G1 X5.002 Y24.380 Z4.999 
G1 X24.998 Y24.380 Z4.999 
G1 X24.998 Y24.377 Z4.999 
G1 X5.002 Y24.377 Z4.999 
G1 X5.002 Y24.375 Z4.999 
G1 X24.998 Y24.375 Z4.999 
G1 X24.998 Y24.373 Z4.999 
G1 X5.002 Y24.373 Z4.999 
G1 X5.002 Y24.370 Z4.999 
G1 X24.998 Y24.370 Z4.999 
G1 X24.998 Y24.367 Z4.999 
G1 X5.002 Y24.367 Z4.999 
G1 X5.002 Y24.365 Z4.999 
G1 X24.998 Y24.365 Z4.999 
G1 X24.998 Y24.363 Z4.999 
G1 X5.002 Y24.363 Z4.999 
G1 X5.002 Y24.360 Z4.999 
G1 X24.998 Y24.360 Z4.999 
G1 X24.998 Y24.358 Z4.999 
G1 X5.002 Y24.358 Z4.999 
G1 X5.002 Y24.355 Z4.999 
G1 X24.998 Y24.355 Z4.999 
G1 X24.998 Y24.352 Z4.999 
G1 X5.002 Y24.352 Z4.999 
G1 X5.002 Y24.350 Z4.999 
G1 X24.998 Y24.350 Z4.999 
G1 X24.998 Y24.348 Z4.999 
G1 X5.002 Y24.348 Z4.999 
G1 X5.002 Y24.345 Z4.999 
G1 X24.998 Y24.345 Z4.999 
G1 X24.998 Y24.343 Z4.999 
G1 X5.002 Y24.343 Z4.999 
G1 X5.002 Y24.340 Z4.999 
G1 X24.998 Y24.340 Z4.999 
G1 X24.998 Y24.337 Z4.999 
G1 X5.002 Y24.337 Z4.999 
G1 X5.002 Y24.335 Z4.999 
G1 X24.998 Y24.335 Z4.999 
G1 X24.998 Y24.332 Z4.999 
G1 X5.002 Y24.332 Z4.999 
G1 X5.002 Y24.330 Z4.999 
G1 X24.998 Y24.330 Z4.999 
G1 X24.998 Y24.328 Z4.999 
G1 X5.002 Y24.328 Z4.999 
G1 X5.002 Y24.325 Z4.999 
G1 X24.998 Y24.325 Z4.999 
G1 X24.998 Y24.322 Z4.999 
G1 X5.002 Y24.322 Z4.999 
G1 X5.002 Y24.320 Z4.999 
G1 X24.998 Y24.320 Z4.999 
G1 X24.998 Y24.318 Z4.999 
G1 X5.002 Y24.318 Z4.999 
G1 X5.002 Y24.315 Z4.999 
G1 X24.998 Y24.315 Z4.999 
G1 X24.998 Y24.312 Z4.999 
G1 X5.002 Y24.312 Z4.999 
G1 X5.002 Y24.310 Z4.999 
G1 X24.998 Y24.310 Z4.999 
G1 X24.998 Y24.307 Z4.999 
G1 X5.002 Y24.307 Z4.999 
G1 X5.002 Y24.305 Z4.999 
G1 X24.998 Y24.305 Z4.999 
G1 X24.998 Y24.303 Z4.999 
G1 X5.002 Y24.303 Z4.999 
G1 X5.002 Y24.300 Z4.999 
G1 X24.998 Y24.300 Z4.999 
G1 X24.998 Y24.297 Z4.999 
G1 X5.002 Y24.297 Z4.999 
G1 X5.002 Y24.295 Z4.999 
G1 X24.998 Y24.295 Z4.999 
G1 X24.998 Y24.293 Z4.999 
G1 X5.002 Y24.293 Z4.999 
G1 X5.002 Y24.290 Z4.999 
G1 X24.998 Y24.290 Z4.999 
G1 X24.998 Y24.288 Z4.999 
G1 X5.002 Y24.288 Z4.999 
G1 X5.002 Y24.285 Z4.999 
G1 X24.998 Y24.285 Z4.999 
G1 X24.998 Y24.282 Z4.999 
G1 X5.002 Y24.282 Z4.999 
G1 X5.002 Y24.280 Z4.999 
G1 X24.998 Y24.280 Z4.999 
G1 X24.998 Y24.277 Z4.999 
G1 X5.002 Y24.277 Z4.999 
G1 X5.002 Y24.275 Z4.999 
G1 X24.998 Y24.275 Z4.999 
G1 X24.998 Y24.273 Z4.999 
G1 X5.002 Y24.273 Z4.999 
G1 X5.002 Y24.270 Z4.999 
G1 X24.998 Y24.270 Z4.999 
G1 X24.998 Y24.267 Z4.999 
G1 X5.002 Y24.267 Z4.999 
G1 X5.002 Y24.265 Z4.999 
G1 X24.998 Y24.265 Z4.999 
G1 X24.998 Y24.262 Z4.999 
G1 X5.002 Y24.262 Z4.999 
G1 X5.002 Y24.260 Z4.999 
G1 X24.998 Y24.260 Z4.999 
G1 X24.998 Y24.258 Z4.999 
G1 X5.002 Y24.258 Z4.999 
G1 X5.002 Y24.255 Z4.999 
G1 X24.998 Y24.255 Z4.999 
G1 X24.998 Y24.252 Z4.999 
G1 X5.002 Y24.252 Z4.999 
G1 X5.002 Y24.250 Z4.999 
G1 X24.998 Y24.250 Z4.999 
G1 X24.998 Y24.248 Z4.999 
G1 X5.002 Y24.248 Z4.999 
G1 X5.002 Y24.245 Z4.999 
G1 X24.998 Y24.245 Z4.999 
G1 X24.998 Y24.242 Z4.999 
G1 X5.002 Y24.242 Z4.999 
G1 X5.002 Y24.240 Z4.999 
G1 X24.998 Y24.240 Z4.999 
G1 X24.998 Y24.238 Z4.999 
G1 X5.002 Y24.238 Z4.999 
G1 X5.002 Y24.235 Z4.999 
G1 X24.998 Y24.235 Z4.999 
G1 X24.998 Y24.233 Z4.999 
G1 X5.002 Y24.233 Z4.999 
G1 X5.002 Y24.230 Z4.999 
G1 X24.998 Y24.230 Z4.999 
G1 X24.998 Y24.227 Z4.999 
G1 X5.002 Y24.227 Z4.999 
G1 X5.002 Y24.225 Z4.999 
G1 X24.998 Y24.225 Z4.999 
G1 X24.998 Y24.223 Z4.999 
G1 X5.002 Y24.223 Z4.999 
G1 X5.002 Y24.220 Z4.999 
G1 X24.998 Y24.220 Z4.999 
G1 X24.998 Y24.218 Z4.999 
G1 X5.002 Y24.218 Z4.999 
G1 X5.002 Y24.215 Z4.999 
G1 X24.998 Y24.215 Z4.999 
G1 X24.998 Y24.212 Z4.999 
G1 X5.002 Y24.212 Z4.999 
G1 X5.002 Y24.210 Z4.999 
G1 X24.998 Y24.210 Z4.999 
G1 X24.998 Y24.207 Z4.999 
G1 X5.002 Y24.207 Z4.999 
G1 X5.002 Y24.205 Z4.999 
G1 X24.998 Y24.205 Z4.999 
G1 X24.998 Y24.203 Z4.999 
G1 X5.002 Y24.203 Z4.999 
G1 X5.002 Y24.200 Z4.999 
G1 X24.998 Y24.200 Z4.999 
G1 X24.998 Y24.197 Z4.999 
G1 X5.002 Y24.197 Z4.999 
G1 X5.002 Y24.195 Z4.999 
G1 X24.998 Y24.195 Z4.999 
G1 X24.998 Y24.193 Z4.999 
G1 X5.002 Y24.193 Z4.999 
G1 X5.002 Y24.190 Z4.999 
G1 X24.998 Y24.190 Z4.999 
G1 X24.998 Y24.188 Z4.999 
G1 X5.002 Y24.188 Z4.999 
G1 X5.002 Y24.185 Z4.999 
G1 X24.998 Y24.185 Z4.999 
G1 X24.998 Y24.182 Z4.999 
G1 X5.002 Y24.182 Z4.999 
G1 X5.002 Y24.180 Z4.999 
G1 X24.998 Y24.180 Z4.999 
G1 X24.998 Y24.178 Z4.999 
G1 X5.002 Y24.178 Z4.999 
G1 X5.002 Y24.175 Z4.999 
G1 X24.998 Y24.175 Z4.999 
G1 X24.998 Y24.172 Z4.999 
G1 X5.002 Y24.172 Z4.999 
G1 X5.002 Y24.170 Z4.999 
G1 X24.998 Y24.170 Z4.999 
G1 X24.998 Y24.168 Z4.999 
G1 X5.002 Y24.168 Z4.999 
G1 X5.002 Y24.165 Z4.999 
G1 X24.998 Y24.165 Z4.999 
G1 X24.998 Y24.163 Z4.999 
G1 X5.002 Y24.163 Z4.999 
G1 X5.002 Y24.160 Z4.999 
G1 X24.998 Y24.160 Z4.999 
G1 X24.998 Y24.157 Z4.999 
G1 X5.002 Y24.157 Z4.999 
G1 X5.002 Y24.155 Z4.999 
G1 X24.998 Y24.155 Z4.999 
G1 X24.998 Y24.152 Z4.999 
G1 X5.002 Y24.152 Z4.999 
G1 X5.002 Y24.150 Z4.999 
G1 X24.998 Y24.150 Z4.999 
G1 X24.998 Y24.148 Z4.999 
G1 X5.002 Y24.148 Z4.999 
G1 X5.002 Y24.145 Z4.999 
G1 X24.998 Y24.145 Z4.999 
G1 X24.998 Y24.142 Z4.999 
G1 X5.002 Y24.142 Z4.999 
G1 X5.002 Y24.140 Z4.999 
G1 X24.998 Y24.140 Z4.999 
G1 X24.998 Y24.137 Z4.999 
G1 X5.002 Y24.137 Z4.999 
G1 X5.002 Y24.135 Z4.999 
G1 X24.998 Y24.135 Z4.999 
G1 X24.998 Y24.133 Z4.999 
G1 X5.002 Y24.133 Z4.999 
G1 X5.002 Y24.130 Z4.999 
G1 X24.998 Y24.130 Z4.999 
G1 X24.998 Y24.127 Z4.999 
G1 X5.002 Y24.127 Z4.999 
G1 X5.002 Y24.125 Z4.999 
G1 X24.998 Y24.125 Z4.999 
G1 X24.998 Y24.123 Z4.999 
G1 X5.002 Y24.123 Z4.999 
G1 X5.002 Y24.120 Z4.999 
G1 X24.998 Y24.120 Z4.999 
G1 X24.998 Y24.117 Z4.999 
G1 X5.002 Y24.117 Z4.999 
G1 X5.002 Y24.115 Z4.999 
G1 X24.998 Y24.115 Z4.999 
G1 X24.998 Y24.113 Z4.999 
G1 X5.002 Y24.113 Z4.999 
G1 X5.002 Y24.110 Z4.999 
G1 X24.998 Y24.110 Z4.999 
G1 X24.998 Y24.108 Z4.999 
G1 X5.002 Y24.108 Z4.999 
G1 X5.002 Y24.105 Z4.999 
G1 X24.998 Y24.105 Z4.999 
G1 X24.998 Y24.102 Z4.999 
G1 X5.002 Y24.102 Z4.999 
G1 X5.002 Y24.100 Z4.999 
G1 X24.998 Y24.100 Z4.999 
G1 X24.998 Y24.098 Z4.999 
G1 X5.002 Y24.098 Z4.999 
G1 X5.002 Y24.095 Z4.999 
G1 X24.998 Y24.095 Z4.999 
G1 X24.998 Y24.093 Z4.999 
G1 X5.002 Y24.093 Z4.999 
G1 X5.002 Y24.090 Z4.999 
G1 X24.998 Y24.090 Z4.999 
G1 X24.998 Y24.087 Z4.999 
G1 X5.002 Y24.087 Z4.999 
G1 X5.002 Y24.085 Z4.999 
G1 X24.998 Y24.085 Z4.999 
G1 X24.998 Y24.082 Z4.999 
G1 X5.002 Y24.082 Z4.999 
G1 X5.002 Y24.080 Z4.999 
G1 X24.998 Y24.080 Z4.999 
G1 X24.998 Y24.078 Z4.999 
G1 X5.002 Y24.078 Z4.999 
G1 X5.002 Y24.075 Z4.999 
G1 X24.998 Y24.075 Z4.999 
G1 X24.998 Y24.072 Z4.999 
G1 X5.002 Y24.072 Z4.999 
G1 X5.002 Y24.070 Z4.999 
G1 X24.998 Y24.070 Z4.999 
G1 X24.998 Y24.068 Z4.999 
G1 X5.002 Y24.068 Z4.999 
G1 X5.002 Y24.065 Z4.999 
G1 X24.998 Y24.065 Z4.999 
G1 X24.998 Y24.062 Z4.999 
G1 X5.002 Y24.062 Z4.999 
G1 X5.002 Y24.060 Z4.999 
G1 X24.998 Y24.060 Z4.999 
G1 X24.998 Y24.057 Z4.999 
G1 X5.002 Y24.057 Z4.999 
G1 X5.002 Y24.055 Z4.999 
G1 X24.998 Y24.055 Z4.999 
G1 X24.998 Y24.053 Z4.999 
G1 X5.002 Y24.053 Z4.999 
G1 X5.002 Y24.050 Z4.999 
G1 X24.998 Y24.050 Z4.999 
G1 X24.998 Y24.047 Z4.999 
G1 X5.002 Y24.047 Z4.999 
G1 X5.002 Y24.045 Z4.999 
G1 X24.998 Y24.045 Z4.999 
G1 X24.998 Y24.043 Z4.999 
G1 X5.002 Y24.043 Z4.999 
G1 X5.002 Y24.040 Z4.999 
G1 X24.998 Y24.040 Z4.999 
G1 X24.998 Y24.038 Z4.999 
G1 X5.002 Y24.038 Z4.999 
G1 X5.002 Y24.035 Z4.999 
G1 X24.998 Y24.035 Z4.999 
G1 X24.998 Y24.032 Z4.999 
G1 X5.002 Y24.032 Z4.999 
G1 X5.002 Y24.030 Z4.999 
G1 X24.998 Y24.030 Z4.999 
G1 X24.998 Y24.027 Z4.999 
G1 X5.002 Y24.027 Z4.999 
G1 X5.002 Y24.025 Z4.999 
G1 X24.998 Y24.025 Z4.999 
G1 X24.998 Y24.023 Z4.999 
G1 X5.002 Y24.023 Z4.999 
G1 X5.002 Y24.020 Z4.999 
G1 X24.998 Y24.020 Z4.999 
G1 X24.998 Y24.017 Z4.999 
G1 X5.002 Y24.017 Z4.999 
G1 X5.002 Y24.015 Z4.999 
G1 X24.998 Y24.015 Z4.999 
G1 X24.998 Y24.012 Z4.999 
G1 X5.002 Y24.012 Z4.999 
G1 X5.002 Y24.010 Z4.999 
G1 X24.998 Y24.010 Z4.999 
G1 X24.998 Y24.008 Z4.999 
G1 X5.002 Y24.008 Z4.999 
G1 X5.002 Y24.005 Z4.999 
G1 X24.998 Y24.005 Z4.999 
G1 X24.998 Y24.002 Z4.999 
G1 X5.002 Y24.002 Z4.999 
G1 X5.002 Y24.000 Z4.999 
G1 X24.998 Y24.000 Z4.999 
G1 X24.998 Y23.998 Z4.999 
G1 X5.002 Y23.998 Z4.999 
G1 X5.002 Y23.995 Z4.999 
G1 X24.998 Y23.995 Z4.999 
G1 X24.998 Y23.992 Z4.999 
G1 X5.002 Y23.992 Z4.999 
G1 X5.002 Y23.990 Z4.999 
G1 X24.998 Y23.990 Z4.999 
G1 X24.998 Y23.988 Z4.999 
G1 X5.002 Y23.988 Z4.999 
G1 X5.002 Y23.985 Z4.999 
G1 X24.998 Y23.985 Z4.999 
G1 X24.998 Y23.983 Z4.999 
G1 X5.002 Y23.983 Z4.999 
G1 X5.002 Y23.980 Z4.999 
G1 X24.998 Y23.980 Z4.999 
G1 X24.998 Y23.977 Z4.999 
G1 X5.002 Y23.977 Z4.999 
G1 X5.002 Y23.975 Z4.999 
G1 X24.998 Y23.975 Z4.999 
G1 X24.998 Y23.973 Z4.999 
G1 X5.002 Y23.973 Z4.999 
G1 X5.002 Y23.970 Z4.999 
G1 X24.998 Y23.970 Z4.999 
G1 X24.998 Y23.968 Z4.999 
G1 X5.002 Y23.968 Z4.999 
G1 X5.002 Y23.965 Z4.999 
G1 X24.998 Y23.965 Z4.999 
G1 X24.998 Y23.962 Z4.999 
G1 X5.002 Y23.962 Z4.999 
G1 X5.002 Y23.960 Z4.999 
G1 X24.998 Y23.960 Z4.999 
G1 X24.998 Y23.957 Z4.999 
G1 X5.002 Y23.957 Z4.999 
G1 X5.002 Y23.955 Z4.999 
G1 X24.998 Y23.955 Z4.999 
G1 X24.998 Y23.953 Z4.999 
G1 X5.002 Y23.953 Z4.999 
G1 X5.002 Y23.950 Z4.999 
G1 X24.998 Y23.950 Z4.999 
G1 X24.998 Y23.947 Z4.999 
G1 X5.002 Y23.947 Z4.999 
G1 X5.002 Y23.945 Z4.999 
G1 X24.998 Y23.945 Z4.999 
G1 X24.998 Y23.943 Z4.999 
G1 X5.002 Y23.943 Z4.999 
G1 X5.002 Y23.940 Z4.999 
G1 X24.998 Y23.940 Z4.999 
G1 X24.998 Y23.938 Z4.999 
G1 X5.002 Y23.938 Z4.999 
G1 X5.002 Y23.935 Z4.999 
G1 X24.998 Y23.935 Z4.999 
G1 X24.998 Y23.932 Z4.999 
G1 X5.002 Y23.932 Z4.999 
G1 X5.002 Y23.930 Z4.999 
G1 X24.998 Y23.930 Z4.999 
G1 X24.998 Y23.928 Z4.999 
G1 X5.002 Y23.928 Z4.999 
G1 X5.002 Y23.925 Z4.999 
G1 X24.998 Y23.925 Z4.999 
G1 X24.998 Y23.922 Z4.999 
G1 X5.002 Y23.922 Z4.999 
G1 X5.002 Y23.920 Z4.999 
G1 X24.998 Y23.920 Z4.999 
G1 X24.998 Y23.918 Z4.999 
G1 X5.002 Y23.918 Z4.999 
G1 X5.002 Y23.915 Z4.999 
G1 X24.998 Y23.915 Z4.999 
G1 X24.998 Y23.913 Z4.999 
G1 X5.002 Y23.913 Z4.999 
G1 X5.002 Y23.910 Z4.999 
G1 X24.998 Y23.910 Z4.999 
G1 X24.998 Y23.907 Z4.999 
G1 X5.002 Y23.907 Z4.999 
G1 X5.002 Y23.905 Z4.999 
G1 X24.998 Y23.905 Z4.999 
G1 X24.998 Y23.902 Z4.999 
G1 X5.002 Y23.902 Z4.999 
G1 X5.002 Y23.900 Z4.999 
G1 X24.998 Y23.900 Z4.999 
G1 X24.998 Y23.898 Z4.999 
G1 X5.002 Y23.898 Z4.999 
G1 X5.002 Y23.895 Z4.999 
G1 X24.998 Y23.895 Z4.999 
G1 X24.998 Y23.892 Z4.999 
G1 X5.002 Y23.892 Z4.999 
G1 X5.002 Y23.890 Z4.999 
G1 X24.998 Y23.890 Z4.999 
G1 X24.998 Y23.887 Z4.999 
G1 X5.002 Y23.887 Z4.999 
G1 X5.002 Y23.885 Z4.999 
G1 X24.998 Y23.885 Z4.999 
G1 X24.998 Y23.883 Z4.999 
G1 X5.002 Y23.883 Z4.999 
G1 X5.002 Y23.880 Z4.999 
G1 X24.998 Y23.880 Z4.999 
G1 X24.998 Y23.877 Z4.999 
G1 X5.002 Y23.877 Z4.999 
G1 X5.002 Y23.875 Z4.999 
G1 X24.998 Y23.875 Z4.999 
G1 X24.998 Y23.873 Z4.999 
G1 X5.002 Y23.873 Z4.999 
G1 X5.002 Y23.870 Z4.999 
G1 X24.998 Y23.870 Z4.999 
G1 X24.998 Y23.867 Z4.999 
G1 X5.002 Y23.867 Z4.999 
G1 X5.002 Y23.865 Z4.999 
G1 X24.998 Y23.865 Z4.999 
G1 X24.998 Y23.863 Z4.999 
G1 X5.002 Y23.863 Z4.999 
G1 X5.002 Y23.860 Z4.999 
G1 X24.998 Y23.860 Z4.999 
G1 X24.998 Y23.858 Z4.999 
G1 X5.002 Y23.858 Z4.999 
G1 X5.002 Y23.855 Z4.999 
G1 X24.998 Y23.855 Z4.999 
G1 X24.998 Y23.852 Z4.999 
G1 X5.002 Y23.852 Z4.999 
G1 X5.002 Y23.850 Z4.999 
G1 X24.998 Y23.850 Z4.999 
G1 X24.998 Y23.848 Z4.999 
G1 X5.002 Y23.848 Z4.999 
G1 X5.002 Y23.845 Z4.999 
G1 X24.998 Y23.845 Z4.999 
G1 X24.998 Y23.843 Z4.999 
G1 X5.002 Y23.843 Z4.999 
G1 X5.002 Y23.840 Z4.999 
G1 X24.998 Y23.840 Z4.999 
G1 X24.998 Y23.837 Z4.999 
G1 X5.002 Y23.837 Z4.999 
G1 X5.002 Y23.835 Z4.999 
G1 X24.998 Y23.835 Z4.999 
G1 X24.998 Y23.832 Z4.999 
G1 X5.002 Y23.832 Z4.999 
G1 X5.002 Y23.830 Z4.999 
G1 X24.998 Y23.830 Z4.999 
G1 X24.998 Y23.828 Z4.999 
G1 X5.002 Y23.828 Z4.999 
G1 X5.002 Y23.825 Z4.999 
G1 X24.998 Y23.825 Z4.999 
G1 X24.998 Y23.822 Z4.999 
G1 X5.002 Y23.822 Z4.999 
G1 X5.002 Y23.820 Z4.999 
G1 X24.998 Y23.820 Z4.999 
G1 X24.998 Y23.818 Z4.999 
G1 X5.002 Y23.818 Z4.999 
G1 X5.002 Y23.815 Z4.999 
G1 X24.998 Y23.815 Z4.999 
G1 X24.998 Y23.812 Z4.999 
G1 X5.002 Y23.812 Z4.999 
G1 X5.002 Y23.810 Z4.999 
G1 X24.998 Y23.810 Z4.999 
G1 X24.998 Y23.807 Z4.999 
G1 X5.002 Y23.807 Z4.999 
G1 X5.002 Y23.805 Z4.999 
G1 X24.998 Y23.805 Z4.999 
G1 X24.998 Y23.803 Z4.999 
G1 X5.002 Y23.803 Z4.999 
G1 X5.002 Y23.800 Z4.999 
G1 X24.998 Y23.800 Z4.999 
G1 X24.998 Y23.797 Z4.999 
G1 X5.002 Y23.797 Z4.999 
G1 X5.002 Y23.795 Z4.999 
G1 X24.998 Y23.795 Z4.999 
G1 X24.998 Y23.793 Z4.999 
G1 X5.002 Y23.793 Z4.999 
G1 X5.002 Y23.790 Z4.999 
G1 X24.998 Y23.790 Z4.999 
G1 X24.998 Y23.788 Z4.999 
G1 X5.002 Y23.788 Z4.999 
G1 X5.002 Y23.785 Z4.999 
G1 X24.998 Y23.785 Z4.999 
G1 X24.998 Y23.782 Z4.999 
G1 X5.002 Y23.782 Z4.999 
G1 X5.002 Y23.780 Z4.999 
G1 X24.998 Y23.780 Z4.999 
G1 X24.998 Y23.777 Z4.999 
G1 X5.002 Y23.777 Z4.999 
G1 X5.002 Y23.775 Z4.999 
G1 X24.998 Y23.775 Z4.999 
G1 X24.998 Y23.773 Z4.999 
G1 X5.002 Y23.773 Z4.999 
G1 X5.002 Y23.770 Z4.999 
G1 X24.998 Y23.770 Z4.999 
G1 X24.998 Y23.767 Z4.999 
G1 X5.002 Y23.767 Z4.999 
G1 X5.002 Y23.765 Z4.999 
G1 X24.998 Y23.765 Z4.999 
G1 X24.998 Y23.762 Z4.999 
G1 X5.002 Y23.762 Z4.999 
G1 X5.002 Y23.760 Z4.999 
G1 X24.998 Y23.760 Z4.999 
G1 X24.998 Y23.758 Z4.999 
G1 X5.002 Y23.758 Z4.999 
G1 X5.002 Y23.755 Z4.999 
G1 X24.998 Y23.755 Z4.999 
G1 X24.998 Y23.752 Z4.999 
G1 X5.002 Y23.752 Z4.999 
G1 X5.002 Y23.750 Z4.999 
G1 X24.998 Y23.750 Z4.999 
G1 X24.998 Y23.748 Z4.999 
G1 X5.002 Y23.748 Z4.999 
G1 X5.002 Y23.745 Z4.999 
G1 X24.998 Y23.745 Z4.999 
G1 X24.998 Y23.742 Z4.999 
G1 X5.002 Y23.742 Z4.999 
G1 X5.002 Y23.740 Z4.999 
G1 X24.998 Y23.740 Z4.999 
G1 X24.998 Y23.738 Z4.999 
G1 X5.002 Y23.738 Z4.999 
G1 X5.002 Y23.735 Z4.999 
G1 X24.998 Y23.735 Z4.999 
G1 X24.998 Y23.733 Z4.999 
G1 X5.002 Y23.733 Z4.999 
G1 X5.002 Y23.730 Z4.999 
G1 X24.998 Y23.730 Z4.999 
G1 X24.998 Y23.727 Z4.999 
G1 X5.002 Y23.727 Z4.999 
G1 X5.002 Y23.725 Z4.999 
G1 X24.998 Y23.725 Z4.999 
G1 X24.998 Y23.723 Z4.999 
G1 X5.002 Y23.723 Z4.999 
G1 X5.002 Y23.720 Z4.999 
G1 X24.998 Y23.720 Z4.999 
G1 X24.998 Y23.718 Z4.999 
G1 X5.002 Y23.718 Z4.999 
G1 X5.002 Y23.715 Z4.999 
G1 X24.998 Y23.715 Z4.999 
G1 X24.998 Y23.712 Z4.999 
G1 X5.002 Y23.712 Z4.999 
G1 X5.002 Y23.710 Z4.999 
G1 X24.998 Y23.710 Z4.999 
G1 X24.998 Y23.707 Z4.999 
G1 X5.002 Y23.707 Z4.999 
G1 X5.002 Y23.705 Z4.999 
G1 X24.998 Y23.705 Z4.999 
G1 X24.998 Y23.703 Z4.999 
G1 X5.002 Y23.703 Z4.999 
G1 X5.002 Y23.700 Z4.999 
G1 X24.998 Y23.700 Z4.999 
G1 X24.998 Y23.697 Z4.999 
G1 X5.002 Y23.697 Z4.999 
G1 X5.002 Y23.695 Z4.999 
G1 X24.998 Y23.695 Z4.999 
G1 X24.998 Y23.693 Z4.999 
G1 X5.002 Y23.693 Z4.999 
G1 X5.002 Y23.690 Z4.999 
G1 X24.998 Y23.690 Z4.999 
G1 X24.998 Y23.688 Z4.999 
G1 X5.002 Y23.688 Z4.999 
G1 X5.002 Y23.685 Z4.999 
G1 X24.998 Y23.685 Z4.999 
G1 X24.998 Y23.682 Z4.999 
G1 X5.002 Y23.682 Z4.999 
G1 X5.002 Y23.680 Z4.999 
G1 X24.998 Y23.680 Z4.999 
G1 X24.998 Y23.678 Z4.999 
G1 X5.002 Y23.678 Z4.999 
G1 X5.002 Y23.675 Z4.999 
G1 X24.998 Y23.675 Z4.999 
G1 X24.998 Y23.672 Z4.999 
G1 X5.002 Y23.672 Z4.999 
G1 X5.002 Y23.670 Z4.999 
G1 X24.998 Y23.670 Z4.999 
G1 X24.998 Y23.668 Z4.999 
G1 X5.002 Y23.668 Z4.999 
G1 X5.002 Y23.665 Z4.999 
G1 X24.998 Y23.665 Z4.999 
G1 X24.998 Y23.663 Z4.999 
G1 X5.002 Y23.663 Z4.999 
G1 X5.002 Y23.660 Z4.999 
G1 X24.998 Y23.660 Z4.999 
G1 X24.998 Y23.657 Z4.999 
G1 X5.002 Y23.657 Z4.999 
G1 X5.002 Y23.655 Z4.999 
G1 X24.998 Y23.655 Z4.999 
G1 X24.998 Y23.652 Z4.999 
G1 X5.002 Y23.652 Z4.999 
G1 X5.002 Y23.650 Z4.999 
G1 X24.998 Y23.650 Z4.999 
G1 X24.998 Y23.648 Z4.999 
G1 X5.002 Y23.648 Z4.999 
G1 X5.002 Y23.645 Z4.999 
G1 X24.998 Y23.645 Z4.999 
G1 X24.998 Y23.642 Z4.999 
G1 X5.002 Y23.642 Z4.999 
G1 X5.002 Y23.640 Z4.999 
G1 X24.998 Y23.640 Z4.999 
G1 X24.998 Y23.637 Z4.999 
G1 X5.002 Y23.637 Z4.999 
G1 X5.002 Y23.635 Z4.999 
G1 X24.998 Y23.635 Z4.999 
G1 X24.998 Y23.633 Z4.999 
G1 X5.002 Y23.633 Z4.999 
G1 X5.002 Y23.630 Z4.999 
G1 X24.998 Y23.630 Z4.999 
G1 X24.998 Y23.627 Z4.999 
G1 X5.002 Y23.627 Z4.999 
G1 X5.002 Y23.625 Z4.999 
G1 X24.998 Y23.625 Z4.999 
G1 X24.998 Y23.623 Z4.999 
G1 X5.002 Y23.623 Z4.999 
G1 X5.002 Y23.620 Z4.999 
G1 X24.998 Y23.620 Z4.999 
G1 X24.998 Y23.617 Z4.999 
G1 X5.002 Y23.617 Z4.999 
G1 X5.002 Y23.615 Z4.999 
G1 X24.998 Y23.615 Z4.999 
G1 X24.998 Y23.613 Z4.999 
G1 X5.002 Y23.613 Z4.999 
G1 X5.002 Y23.610 Z4.999 
G1 X24.998 Y23.610 Z4.999 
G1 X24.998 Y23.608 Z4.999 
G1 X5.002 Y23.608 Z4.999 
G1 X5.002 Y23.605 Z4.999 
G1 X24.998 Y23.605 Z4.999 
G1 X24.998 Y23.602 Z4.999 
G1 X5.002 Y23.602 Z4.999 
G1 X5.002 Y23.600 Z4.999 
G1 X24.998 Y23.600 Z4.999 
G1 X24.998 Y23.598 Z4.999 
G1 X5.002 Y23.598 Z4.999 
G1 X5.002 Y23.595 Z4.999 
G1 X24.998 Y23.595 Z4.999 
G1 X24.998 Y23.593 Z4.999 
G1 X5.002 Y23.593 Z4.999 
G1 X5.002 Y23.590 Z4.999 
G1 X24.998 Y23.590 Z4.999 
G1 X24.998 Y23.587 Z4.999 
G1 X5.002 Y23.587 Z4.999 
G1 X5.002 Y23.585 Z4.999 
G1 X24.998 Y23.585 Z4.999 
G1 X24.998 Y23.582 Z4.999 
G1 X5.002 Y23.582 Z4.999 
G1 X5.002 Y23.580 Z4.999 
G1 X24.998 Y23.580 Z4.999 
G1 X24.998 Y23.578 Z4.999 
G1 X5.002 Y23.578 Z4.999 
G1 X5.002 Y23.575 Z4.999 
G1 X24.998 Y23.575 Z4.999 
G1 X24.998 Y23.572 Z4.999 
G1 X5.002 Y23.572 Z4.999 
G1 X5.002 Y23.570 Z4.999 
G1 X24.998 Y23.570 Z4.999 
G1 X24.998 Y23.568 Z4.999 
G1 X5.002 Y23.568 Z4.999 
G1 X5.002 Y23.565 Z4.999 
G1 X24.998 Y23.565 Z4.999 
G1 X24.998 Y23.562 Z4.999 
G1 X5.002 Y23.562 Z4.999 
G1 X5.002 Y23.560 Z4.999 
G1 X24.998 Y23.560 Z4.999 
G1 X24.998 Y23.557 Z4.999 
G1 X5.002 Y23.557 Z4.999 
G1 X5.002 Y23.555 Z4.999 
G1 X24.998 Y23.555 Z4.999 
G1 X24.998 Y23.553 Z4.999 
G1 X5.002 Y23.553 Z4.999 
G1 X5.002 Y23.550 Z4.999 
G1 X24.998 Y23.550 Z4.999 
G1 X24.998 Y23.547 Z4.999 
G1 X5.002 Y23.547 Z4.999 
G1 X5.002 Y23.545 Z4.999 
G1 X24.998 Y23.545 Z4.999 
G1 X24.998 Y23.543 Z4.999 
G1 X5.002 Y23.543 Z4.999 
G1 X5.002 Y23.540 Z4.999 
G1 X24.998 Y23.540 Z4.999 
G1 X24.998 Y23.538 Z4.999 
G1 X5.002 Y23.538 Z4.999 
G1 X5.002 Y23.535 Z4.999 
G1 X24.998 Y23.535 Z4.999 
G1 X24.998 Y23.532 Z4.999 
G1 X5.002 Y23.532 Z4.999 
G1 X5.002 Y23.530 Z4.999 
G1 X24.998 Y23.530 Z4.999 
G1 X24.998 Y23.527 Z4.999 
G1 X5.002 Y23.527 Z4.999 
G1 X5.002 Y23.525 Z4.999 
G1 X24.998 Y23.525 Z4.999 
G1 X24.998 Y23.523 Z4.999 
G1 X5.002 Y23.523 Z4.999 
G1 X5.002 Y23.520 Z4.999 
G1 X24.998 Y23.520 Z4.999 
G1 X24.998 Y23.517 Z4.999 
G1 X5.002 Y23.517 Z4.999 
G1 X5.002 Y23.515 Z4.999 
G1 X24.998 Y23.515 Z4.999 
G1 X24.998 Y23.512 Z4.999 
G1 X5.002 Y23.512 Z4.999 
G1 X5.002 Y23.510 Z4.999 
G1 X24.998 Y23.510 Z4.999 
G1 X24.998 Y23.508 Z4.999 
G1 X5.002 Y23.508 Z4.999 
G1 X5.002 Y23.505 Z4.999 
G1 X24.998 Y23.505 Z4.999 
G1 X24.998 Y23.502 Z4.999 
G1 X5.002 Y23.502 Z4.999 
G1 X5.002 Y23.500 Z4.999 
G1 X24.998 Y23.500 Z4.999 
G1 X24.998 Y23.498 Z4.999 
G1 X5.002 Y23.498 Z4.999 
G1 X5.002 Y23.495 Z4.999 
G1 X24.998 Y23.495 Z4.999 
G1 X24.998 Y23.492 Z4.999 
G1 X5.002 Y23.492 Z4.999 
G1 X5.002 Y23.490 Z4.999 
G1 X24.998 Y23.490 Z4.999 
G1 X24.998 Y23.488 Z4.999 
G1 X5.002 Y23.488 Z4.999 
G1 X5.002 Y23.485 Z4.999 
G1 X24.998 Y23.485 Z4.999 
G1 X24.998 Y23.483 Z4.999 
G1 X5.002 Y23.483 Z4.999 
G1 X5.002 Y23.480 Z4.999 
G1 X24.998 Y23.480 Z4.999 
G1 X24.998 Y23.477 Z4.999 
G1 X5.002 Y23.477 Z4.999 
G1 X5.002 Y23.475 Z4.999 
G1 X24.998 Y23.475 Z4.999 
G1 X24.998 Y23.473 Z4.999 
G1 X5.002 Y23.473 Z4.999 
G1 X5.002 Y23.470 Z4.999 
G1 X24.998 Y23.470 Z4.999 
G1 X24.998 Y23.468 Z4.999 
G1 X5.002 Y23.468 Z4.999 
G1 X5.002 Y23.465 Z4.999 
G1 X24.998 Y23.465 Z4.999 
G1 X24.998 Y23.462 Z4.999 
G1 X5.002 Y23.462 Z4.999 
G1 X5.002 Y23.460 Z4.999 
G1 X24.998 Y23.460 Z4.999 
G1 X24.998 Y23.457 Z4.999 
G1 X5.002 Y23.457 Z4.999 
G1 X5.002 Y23.455 Z4.999 
G1 X24.998 Y23.455 Z4.999 
G1 X24.998 Y23.453 Z4.999 
G1 X5.002 Y23.453 Z4.999 
G1 X5.002 Y23.450 Z4.999 
G1 X24.998 Y23.450 Z4.999 
G1 X24.998 Y23.447 Z4.999 
G1 X5.002 Y23.447 Z4.999 
G1 X5.002 Y23.445 Z4.999 
G1 X24.998 Y23.445 Z4.999 
G1 X24.998 Y23.443 Z4.999 
G1 X5.002 Y23.443 Z4.999 
G1 X5.002 Y23.440 Z4.999 
G1 X24.998 Y23.440 Z4.999 
G1 X24.998 Y23.438 Z4.999 
G1 X5.002 Y23.438 Z4.999 
G1 X5.002 Y23.435 Z4.999 
G1 X24.998 Y23.435 Z4.999 
G1 X24.998 Y23.432 Z4.999 
G1 X5.002 Y23.432 Z4.999 
G1 X5.002 Y23.430 Z4.999 
G1 X24.998 Y23.430 Z4.999 
G1 X24.998 Y23.428 Z4.999 
G1 X5.002 Y23.428 Z4.999 
G1 X5.002 Y23.425 Z4.999 
G1 X24.998 Y23.425 Z4.999 
G1 X24.998 Y23.422 Z4.999 
G1 X5.002 Y23.422 Z4.999 
G1 X5.002 Y23.420 Z4.999 
G1 X24.998 Y23.420 Z4.999 
G1 X24.998 Y23.418 Z4.999 
G1 X5.002 Y23.418 Z4.999 
G1 X5.002 Y23.415 Z4.999 
G1 X24.998 Y23.415 Z4.999 
G1 X24.998 Y23.413 Z4.999 
G1 X5.002 Y23.413 Z4.999 
G1 X5.002 Y23.410 Z4.999 
G1 X24.998 Y23.410 Z4.999 
G1 X24.998 Y23.407 Z4.999 
G1 X5.002 Y23.407 Z4.999 
G1 X5.002 Y23.405 Z4.999 
G1 X24.998 Y23.405 Z4.999 
G1 X24.998 Y23.402 Z4.999 
G1 X5.002 Y23.402 Z4.999 
G1 X5.002 Y23.400 Z4.999 
G1 X24.998 Y23.400 Z4.999 
G1 X24.998 Y23.398 Z4.999 
G1 X5.002 Y23.398 Z4.999 
G1 X5.002 Y23.395 Z4.999 
G1 X24.998 Y23.395 Z4.999 
G1 X24.998 Y23.392 Z4.999 
G1 X5.002 Y23.392 Z4.999 
G1 X5.002 Y23.390 Z4.999 
G1 X24.998 Y23.390 Z4.999 
G1 X24.998 Y23.387 Z4.999 
G1 X5.002 Y23.387 Z4.999 
G1 X5.002 Y23.385 Z4.999 
G1 X24.998 Y23.385 Z4.999 
G1 X24.998 Y23.383 Z4.999 
G1 X5.002 Y23.383 Z4.999 
G1 X5.002 Y23.380 Z4.999 
G1 X24.998 Y23.380 Z4.999 
G1 X24.998 Y23.377 Z4.999 
G1 X5.002 Y23.377 Z4.999 
G1 X5.002 Y23.375 Z4.999 
G1 X24.998 Y23.375 Z4.999 
G1 X24.998 Y23.373 Z4.999 
G1 X5.002 Y23.373 Z4.999 
G1 X5.002 Y23.370 Z4.999 
G1 X24.998 Y23.370 Z4.999 
G1 X24.998 Y23.367 Z4.999 
G1 X5.002 Y23.367 Z4.999 
G1 X5.002 Y23.365 Z4.999 
G1 X24.998 Y23.365 Z4.999 
G1 X24.998 Y23.363 Z4.999 
G1 X5.002 Y23.363 Z4.999 
G1 X5.002 Y23.360 Z4.999 
G1 X24.998 Y23.360 Z4.999 
G1 X24.998 Y23.358 Z4.999 
G1 X5.002 Y23.358 Z4.999 
G1 X5.002 Y23.355 Z4.999 
G1 X24.998 Y23.355 Z4.999 
G1 X24.998 Y23.352 Z4.999 
G1 X5.002 Y23.352 Z4.999 
G1 X5.002 Y23.350 Z4.999 
G1 X24.998 Y23.350 Z4.999 
G1 X24.998 Y23.348 Z4.999 
G1 X5.002 Y23.348 Z4.999 
G1 X5.002 Y23.345 Z4.999 
G1 X24.998 Y23.345 Z4.999 
G1 X24.998 Y23.343 Z4.999 
G1 X5.002 Y23.343 Z4.999 
G1 X5.002 Y23.340 Z4.999 
G1 X24.998 Y23.340 Z4.999 
G1 X24.998 Y23.337 Z4.999 
G1 X5.002 Y23.337 Z4.999 
G1 X5.002 Y23.335 Z4.999 
G1 X24.998 Y23.335 Z4.999 
G1 X24.998 Y23.332 Z4.999 
G1 X5.002 Y23.332 Z4.999 
G1 X5.002 Y23.330 Z4.999 
G1 X24.998 Y23.330 Z4.999 
G1 X24.998 Y23.328 Z4.999 
G1 X5.002 Y23.328 Z4.999 
G1 X5.002 Y23.325 Z4.999 
G1 X24.998 Y23.325 Z4.999 
G1 X24.998 Y23.322 Z4.999 
G1 X5.002 Y23.322 Z4.999 
G1 X5.002 Y23.320 Z4.999 
G1 X24.998 Y23.320 Z4.999 
G1 X24.998 Y23.318 Z4.999 
G1 X5.002 Y23.318 Z4.999 
G1 X5.002 Y23.315 Z4.999 
G1 X24.998 Y23.315 Z4.999 
G1 X24.998 Y23.312 Z4.999 
G1 X5.002 Y23.312 Z4.999 
G1 X5.002 Y23.310 Z4.999 
G1 X24.998 Y23.310 Z4.999 
G1 X24.998 Y23.307 Z4.999 
G1 X5.002 Y23.307 Z4.999 
G1 X5.002 Y23.305 Z4.999 
G1 X24.998 Y23.305 Z4.999 
G1 X24.998 Y23.303 Z4.999 
G1 X5.002 Y23.303 Z4.999 
G1 X5.002 Y23.300 Z4.999 
G1 X24.998 Y23.300 Z4.999 
G1 X24.998 Y23.297 Z4.999 
G1 X5.002 Y23.297 Z4.999 
G1 X5.002 Y23.295 Z4.999 
G1 X24.998 Y23.295 Z4.999 
G1 X24.998 Y23.293 Z4.999 
G1 X5.002 Y23.293 Z4.999 
G1 X5.002 Y23.290 Z4.999 
G1 X24.998 Y23.290 Z4.999 
G1 X24.998 Y23.288 Z4.999 
G1 X5.002 Y23.288 Z4.999 
G1 X5.002 Y23.285 Z4.999 
G1 X24.998 Y23.285 Z4.999 
G1 X24.998 Y23.282 Z4.999 
G1 X5.002 Y23.282 Z4.999 
G1 X5.002 Y23.280 Z4.999 
G1 X24.998 Y23.280 Z4.999 
G1 X24.998 Y23.277 Z4.999 
G1 X5.002 Y23.277 Z4.999 
G1 X5.002 Y23.275 Z4.999 
G1 X24.998 Y23.275 Z4.999 
G1 X24.998 Y23.273 Z4.999 
G1 X5.002 Y23.273 Z4.999 
G1 X5.002 Y23.270 Z4.999 
G1 X24.998 Y23.270 Z4.999 
G1 X24.998 Y23.267 Z4.999 
G1 X5.002 Y23.267 Z4.999 
G1 X5.002 Y23.265 Z4.999 
G1 X24.998 Y23.265 Z4.999 
G1 X24.998 Y23.262 Z4.999 
G1 X5.002 Y23.262 Z4.999 
G1 X5.002 Y23.260 Z4.999 
G1 X24.998 Y23.260 Z4.999 
G1 X24.998 Y23.258 Z4.999 
G1 X5.002 Y23.258 Z4.999 
G1 X5.002 Y23.255 Z4.999 
G1 X24.998 Y23.255 Z4.999 
G1 X24.998 Y23.252 Z4.999 
G1 X5.002 Y23.252 Z4.999 
G1 X5.002 Y23.250 Z4.999 
G1 X24.998 Y23.250 Z4.999 
G1 X24.998 Y23.248 Z4.999 
G1 X5.002 Y23.248 Z4.999 
G1 X5.002 Y23.245 Z4.999 
G1 X24.998 Y23.245 Z4.999 
G1 X24.998 Y23.242 Z4.999 
G1 X5.002 Y23.242 Z4.999 
G1 X5.002 Y23.240 Z4.999 
G1 X24.998 Y23.240 Z4.999 
G1 X24.998 Y23.238 Z4.999 
G1 X5.002 Y23.238 Z4.999 
G1 X5.002 Y23.235 Z4.999 
G1 X24.998 Y23.235 Z4.999 
G1 X24.998 Y23.233 Z4.999 
G1 X5.002 Y23.233 Z4.999 
G1 X5.002 Y23.230 Z4.999 
G1 X24.998 Y23.230 Z4.999 
G1 X24.998 Y23.227 Z4.999 
G1 X5.002 Y23.227 Z4.999 
G1 X5.002 Y23.225 Z4.999 
G1 X24.998 Y23.225 Z4.999 
G1 X24.998 Y23.223 Z4.999 
G1 X5.002 Y23.223 Z4.999 
G1 X5.002 Y23.220 Z4.999 
G1 X24.998 Y23.220 Z4.999 
G1 X24.998 Y23.218 Z4.999 
G1 X5.002 Y23.218 Z4.999 
G1 X5.002 Y23.215 Z4.999 
G1 X24.998 Y23.215 Z4.999 
G1 X24.998 Y23.212 Z4.999 
G1 X5.002 Y23.212 Z4.999 
G1 X5.002 Y23.210 Z4.999 
G1 X24.998 Y23.210 Z4.999 
G1 X24.998 Y23.207 Z4.999 
G1 X5.002 Y23.207 Z4.999 
G1 X5.002 Y23.205 Z4.999 
G1 X24.998 Y23.205 Z4.999 
G1 X24.998 Y23.203 Z4.999 
G1 X5.002 Y23.203 Z4.999 
G1 X5.002 Y23.200 Z4.999 
G1 X24.998 Y23.200 Z4.999 
G1 X24.998 Y23.197 Z4.999 
G1 X5.002 Y23.197 Z4.999 
G1 X5.002 Y23.195 Z4.999 
G1 X24.998 Y23.195 Z4.999 
G1 X24.998 Y23.193 Z4.999 
G1 X5.002 Y23.193 Z4.999 
G1 X5.002 Y23.190 Z4.999 
G1 X24.998 Y23.190 Z4.999 
G1 X24.998 Y23.188 Z4.999 
G1 X5.002 Y23.188 Z4.999 
G1 X5.002 Y23.185 Z4.999 
G1 X24.998 Y23.185 Z4.999 
G1 X24.998 Y23.182 Z4.999 
G1 X5.002 Y23.182 Z4.999 
G1 X5.002 Y23.180 Z4.999 
G1 X24.998 Y23.180 Z4.999 
G1 X24.998 Y23.178 Z4.999 
G1 X5.002 Y23.178 Z4.999 
G1 X5.002 Y23.175 Z4.999 
G1 X24.998 Y23.175 Z4.999 
G1 X24.998 Y23.172 Z4.999 
G1 X5.002 Y23.172 Z4.999 
G1 X5.002 Y23.170 Z4.999 
G1 X24.998 Y23.170 Z4.999 
G1 X24.998 Y23.168 Z4.999 
G1 X5.002 Y23.168 Z4.999 
G1 X5.002 Y23.165 Z4.999 
G1 X24.998 Y23.165 Z4.999 
G1 X24.998 Y23.163 Z4.999 
G1 X5.002 Y23.163 Z4.999 
G1 X5.002 Y23.160 Z4.999 
G1 X24.998 Y23.160 Z4.999 
G1 X24.998 Y23.157 Z4.999 
G1 X5.002 Y23.157 Z4.999 
G1 X5.002 Y23.155 Z4.999 
G1 X24.998 Y23.155 Z4.999 
G1 X24.998 Y23.152 Z4.999 
G1 X5.002 Y23.152 Z4.999 
G1 X5.002 Y23.150 Z4.999 
G1 X24.998 Y23.150 Z4.999 
G1 X24.998 Y23.148 Z4.999 
G1 X5.002 Y23.148 Z4.999 
G1 X5.002 Y23.145 Z4.999 
G1 X24.998 Y23.145 Z4.999 
G1 X24.998 Y23.142 Z4.999 
G1 X5.002 Y23.142 Z4.999 
G1 X5.002 Y23.140 Z4.999 
G1 X24.998 Y23.140 Z4.999 
G1 X24.998 Y23.137 Z4.999 
G1 X5.002 Y23.137 Z4.999 
G1 X5.002 Y23.135 Z4.999 
G1 X24.998 Y23.135 Z4.999 
G1 X24.998 Y23.133 Z4.999 
G1 X5.002 Y23.133 Z4.999 
G1 X5.002 Y23.130 Z4.999 
G1 X24.998 Y23.130 Z4.999 
G1 X24.998 Y23.127 Z4.999 
G1 X5.002 Y23.127 Z4.999 
G1 X5.002 Y23.125 Z4.999 
G1 X24.998 Y23.125 Z4.999 
G1 X24.998 Y23.123 Z4.999 
G1 X5.002 Y23.123 Z4.999 
G1 X5.002 Y23.120 Z4.999 
G1 X24.998 Y23.120 Z4.999 
G1 X24.998 Y23.117 Z4.999 
G1 X5.002 Y23.117 Z4.999 
G1 X5.002 Y23.115 Z4.999 
G1 X24.998 Y23.115 Z4.999 
G1 X24.998 Y23.113 Z4.999 
G1 X5.002 Y23.113 Z4.999 
G1 X5.002 Y23.110 Z4.999 
G1 X24.998 Y23.110 Z4.999 
G1 X24.998 Y23.108 Z4.999 
G1 X5.002 Y23.108 Z4.999 
G1 X5.002 Y23.105 Z4.999 
G1 X24.998 Y23.105 Z4.999 
G1 X24.998 Y23.102 Z4.999 
G1 X5.002 Y23.102 Z4.999 
G1 X5.002 Y23.100 Z4.999 
G1 X24.998 Y23.100 Z4.999 
G1 X24.998 Y23.098 Z4.999 
G1 X5.002 Y23.098 Z4.999 
G1 X5.002 Y23.095 Z4.999 
G1 X24.998 Y23.095 Z4.999 
G1 X24.998 Y23.093 Z4.999 
G1 X5.002 Y23.093 Z4.999 
G1 X5.002 Y23.090 Z4.999 
G1 X24.998 Y23.090 Z4.999 
G1 X24.998 Y23.087 Z4.999 
G1 X5.002 Y23.087 Z4.999 
G1 X5.002 Y23.085 Z4.999 
G1 X24.998 Y23.085 Z4.999 
G1 X24.998 Y23.082 Z4.999 
G1 X5.002 Y23.082 Z4.999 
G1 X5.002 Y23.080 Z4.999 
G1 X24.998 Y23.080 Z4.999 
G1 X24.998 Y23.078 Z4.999 
G1 X5.002 Y23.078 Z4.999 
G1 X5.002 Y23.075 Z4.999 
G1 X24.998 Y23.075 Z4.999 
G1 X24.998 Y23.072 Z4.999 
G1 X5.002 Y23.072 Z4.999 
G1 X5.002 Y23.070 Z4.999 
G1 X24.998 Y23.070 Z4.999 
G1 X24.998 Y23.068 Z4.999 
G1 X5.002 Y23.068 Z4.999 
G1 X5.002 Y23.065 Z4.999 
G1 X24.998 Y23.065 Z4.999 
G1 X24.998 Y23.062 Z4.999 
G1 X5.002 Y23.062 Z4.999 
G1 X5.002 Y23.060 Z4.999 
G1 X24.998 Y23.060 Z4.999 
G1 X24.998 Y23.057 Z4.999 
G1 X5.002 Y23.057 Z4.999 
G1 X5.002 Y23.055 Z4.999 
G1 X24.998 Y23.055 Z4.999 
G1 X24.998 Y23.053 Z4.999 
G1 X5.002 Y23.053 Z4.999 
G1 X5.002 Y23.050 Z4.999 
G1 X24.998 Y23.050 Z4.999 
G1 X24.998 Y23.047 Z4.999 
G1 X5.002 Y23.047 Z4.999 
G1 X5.002 Y23.045 Z4.999 
G1 X24.998 Y23.045 Z4.999 
G1 X24.998 Y23.043 Z4.999 
G1 X5.002 Y23.043 Z4.999 
G1 X5.002 Y23.040 Z4.999 
G1 X24.998 Y23.040 Z4.999 
G1 X24.998 Y23.038 Z4.999 
G1 X5.002 Y23.038 Z4.999 
G1 X5.002 Y23.035 Z4.999 
G1 X24.998 Y23.035 Z4.999 
G1 X24.998 Y23.032 Z4.999 
G1 X5.002 Y23.032 Z4.999 
G1 X5.002 Y23.030 Z4.999 
G1 X24.998 Y23.030 Z4.999 
G1 X24.998 Y23.027 Z4.999 
G1 X5.002 Y23.027 Z4.999 
G1 X5.002 Y23.025 Z4.999 
G1 X24.998 Y23.025 Z4.999 
G1 X24.998 Y23.023 Z4.999 
G1 X5.002 Y23.023 Z4.999 
G1 X5.002 Y23.020 Z4.999 
G1 X24.998 Y23.020 Z4.999 
G1 X24.998 Y23.017 Z4.999 
G1 X5.002 Y23.017 Z4.999 
G1 X5.002 Y23.015 Z4.999 
G1 X24.998 Y23.015 Z4.999 
G1 X24.998 Y23.012 Z4.999 
G1 X5.002 Y23.012 Z4.999 
G1 X5.002 Y23.010 Z4.999 
G1 X24.998 Y23.010 Z4.999 
G1 X24.998 Y23.008 Z4.999 
G1 X5.002 Y23.008 Z4.999 
G1 X5.002 Y23.005 Z4.999 
G1 X24.998 Y23.005 Z4.999 
G1 X24.998 Y23.002 Z4.999 
G1 X5.002 Y23.002 Z4.999 
G1 X5.002 Y23.000 Z4.999 
G1 X24.998 Y23.000 Z4.999 
G1 X24.998 Y22.997 Z4.999 
G1 X5.002 Y22.997 Z4.999 
G1 X5.002 Y22.995 Z4.999 
G1 X24.998 Y22.995 Z4.999 
G1 X24.998 Y22.992 Z4.999 
G1 X5.002 Y22.992 Z4.999 
G1 X5.002 Y22.990 Z4.999 
G1 X24.998 Y22.990 Z4.999 
G1 X24.998 Y22.988 Z4.999 
G1 X5.002 Y22.988 Z4.999 
G1 X5.002 Y22.985 Z4.999 
G1 X24.998 Y22.985 Z4.999 
G1 X24.998 Y22.983 Z4.999 
G1 X5.002 Y22.983 Z4.999 
G1 X5.002 Y22.980 Z4.999 
G1 X24.998 Y22.980 Z4.999 
G1 X24.998 Y22.977 Z4.999 
G1 X5.002 Y22.977 Z4.999 
G1 X5.002 Y22.975 Z4.999 
G1 X24.998 Y22.975 Z4.999 
G1 X24.998 Y22.973 Z4.999 
G1 X5.002 Y22.973 Z4.999 
G1 X5.002 Y22.970 Z4.999 
G1 X24.998 Y22.970 Z4.999 
G1 X24.998 Y22.968 Z4.999 
G1 X5.002 Y22.968 Z4.999 
G1 X5.002 Y22.965 Z4.999 
G1 X24.998 Y22.965 Z4.999 
G1 X24.998 Y22.962 Z4.999 
G1 X5.002 Y22.962 Z4.999 
G1 X5.002 Y22.960 Z4.999 
G1 X24.998 Y22.960 Z4.999 
G1 X24.998 Y22.957 Z4.999 
G1 X5.002 Y22.957 Z4.999 
G1 X5.002 Y22.955 Z4.999 
G1 X24.998 Y22.955 Z4.999 
G1 X24.998 Y22.953 Z4.999 
G1 X5.002 Y22.953 Z4.999 
G1 X5.002 Y22.950 Z4.999 
G1 X24.998 Y22.950 Z4.999 
G1 X24.998 Y22.947 Z4.999 
G1 X5.002 Y22.947 Z4.999 
G1 X5.002 Y22.945 Z4.999 
G1 X24.998 Y22.945 Z4.999 
G1 X24.998 Y22.942 Z4.999 
G1 X5.002 Y22.942 Z4.999 
G1 X5.002 Y22.940 Z4.999 
G1 X24.998 Y22.940 Z4.999 
G1 X24.998 Y22.938 Z4.999 
G1 X5.002 Y22.938 Z4.999 
G1 X5.002 Y22.935 Z4.999 
G1 X24.998 Y22.935 Z4.999 
G1 X24.998 Y22.933 Z4.999 
G1 X5.002 Y22.933 Z4.999 
G1 X5.002 Y22.930 Z4.999 
G1 X24.998 Y22.930 Z4.999 
G1 X24.998 Y22.928 Z4.999 
G1 X5.002 Y22.928 Z4.999 
G1 X5.002 Y22.925 Z4.999 
G1 X24.998 Y22.925 Z4.999 
G1 X24.998 Y22.922 Z4.999 
G1 X5.002 Y22.922 Z4.999 
G1 X5.002 Y22.920 Z4.999 
G1 X24.998 Y22.920 Z4.999 
G1 X24.998 Y22.918 Z4.999 
G1 X5.002 Y22.918 Z4.999 
G1 X5.002 Y22.915 Z4.999 
G1 X24.998 Y22.915 Z4.999 
G1 X24.998 Y22.913 Z4.999 
G1 X5.002 Y22.913 Z4.999 
G1 X5.002 Y22.910 Z4.999 
G1 X24.998 Y22.910 Z4.999 
G1 X24.998 Y22.907 Z4.999 
G1 X5.002 Y22.907 Z4.999 
G1 X5.002 Y22.905 Z4.999 
G1 X24.998 Y22.905 Z4.999 
G1 X24.998 Y22.902 Z4.999 
G1 X5.002 Y22.902 Z4.999 
G1 X5.002 Y22.900 Z4.999 
G1 X24.998 Y22.900 Z4.999 
G1 X24.998 Y22.898 Z4.999 
G1 X5.002 Y22.898 Z4.999 
G1 X5.002 Y22.895 Z4.999 
G1 X24.998 Y22.895 Z4.999 
G1 X24.998 Y22.892 Z4.999 
G1 X5.002 Y22.892 Z4.999 
G1 X5.002 Y22.890 Z4.999 
G1 X24.998 Y22.890 Z4.999 
G1 X24.998 Y22.887 Z4.999 
G1 X5.002 Y22.887 Z4.999 
G1 X5.002 Y22.885 Z4.999 
G1 X24.998 Y22.885 Z4.999 
G1 X24.998 Y22.883 Z4.999 
G1 X5.002 Y22.883 Z4.999 
G1 X5.002 Y22.880 Z4.999 
G1 X24.998 Y22.880 Z4.999 
G1 X24.998 Y22.878 Z4.999 
G1 X5.002 Y22.878 Z4.999 
G1 X5.002 Y22.875 Z4.999 
G1 X24.998 Y22.875 Z4.999 
G1 X24.998 Y22.872 Z4.999 
G1 X5.002 Y22.872 Z4.999 
G1 X5.002 Y22.870 Z4.999 
G1 X24.998 Y22.870 Z4.999 
G1 X24.998 Y22.867 Z4.999 
G1 X5.002 Y22.867 Z4.999 
G1 X5.002 Y22.865 Z4.999 
G1 X24.998 Y22.865 Z4.999 
G1 X24.998 Y22.863 Z4.999 
G1 X5.002 Y22.863 Z4.999 
G1 X5.002 Y22.860 Z4.999 
G1 X24.998 Y22.860 Z4.999 
G1 X24.998 Y22.858 Z4.999 
G1 X5.002 Y22.858 Z4.999 
G1 X5.002 Y22.855 Z4.999 
G1 X24.998 Y22.855 Z4.999 
G1 X24.998 Y22.852 Z4.999 
G1 X5.002 Y22.852 Z4.999 
G1 X5.002 Y22.850 Z4.999 
G1 X24.998 Y22.850 Z4.999 
G1 X24.998 Y22.848 Z4.999 
G1 X5.002 Y22.848 Z4.999 
G1 X5.002 Y22.845 Z4.999 
G1 X24.998 Y22.845 Z4.999 
G1 X24.998 Y22.843 Z4.999 
G1 X5.002 Y22.843 Z4.999 
G1 X5.002 Y22.840 Z4.999 
G1 X24.998 Y22.840 Z4.999 
G1 X24.998 Y22.837 Z4.999 
G1 X5.002 Y22.837 Z4.999 
G1 X5.002 Y22.835 Z4.999 
G1 X24.998 Y22.835 Z4.999 
G1 X24.998 Y22.832 Z4.999 
G1 X5.002 Y22.832 Z4.999 
G1 X5.002 Y22.830 Z4.999 
G1 X24.998 Y22.830 Z4.999 
G1 X24.998 Y22.828 Z4.999 
G1 X5.002 Y22.828 Z4.999 
G1 X5.002 Y22.825 Z4.999 
G1 X24.998 Y22.825 Z4.999 
G1 X24.998 Y22.822 Z4.999 
G1 X5.002 Y22.822 Z4.999 
G1 X5.002 Y22.820 Z4.999 
G1 X24.998 Y22.820 Z4.999 
G1 X24.998 Y22.817 Z4.999 
G1 X5.002 Y22.817 Z4.999 
G1 X5.002 Y22.815 Z4.999 
G1 X24.998 Y22.815 Z4.999 
G1 X24.998 Y22.812 Z4.999 
G1 X5.002 Y22.812 Z4.999 
G1 X5.002 Y22.810 Z4.999 
G1 X24.998 Y22.810 Z4.999 
G1 X24.998 Y22.808 Z4.999 
G1 X5.002 Y22.808 Z4.999 
G1 X5.002 Y22.805 Z4.999 
G1 X24.998 Y22.805 Z4.999 
G1 X24.998 Y22.803 Z4.999 
G1 X5.002 Y22.803 Z4.999 
G1 X5.002 Y22.800 Z4.999 
G1 X24.998 Y22.800 Z4.999 
G1 X24.998 Y22.797 Z4.999 
G1 X5.002 Y22.797 Z4.999 
G1 X5.002 Y22.795 Z4.999 
G1 X24.998 Y22.795 Z4.999 
G1 X24.998 Y22.793 Z4.999 
G1 X5.002 Y22.793 Z4.999 
G1 X5.002 Y22.790 Z4.999 
G1 X24.998 Y22.790 Z4.999 
G1 X24.998 Y22.788 Z4.999 
G1 X5.002 Y22.788 Z4.999 
G1 X5.002 Y22.785 Z4.999 
G1 X24.998 Y22.785 Z4.999 
G1 X24.998 Y22.782 Z4.999 
G1 X5.002 Y22.782 Z4.999 
G1 X5.002 Y22.780 Z4.999 
G1 X24.998 Y22.780 Z4.999 
G1 X24.998 Y22.777 Z4.999 
G1 X5.002 Y22.777 Z4.999 
G1 X5.002 Y22.775 Z4.999 
G1 X24.998 Y22.775 Z4.999 
G1 X24.998 Y22.773 Z4.999 
G1 X5.002 Y22.773 Z4.999 
G1 X5.002 Y22.770 Z4.999 
G1 X24.998 Y22.770 Z4.999 
G1 X24.998 Y22.767 Z4.999 
G1 X5.002 Y22.767 Z4.999 
G1 X5.002 Y22.765 Z4.999 
G1 X24.998 Y22.765 Z4.999 
G1 X24.998 Y22.762 Z4.999 
G1 X5.002 Y22.762 Z4.999 
G1 X5.002 Y22.760 Z4.999 
G1 X24.998 Y22.760 Z4.999 
G1 X24.998 Y22.758 Z4.999 
G1 X5.002 Y22.758 Z4.999 
G1 X5.002 Y22.755 Z4.999 
G1 X24.998 Y22.755 Z4.999 
G1 X24.998 Y22.753 Z4.999 
G1 X5.002 Y22.753 Z4.999 
G1 X5.002 Y22.750 Z4.999 
G1 X24.998 Y22.750 Z4.999 
G1 X24.998 Y22.747 Z4.999 
G1 X5.002 Y22.747 Z4.999 
G1 X5.002 Y22.745 Z4.999 
G1 X24.998 Y22.745 Z4.999 
G1 X24.998 Y22.742 Z4.999 
G1 X5.002 Y22.742 Z4.999 
G1 X5.002 Y22.740 Z4.999 
G1 X24.998 Y22.740 Z4.999 
G1 X24.998 Y22.738 Z4.999 
G1 X5.002 Y22.738 Z4.999 
G1 X5.002 Y22.735 Z4.999 
G1 X24.998 Y22.735 Z4.999 
G1 X24.998 Y22.733 Z4.999 
G1 X5.002 Y22.733 Z4.999 
G1 X5.002 Y22.730 Z4.999 
G1 X24.998 Y22.730 Z4.999 
G1 X24.998 Y22.727 Z4.999 
G1 X5.002 Y22.727 Z4.999 
G1 X5.002 Y22.725 Z4.999 
G1 X24.998 Y22.725 Z4.999 
G1 X24.998 Y22.723 Z4.999 
G1 X5.002 Y22.723 Z4.999 
G1 X5.002 Y22.720 Z4.999 
G1 X24.998 Y22.720 Z4.999 
G1 X24.998 Y22.718 Z4.999 
G1 X5.002 Y22.718 Z4.999 
G1 X5.002 Y22.715 Z4.999 
G1 X24.998 Y22.715 Z4.999 
G1 X24.998 Y22.712 Z4.999 
G1 X5.002 Y22.712 Z4.999 
G1 X5.002 Y22.710 Z4.999 
G1 X24.998 Y22.710 Z4.999 
G1 X24.998 Y22.707 Z4.999 
G1 X5.002 Y22.707 Z4.999 
G1 X5.002 Y22.705 Z4.999 
G1 X24.998 Y22.705 Z4.999 
G1 X24.998 Y22.703 Z4.999 
G1 X5.002 Y22.703 Z4.999 
G1 X5.002 Y22.700 Z4.999 
G1 X24.998 Y22.700 Z4.999 
G1 X24.998 Y22.697 Z4.999 
G1 X5.002 Y22.697 Z4.999 
G1 X5.002 Y22.695 Z4.999 
G1 X24.998 Y22.695 Z4.999 
G1 X24.998 Y22.692 Z4.999 
G1 X5.002 Y22.692 Z4.999 
G1 X5.002 Y22.690 Z4.999 
G1 X24.998 Y22.690 Z4.999 
G1 X24.998 Y22.688 Z4.999 
G1 X5.002 Y22.688 Z4.999 
G1 X5.002 Y22.685 Z4.999 
G1 X24.998 Y22.685 Z4.999 
G1 X24.998 Y22.683 Z4.999 
G1 X5.002 Y22.683 Z4.999 
G1 X5.002 Y22.680 Z4.999 
G1 X24.998 Y22.680 Z4.999 
G1 X24.998 Y22.678 Z4.999 
G1 X5.002 Y22.678 Z4.999 
G1 X5.002 Y22.675 Z4.999 
G1 X24.998 Y22.675 Z4.999 
G1 X24.998 Y22.672 Z4.999 
G1 X5.002 Y22.672 Z4.999 
G1 X5.002 Y22.670 Z4.999 
G1 X24.998 Y22.670 Z4.999 
G1 X24.998 Y22.668 Z4.999 
G1 X5.002 Y22.668 Z4.999 
G1 X5.002 Y22.665 Z4.999 
G1 X24.998 Y22.665 Z4.999 
G1 X24.998 Y22.663 Z4.999 
G1 X5.002 Y22.663 Z4.999 
G1 X5.002 Y22.660 Z4.999 
G1 X24.998 Y22.660 Z4.999 
G1 X24.998 Y22.657 Z4.999 
G1 X5.002 Y22.657 Z4.999 
G1 X5.002 Y22.655 Z4.999 
G1 X24.998 Y22.655 Z4.999 
G1 X24.998 Y22.652 Z4.999 
G1 X5.002 Y22.652 Z4.999 
G1 X5.002 Y22.650 Z4.999 
G1 X24.998 Y22.650 Z4.999 
G1 X24.998 Y22.648 Z4.999 
G1 X5.002 Y22.648 Z4.999 
G1 X5.002 Y22.645 Z4.999 
G1 X24.998 Y22.645 Z4.999 
G1 X24.998 Y22.642 Z4.999 
G1 X5.002 Y22.642 Z4.999 
G1 X5.002 Y22.640 Z4.999 
G1 X24.998 Y22.640 Z4.999 
G1 X24.998 Y22.637 Z4.999 
G1 X5.002 Y22.637 Z4.999 
G1 X5.002 Y22.635 Z4.999 
G1 X24.998 Y22.635 Z4.999 
G1 X24.998 Y22.633 Z4.999 
G1 X5.002 Y22.633 Z4.999 
G1 X5.002 Y22.630 Z4.999 
G1 X24.998 Y22.630 Z4.999 
G1 X24.998 Y22.628 Z4.999 
G1 X5.002 Y22.628 Z4.999 
G1 X5.002 Y22.625 Z4.999 
G1 X24.998 Y22.625 Z4.999 
G1 X24.998 Y22.622 Z4.999 
G1 X5.002 Y22.622 Z4.999 
G1 X5.002 Y22.620 Z4.999 
G1 X24.998 Y22.620 Z4.999 
G1 X24.998 Y22.617 Z4.999 
G1 X5.002 Y22.617 Z4.999 
G1 X5.002 Y22.615 Z4.999 
G1 X24.998 Y22.615 Z4.999 
G1 X24.998 Y22.613 Z4.999 
G1 X5.002 Y22.613 Z4.999 
G1 X5.002 Y22.610 Z4.999 
G1 X24.998 Y22.610 Z4.999 
G1 X24.998 Y22.608 Z4.999 
G1 X5.002 Y22.608 Z4.999 
G1 X5.002 Y22.605 Z4.999 
G1 X24.998 Y22.605 Z4.999 
G1 X24.998 Y22.602 Z4.999 
G1 X5.002 Y22.602 Z4.999 
G1 X5.002 Y22.600 Z4.999 
G1 X24.998 Y22.600 Z4.999 
G1 X24.998 Y22.598 Z4.999 
G1 X5.002 Y22.598 Z4.999 
G1 X5.002 Y22.595 Z4.999 
G1 X24.998 Y22.595 Z4.999 
G1 X24.998 Y22.593 Z4.999 
G1 X5.002 Y22.593 Z4.999 
G1 X5.002 Y22.590 Z4.999 
G1 X24.998 Y22.590 Z4.999 
G1 X24.998 Y22.587 Z4.999 
G1 X5.002 Y22.587 Z4.999 
G1 X5.002 Y22.585 Z4.999 
G1 X24.998 Y22.585 Z4.999 
G1 X24.998 Y22.582 Z4.999 
G1 X5.002 Y22.582 Z4.999 
G1 X5.002 Y22.580 Z4.999 
G1 X24.998 Y22.580 Z4.999 
G1 X24.998 Y22.578 Z4.999 
G1 X5.002 Y22.578 Z4.999 
G1 X5.002 Y22.575 Z4.999 
G1 X24.998 Y22.575 Z4.999 
G1 X24.998 Y22.572 Z4.999 
G1 X5.002 Y22.572 Z4.999 
G1 X5.002 Y22.570 Z4.999 
G1 X24.998 Y22.570 Z4.999 
G1 X24.998 Y22.567 Z4.999 
G1 X5.002 Y22.567 Z4.999 
G1 X5.002 Y22.565 Z4.999 
G1 X24.998 Y22.565 Z4.999 
G1 X24.998 Y22.562 Z4.999 
G1 X5.002 Y22.562 Z4.999 
G1 X5.002 Y22.560 Z4.999 
G1 X24.998 Y22.560 Z4.999 
G1 X24.998 Y22.558 Z4.999 
G1 X5.002 Y22.558 Z4.999 
G1 X5.002 Y22.555 Z4.999 
G1 X24.998 Y22.555 Z4.999 
G1 X24.998 Y22.553 Z4.999 
G1 X5.002 Y22.553 Z4.999 
G1 X5.002 Y22.550 Z4.999 
G1 X24.998 Y22.550 Z4.999 
G1 X24.998 Y22.547 Z4.999 
G1 X5.002 Y22.547 Z4.999 
G1 X5.002 Y22.545 Z4.999 
G1 X24.998 Y22.545 Z4.999 
G1 X24.998 Y22.543 Z4.999 
G1 X5.002 Y22.543 Z4.999 
G1 X5.002 Y22.540 Z4.999 
G1 X24.998 Y22.540 Z4.999 
G1 X24.998 Y22.538 Z4.999 
G1 X5.002 Y22.538 Z4.999 
G1 X5.002 Y22.535 Z4.999 
G1 X24.998 Y22.535 Z4.999 
G1 X24.998 Y22.532 Z4.999 
G1 X5.002 Y22.532 Z4.999 
G1 X5.002 Y22.530 Z4.999 
G1 X24.998 Y22.530 Z4.999 
G1 X24.998 Y22.527 Z4.999 
G1 X5.002 Y22.527 Z4.999 
G1 X5.002 Y22.525 Z4.999 
G1 X24.998 Y22.525 Z4.999 
G1 X24.998 Y22.523 Z4.999 
G1 X5.002 Y22.523 Z4.999 
G1 X5.002 Y22.520 Z4.999 
G1 X24.998 Y22.520 Z4.999 
G1 X24.998 Y22.517 Z4.999 
G1 X5.002 Y22.517 Z4.999 
G1 X5.002 Y22.515 Z4.999 
G1 X24.998 Y22.515 Z4.999 
G1 X24.998 Y22.512 Z4.999 
G1 X5.002 Y22.512 Z4.999 
G1 X5.002 Y22.510 Z4.999 
G1 X24.998 Y22.510 Z4.999 
G1 X24.998 Y22.508 Z4.999 
G1 X5.002 Y22.508 Z4.999 
G1 X5.002 Y22.505 Z4.999 
G1 X24.998 Y22.505 Z4.999 
G1 X24.998 Y22.503 Z4.999 
G1 X5.002 Y22.503 Z4.999 
G1 X5.002 Y22.500 Z4.999 
G1 X24.998 Y22.500 Z4.999 
G1 X24.998 Y22.497 Z4.999 
G1 X5.002 Y22.497 Z4.999 
G1 X5.002 Y22.495 Z4.999 
G1 X24.998 Y22.495 Z4.999 
G1 X24.998 Y22.492 Z4.999 
G1 X5.002 Y22.492 Z4.999 
G1 X5.002 Y22.490 Z4.999 
G1 X24.998 Y22.490 Z4.999 
G1 X24.998 Y22.488 Z4.999 
G1 X5.002 Y22.488 Z4.999 
G1 X5.002 Y22.485 Z4.999 
G1 X24.998 Y22.485 Z4.999 
G1 X24.998 Y22.483 Z4.999 
G1 X5.002 Y22.483 Z4.999 
G1 X5.002 Y22.480 Z4.999 
G1 X24.998 Y22.480 Z4.999 
G1 X24.998 Y22.477 Z4.999 
G1 X5.002 Y22.477 Z4.999 
G1 X5.002 Y22.475 Z4.999 
G1 X24.998 Y22.475 Z4.999 
G1 X24.998 Y22.473 Z4.999 
G1 X5.002 Y22.473 Z4.999 
G1 X5.002 Y22.470 Z4.999 
G1 X24.998 Y22.470 Z4.999 
G1 X24.998 Y22.468 Z4.999 
G1 X5.002 Y22.468 Z4.999 
G1 X5.002 Y22.465 Z4.999 
G1 X24.998 Y22.465 Z4.999 
G1 X24.998 Y22.462 Z4.999 
G1 X5.002 Y22.462 Z4.999 
G1 X5.002 Y22.460 Z4.999 
G1 X24.998 Y22.460 Z4.999 
G1 X24.998 Y22.457 Z4.999 
G1 X5.002 Y22.457 Z4.999 
G1 X5.002 Y22.455 Z4.999 
G1 X24.998 Y22.455 Z4.999 
G1 X24.998 Y22.453 Z4.999 
G1 X5.002 Y22.453 Z4.999 
G1 X5.002 Y22.450 Z4.999 
G1 X24.998 Y22.450 Z4.999 
G1 X24.998 Y22.447 Z4.999 
G1 X5.002 Y22.447 Z4.999 
G1 X5.002 Y22.445 Z4.999 
G1 X24.998 Y22.445 Z4.999 
G1 X24.998 Y22.442 Z4.999 
G1 X5.002 Y22.442 Z4.999 
G1 X5.002 Y22.440 Z4.999 
G1 X24.998 Y22.440 Z4.999 
G1 X24.998 Y22.438 Z4.999 
G1 X5.002 Y22.438 Z4.999 
G1 X5.002 Y22.435 Z4.999 
G1 X24.998 Y22.435 Z4.999 
G1 X24.998 Y22.433 Z4.999 
G1 X5.002 Y22.433 Z4.999 
G1 X5.002 Y22.430 Z4.999 
G1 X24.998 Y22.430 Z4.999 
G1 X24.998 Y22.428 Z4.999 
G1 X5.002 Y22.428 Z4.999 
G1 X5.002 Y22.425 Z4.999 
G1 X24.998 Y22.425 Z4.999 
G1 X24.998 Y22.422 Z4.999 
G1 X5.002 Y22.422 Z4.999 
G1 X5.002 Y22.420 Z4.999 
G1 X24.998 Y22.420 Z4.999 
G1 X24.998 Y22.418 Z4.999 
G1 X5.002 Y22.418 Z4.999 
G1 X5.002 Y22.415 Z4.999 
G1 X24.998 Y22.415 Z4.999 
G1 X24.998 Y22.413 Z4.999 
G1 X5.002 Y22.413 Z4.999 
G1 X5.002 Y22.410 Z4.999 
G1 X24.998 Y22.410 Z4.999 
G1 X24.998 Y22.407 Z4.999 
G1 X5.002 Y22.407 Z4.999 
G1 X5.002 Y22.405 Z4.999 
G1 X24.998 Y22.405 Z4.999 
G1 X24.998 Y22.402 Z4.999 
G1 X5.002 Y22.402 Z4.999 
G1 X5.002 Y22.400 Z4.999 
G1 X24.998 Y22.400 Z4.999 
G1 X24.998 Y22.398 Z4.999 
G1 X5.002 Y22.398 Z4.999 
G1 X5.002 Y22.395 Z4.999 
G1 X24.998 Y22.395 Z4.999 
G1 X24.998 Y22.392 Z4.999 
G1 X5.002 Y22.392 Z4.999 
G1 X5.002 Y22.390 Z4.999 
G1 X24.998 Y22.390 Z4.999 
G1 X24.998 Y22.387 Z4.999 
G1 X5.002 Y22.387 Z4.999 
G1 X5.002 Y22.385 Z4.999 
G1 X24.998 Y22.385 Z4.999 
G1 X24.998 Y22.383 Z4.999 
G1 X5.002 Y22.383 Z4.999 
G1 X5.002 Y22.380 Z4.999 
G1 X24.998 Y22.380 Z4.999 
G1 X24.998 Y22.378 Z4.999 
G1 X5.002 Y22.378 Z4.999 
G1 X5.002 Y22.375 Z4.999 
G1 X24.998 Y22.375 Z4.999 
G1 X24.998 Y22.372 Z4.999 
G1 X5.002 Y22.372 Z4.999 
G1 X5.002 Y22.370 Z4.999 
G1 X24.998 Y22.370 Z4.999 
G1 X24.998 Y22.367 Z4.999 
G1 X5.002 Y22.367 Z4.999 
G1 X5.002 Y22.365 Z4.999 
G1 X24.998 Y22.365 Z4.999 
G1 X24.998 Y22.363 Z4.999 
G1 X5.002 Y22.363 Z4.999 
G1 X5.002 Y22.360 Z4.999 
G1 X24.998 Y22.360 Z4.999 
G1 X24.998 Y22.358 Z4.999 
G1 X5.002 Y22.358 Z4.999 
G1 X5.002 Y22.355 Z4.999 
G1 X24.998 Y22.355 Z4.999 
G1 X24.998 Y22.352 Z4.999 
G1 X5.002 Y22.352 Z4.999 
G1 X5.002 Y22.350 Z4.999 
G1 X24.998 Y22.350 Z4.999 
G1 X24.998 Y22.348 Z4.999 
G1 X5.002 Y22.348 Z4.999 
G1 X5.002 Y22.345 Z4.999 
G1 X24.998 Y22.345 Z4.999 
G1 X24.998 Y22.343 Z4.999 
G1 X5.002 Y22.343 Z4.999 
G1 X5.002 Y22.340 Z4.999 
G1 X24.998 Y22.340 Z4.999 
G1 X24.998 Y22.337 Z4.999 
G1 X5.002 Y22.337 Z4.999 
G1 X5.002 Y22.335 Z4.999 
G1 X24.998 Y22.335 Z4.999 
G1 X24.998 Y22.332 Z4.999 
G1 X5.002 Y22.332 Z4.999 
G1 X5.002 Y22.330 Z4.999 
G1 X24.998 Y22.330 Z4.999 
G1 X24.998 Y22.328 Z4.999 
G1 X5.002 Y22.328 Z4.999 
G1 X5.002 Y22.325 Z4.999 
G1 X24.998 Y22.325 Z4.999 
G1 X24.998 Y22.322 Z4.999 
G1 X5.002 Y22.322 Z4.999 
G1 X5.002 Y22.320 Z4.999 
G1 X24.998 Y22.320 Z4.999 
G1 X24.998 Y22.317 Z4.999 
G1 X5.002 Y22.317 Z4.999 
G1 X5.002 Y22.315 Z4.999 
G1 X24.998 Y22.315 Z4.999 
G1 X24.998 Y22.312 Z4.999 
G1 X5.002 Y22.312 Z4.999 
G1 X5.002 Y22.310 Z4.999 
G1 X24.998 Y22.310 Z4.999 
G1 X24.998 Y22.308 Z4.999 
G1 X5.002 Y22.308 Z4.999 
G1 X5.002 Y22.305 Z4.999 
G1 X24.998 Y22.305 Z4.999 
G1 X24.998 Y22.303 Z4.999 
G1 X5.002 Y22.303 Z4.999 
G1 X5.002 Y22.300 Z4.999 
G1 X24.998 Y22.300 Z4.999 
G1 X24.998 Y22.297 Z4.999 
G1 X5.002 Y22.297 Z4.999 
G1 X5.002 Y22.295 Z4.999 
G1 X24.998 Y22.295 Z4.999 
G1 X24.998 Y22.293 Z4.999 
G1 X5.002 Y22.293 Z4.999 
G1 X5.002 Y22.290 Z4.999 
G1 X24.998 Y22.290 Z4.999 
G1 X24.998 Y22.288 Z4.999 
G1 X5.002 Y22.288 Z4.999 
G1 X5.002 Y22.285 Z4.999 
G1 X24.998 Y22.285 Z4.999 
G1 X24.998 Y22.282 Z4.999 
G1 X5.002 Y22.282 Z4.999 
G1 X5.002 Y22.280 Z4.999 
G1 X24.998 Y22.280 Z4.999 
G1 X24.998 Y22.277 Z4.999 
G1 X5.002 Y22.277 Z4.999 
G1 X5.002 Y22.275 Z4.999 
G1 X24.998 Y22.275 Z4.999 
G1 X24.998 Y22.273 Z4.999 
G1 X5.002 Y22.273 Z4.999 
G1 X5.002 Y22.270 Z4.999 
G1 X24.998 Y22.270 Z4.999 
G1 X24.998 Y22.267 Z4.999 
G1 X5.002 Y22.267 Z4.999 
G1 X5.002 Y22.265 Z4.999 
G1 X24.998 Y22.265 Z4.999 
G1 X24.998 Y22.262 Z4.999 
G1 X5.002 Y22.262 Z4.999 
G1 X5.002 Y22.260 Z4.999 
G1 X24.998 Y22.260 Z4.999 
G1 X24.998 Y22.258 Z4.999 
G1 X5.002 Y22.258 Z4.999 
G1 X5.002 Y22.255 Z4.999 
G1 X24.998 Y22.255 Z4.999 
G1 X24.998 Y22.253 Z4.999 
G1 X5.002 Y22.253 Z4.999 
G1 X5.002 Y22.250 Z4.999 
G1 X24.998 Y22.250 Z4.999 
G1 X24.998 Y22.247 Z4.999 
G1 X5.002 Y22.247 Z4.999 
G1 X5.002 Y22.245 Z4.999 
G1 X24.998 Y22.245 Z4.999 
G1 X24.998 Y22.242 Z4.999 
G1 X5.002 Y22.242 Z4.999 
G1 X5.002 Y22.240 Z4.999 
G1 X24.998 Y22.240 Z4.999 
G1 X24.998 Y22.238 Z4.999 
G1 X5.002 Y22.238 Z4.999 
G1 X5.002 Y22.235 Z4.999 
G1 X24.998 Y22.235 Z4.999 
G1 X24.998 Y22.233 Z4.999 
G1 X5.002 Y22.233 Z4.999 
G1 X5.002 Y22.230 Z4.999 
G1 X24.998 Y22.230 Z4.999 
G1 X24.998 Y22.227 Z4.999 
G1 X5.002 Y22.227 Z4.999 
G1 X5.002 Y22.225 Z4.999 
G1 X24.998 Y22.225 Z4.999 
G1 X24.998 Y22.223 Z4.999 
G1 X5.002 Y22.223 Z4.999 
G1 X5.002 Y22.220 Z4.999 
G1 X24.998 Y22.220 Z4.999 
G1 X24.998 Y22.218 Z4.999 
G1 X5.002 Y22.218 Z4.999 
G1 X5.002 Y22.215 Z4.999 
G1 X24.998 Y22.215 Z4.999 
G1 X24.998 Y22.212 Z4.999 
G1 X5.002 Y22.212 Z4.999 
G1 X5.002 Y22.210 Z4.999 
G1 X24.998 Y22.210 Z4.999 
G1 X24.998 Y22.207 Z4.999 
G1 X5.002 Y22.207 Z4.999 
G1 X5.002 Y22.205 Z4.999 
G1 X24.998 Y22.205 Z4.999 
G1 X24.998 Y22.203 Z4.999 
G1 X5.002 Y22.203 Z4.999 
G1 X5.002 Y22.200 Z4.999 
G1 X24.998 Y22.200 Z4.999 
G1 X24.998 Y22.197 Z4.999 
G1 X5.002 Y22.197 Z4.999 
G1 X5.002 Y22.195 Z4.999 
G1 X24.998 Y22.195 Z4.999 
G1 X24.998 Y22.192 Z4.999 
G1 X5.002 Y22.192 Z4.999 
G1 X5.002 Y22.190 Z4.999 
G1 X24.998 Y22.190 Z4.999 
G1 X24.998 Y22.188 Z4.999 
G1 X5.002 Y22.188 Z4.999 
G1 X5.002 Y22.185 Z4.999 
G1 X24.998 Y22.185 Z4.999 
G1 X24.998 Y22.183 Z4.999 
G1 X5.002 Y22.183 Z4.999 
G1 X5.002 Y22.180 Z4.999 
G1 X24.998 Y22.180 Z4.999 
G1 X24.998 Y22.178 Z4.999 
G1 X5.002 Y22.178 Z4.999 
G1 X5.002 Y22.175 Z4.999 
G1 X24.998 Y22.175 Z4.999 
G1 X24.998 Y22.172 Z4.999 
G1 X5.002 Y22.172 Z4.999 
G1 X5.002 Y22.170 Z4.999 
G1 X24.998 Y22.170 Z4.999 
G1 X24.998 Y22.168 Z4.999 
G1 X5.002 Y22.168 Z4.999 
G1 X5.002 Y22.165 Z4.999 
G1 X24.998 Y22.165 Z4.999 
G1 X24.998 Y22.163 Z4.999 
G1 X5.002 Y22.163 Z4.999 
G1 X5.002 Y22.160 Z4.999 
G1 X24.998 Y22.160 Z4.999 
G1 X24.998 Y22.157 Z4.999 
G1 X5.002 Y22.157 Z4.999 
G1 X5.002 Y22.155 Z4.999 
G1 X24.998 Y22.155 Z4.999 
G1 X24.998 Y22.152 Z4.999 
G1 X5.002 Y22.152 Z4.999 
G1 X5.002 Y22.150 Z4.999 
G1 X24.998 Y22.150 Z4.999 
G1 X24.998 Y22.148 Z4.999 
G1 X5.002 Y22.148 Z4.999 
G1 X5.002 Y22.145 Z4.999 
G1 X24.998 Y22.145 Z4.999 
G1 X24.998 Y22.142 Z4.999 
G1 X5.002 Y22.142 Z4.999 
G1 X5.002 Y22.140 Z4.999 
G1 X24.998 Y22.140 Z4.999 
G1 X24.998 Y22.137 Z4.999 
G1 X5.002 Y22.137 Z4.999 
G1 X5.002 Y22.135 Z4.999 
G1 X24.998 Y22.135 Z4.999 
G1 X24.998 Y22.133 Z4.999 
G1 X5.002 Y22.133 Z4.999 
G1 X5.002 Y22.130 Z4.999 
G1 X24.998 Y22.130 Z4.999 
G1 X24.998 Y22.128 Z4.999 
G1 X5.002 Y22.128 Z4.999 
G1 X5.002 Y22.125 Z4.999 
G1 X24.998 Y22.125 Z4.999 
G1 X24.998 Y22.122 Z4.999 
G1 X5.002 Y22.122 Z4.999 
G1 X5.002 Y22.120 Z4.999 
G1 X24.998 Y22.120 Z4.999 
G1 X24.998 Y22.117 Z4.999 
G1 X5.002 Y22.117 Z4.999 
G1 X5.002 Y22.115 Z4.999 
G1 X24.998 Y22.115 Z4.999 
G1 X24.998 Y22.113 Z4.999 
G1 X5.002 Y22.113 Z4.999 
G1 X5.002 Y22.110 Z4.999 
G1 X24.998 Y22.110 Z4.999 
G1 X24.998 Y22.108 Z4.999 
G1 X5.002 Y22.108 Z4.999 
G1 X5.002 Y22.105 Z4.999 
G1 X24.998 Y22.105 Z4.999 
G1 X24.998 Y22.102 Z4.999 
G1 X5.002 Y22.102 Z4.999 
G1 X5.002 Y22.100 Z4.999 
G1 X24.998 Y22.100 Z4.999 
G1 X24.998 Y22.098 Z4.999 
G1 X5.002 Y22.098 Z4.999 
G1 X5.002 Y22.095 Z4.999 
G1 X24.998 Y22.095 Z4.999 
G1 X24.998 Y22.093 Z4.999 
G1 X5.002 Y22.093 Z4.999 
G1 X5.002 Y22.090 Z4.999 
G1 X24.998 Y22.090 Z4.999 
G1 X24.998 Y22.087 Z4.999 
G1 X5.002 Y22.087 Z4.999 
G1 X5.002 Y22.085 Z4.999 
G1 X24.998 Y22.085 Z4.999 
G1 X24.998 Y22.082 Z4.999 
G1 X5.002 Y22.082 Z4.999 
G1 X5.002 Y22.080 Z4.999 
G1 X24.998 Y22.080 Z4.999 
G1 X24.998 Y22.078 Z4.999 
G1 X5.002 Y22.078 Z4.999 
G1 X5.002 Y22.075 Z4.999 
G1 X24.998 Y22.075 Z4.999 
G1 X24.998 Y22.072 Z4.999 
G1 X5.002 Y22.072 Z4.999 
G1 X5.002 Y22.070 Z4.999 
G1 X24.998 Y22.070 Z4.999 
G1 X24.998 Y22.067 Z4.999 
G1 X5.002 Y22.067 Z4.999 
G1 X5.002 Y22.065 Z4.999 
G1 X24.998 Y22.065 Z4.999 
G1 X24.998 Y22.062 Z4.999 
G1 X5.002 Y22.062 Z4.999 
G1 X5.002 Y22.060 Z4.999 
G1 X24.998 Y22.060 Z4.999 
G1 X24.998 Y22.058 Z4.999 
G1 X5.002 Y22.058 Z4.999 
G1 X5.002 Y22.055 Z4.999 
G1 X24.998 Y22.055 Z4.999 
G1 X24.998 Y22.053 Z4.999 
G1 X5.002 Y22.053 Z4.999 
G1 X5.002 Y22.050 Z4.999 
G1 X24.998 Y22.050 Z4.999 
G1 X24.998 Y22.047 Z4.999 
G1 X5.002 Y22.047 Z4.999 
G1 X5.002 Y22.045 Z4.999 
G1 X24.998 Y22.045 Z4.999 
G1 X24.998 Y22.043 Z4.999 
G1 X5.002 Y22.043 Z4.999 
G1 X5.002 Y22.040 Z4.999 
G1 X24.998 Y22.040 Z4.999 
G1 X24.998 Y22.038 Z4.999 
G1 X5.002 Y22.038 Z4.999 
G1 X5.002 Y22.035 Z4.999 
G1 X24.998 Y22.035 Z4.999 
G1 X24.998 Y22.032 Z4.999 
G1 X5.002 Y22.032 Z4.999 
G1 X5.002 Y22.030 Z4.999 
G1 X24.998 Y22.030 Z4.999 
G1 X24.998 Y22.027 Z4.999 
G1 X5.002 Y22.027 Z4.999 
G1 X5.002 Y22.025 Z4.999 
G1 X24.998 Y22.025 Z4.999 
G1 X24.998 Y22.023 Z4.999 
G1 X5.002 Y22.023 Z4.999 
G1 X5.002 Y22.020 Z4.999 
G1 X24.998 Y22.020 Z4.999 
G1 X24.998 Y22.017 Z4.999 
G1 X5.002 Y22.017 Z4.999 
G1 X5.002 Y22.015 Z4.999 
G1 X24.998 Y22.015 Z4.999 
G1 X24.998 Y22.012 Z4.999 
G1 X5.002 Y22.012 Z4.999 
G1 X5.002 Y22.010 Z4.999 
G1 X24.998 Y22.010 Z4.999 
G1 X24.998 Y22.008 Z4.999 
G1 X5.002 Y22.008 Z4.999 
G1 X5.002 Y22.005 Z4.999 
G1 X24.998 Y22.005 Z4.999 
G1 X24.998 Y22.003 Z4.999 
G1 X5.002 Y22.003 Z4.999 
G1 X5.002 Y22.000 Z4.999 
G1 X24.998 Y22.000 Z4.999 
G1 X24.998 Y21.997 Z4.999 
G1 X5.002 Y21.997 Z4.999 
G1 X5.002 Y21.995 Z4.999 
G1 X24.998 Y21.995 Z4.999 
G1 X24.998 Y21.992 Z4.999 
G1 X5.002 Y21.992 Z4.999 
G1 X5.002 Y21.990 Z4.999 
G1 X24.998 Y21.990 Z4.999 
G1 X24.998 Y21.988 Z4.999 
G1 X5.002 Y21.988 Z4.999 
G1 X5.002 Y21.985 Z4.999 
G1 X24.998 Y21.985 Z4.999 
G1 X24.998 Y21.983 Z4.999 
G1 X5.002 Y21.983 Z4.999 
G1 X5.002 Y21.980 Z4.999 
G1 X24.998 Y21.980 Z4.999 
G1 X24.998 Y21.977 Z4.999 
G1 X5.002 Y21.977 Z4.999 
G1 X5.002 Y21.975 Z4.999 
G1 X24.998 Y21.975 Z4.999 
G1 X24.998 Y21.973 Z4.999 
G1 X5.002 Y21.973 Z4.999 
G1 X5.002 Y21.970 Z4.999 
G1 X24.998 Y21.970 Z4.999 
G1 X24.998 Y21.968 Z4.999 
G1 X5.002 Y21.968 Z4.999 
G1 X5.002 Y21.965 Z4.999 
G1 X24.998 Y21.965 Z4.999 
G1 X24.998 Y21.962 Z4.999 
G1 X5.002 Y21.962 Z4.999 
G1 X5.002 Y21.960 Z4.999 
G1 X24.998 Y21.960 Z4.999 
G1 X24.998 Y21.957 Z4.999 
G1 X5.002 Y21.957 Z4.999 
G1 X5.002 Y21.955 Z4.999 
G1 X24.998 Y21.955 Z4.999 
G1 X24.998 Y21.953 Z4.999 
G1 X5.002 Y21.953 Z4.999 
G1 X5.002 Y21.950 Z4.999 
G1 X24.998 Y21.950 Z4.999 
G1 X24.998 Y21.947 Z4.999 
G1 X5.002 Y21.947 Z4.999 
G1 X5.002 Y21.945 Z4.999 
G1 X24.998 Y21.945 Z4.999 
G1 X24.998 Y21.942 Z4.999 
G1 X5.002 Y21.942 Z4.999 
G1 X5.002 Y21.940 Z4.999 
G1 X24.998 Y21.940 Z4.999 
G1 X24.998 Y21.938 Z4.999 
G1 X5.002 Y21.938 Z4.999 
G1 X5.002 Y21.935 Z4.999 
G1 X24.998 Y21.935 Z4.999 
G1 X24.998 Y21.933 Z4.999 
G1 X5.002 Y21.933 Z4.999 
G1 X5.002 Y21.930 Z4.999 
G1 X24.998 Y21.930 Z4.999 
G1 X24.998 Y21.928 Z4.999 
G1 X5.002 Y21.928 Z4.999 
G1 X5.002 Y21.925 Z4.999 
G1 X24.998 Y21.925 Z4.999 
G1 X24.998 Y21.922 Z4.999 
G1 X5.002 Y21.922 Z4.999 
G1 X5.002 Y21.920 Z4.999 
G1 X24.998 Y21.920 Z4.999 
G1 X24.998 Y21.918 Z4.999 
G1 X5.002 Y21.918 Z4.999 
G1 X5.002 Y21.915 Z4.999 
G1 X24.998 Y21.915 Z4.999 
G1 X24.998 Y21.913 Z4.999 
G1 X5.002 Y21.913 Z4.999 
G1 X5.002 Y21.910 Z4.999 
G1 X24.998 Y21.910 Z4.999 
G1 X24.998 Y21.907 Z4.999 
G1 X5.002 Y21.907 Z4.999 
G1 X5.002 Y21.905 Z4.999 
G1 X24.998 Y21.905 Z4.999 
G1 X24.998 Y21.902 Z4.999 
G1 X5.002 Y21.902 Z4.999 
G1 X5.002 Y21.900 Z4.999 
G1 X24.998 Y21.900 Z4.999 
G1 X24.998 Y21.898 Z4.999 
G1 X5.002 Y21.898 Z4.999 
G1 X5.002 Y21.895 Z4.999 
G1 X24.998 Y21.895 Z4.999 
G1 X24.998 Y21.892 Z4.999 
G1 X5.002 Y21.892 Z4.999 
G1 X5.002 Y21.890 Z4.999 
G1 X24.998 Y21.890 Z4.999 
G1 X24.998 Y21.887 Z4.999 
G1 X5.002 Y21.887 Z4.999 
G1 X5.002 Y21.885 Z4.999 
G1 X24.998 Y21.885 Z4.999 
G1 X24.998 Y21.883 Z4.999 
G1 X5.002 Y21.883 Z4.999 
G1 X5.002 Y21.880 Z4.999 
G1 X24.998 Y21.880 Z4.999 
G1 X24.998 Y21.878 Z4.999 
G1 X5.002 Y21.878 Z4.999 
G1 X5.002 Y21.875 Z4.999 
G1 X24.998 Y21.875 Z4.999 
G1 X24.998 Y21.872 Z4.999 
G1 X5.002 Y21.872 Z4.999 
G1 X5.002 Y21.870 Z4.999 
G1 X24.998 Y21.870 Z4.999 
G1 X24.998 Y21.867 Z4.999 
G1 X5.002 Y21.867 Z4.999 
G1 X5.002 Y21.865 Z4.999 
G1 X24.998 Y21.865 Z4.999 
G1 X24.998 Y21.863 Z4.999 
G1 X5.002 Y21.863 Z4.999 
G1 X5.002 Y21.860 Z4.999 
G1 X24.998 Y21.860 Z4.999 
G1 X24.998 Y21.858 Z4.999 
G1 X5.002 Y21.858 Z4.999 
G1 X5.002 Y21.855 Z4.999 
G1 X24.998 Y21.855 Z4.999 
G1 X24.998 Y21.852 Z4.999 
G1 X5.002 Y21.852 Z4.999 
G1 X5.002 Y21.850 Z4.999 
G1 X24.998 Y21.850 Z4.999 
G1 X24.998 Y21.848 Z4.999 
G1 X5.002 Y21.848 Z4.999 
G1 X5.002 Y21.845 Z4.999 
G1 X24.998 Y21.845 Z4.999 
G1 X24.998 Y21.843 Z4.999 
G1 X5.002 Y21.843 Z4.999 
G1 X5.002 Y21.840 Z4.999 
G1 X24.998 Y21.840 Z4.999 
G1 X24.998 Y21.837 Z4.999 
G1 X5.002 Y21.837 Z4.999 
G1 X5.002 Y21.835 Z4.999 
G1 X24.998 Y21.835 Z4.999 
G1 X24.998 Y21.832 Z4.999 
G1 X5.002 Y21.832 Z4.999 
G1 X5.002 Y21.830 Z4.999 
G1 X24.998 Y21.830 Z4.999 
G1 X24.998 Y21.828 Z4.999 
G1 X5.002 Y21.828 Z4.999 
G1 X5.002 Y21.825 Z4.999 
G1 X24.998 Y21.825 Z4.999 
G1 X24.998 Y21.822 Z4.999 
G1 X5.002 Y21.822 Z4.999 
G1 X5.002 Y21.820 Z4.999 
G1 X24.998 Y21.820 Z4.999 
G1 X24.998 Y21.817 Z4.999 
G1 X5.002 Y21.817 Z4.999 
G1 X5.002 Y21.815 Z4.999 
G1 X24.998 Y21.815 Z4.999 
G1 X24.998 Y21.812 Z4.999 
G1 X5.002 Y21.812 Z4.999 
G1 X5.002 Y21.810 Z4.999 
G1 X24.998 Y21.810 Z4.999 
G1 X24.998 Y21.808 Z4.999 
G1 X5.002 Y21.808 Z4.999 
G1 X5.002 Y21.805 Z4.999 
G1 X24.998 Y21.805 Z4.999 
G1 X24.998 Y21.803 Z4.999 
G1 X5.002 Y21.803 Z4.999 
G1 X5.002 Y21.800 Z4.999 
G1 X24.998 Y21.800 Z4.999 
G1 X24.998 Y21.797 Z4.999 
G1 X5.002 Y21.797 Z4.999 
G1 X5.002 Y21.795 Z4.999 
G1 X24.998 Y21.795 Z4.999 
G1 X24.998 Y21.793 Z4.999 
G1 X5.002 Y21.793 Z4.999 
G1 X5.002 Y21.790 Z4.999 
G1 X24.998 Y21.790 Z4.999 
G1 X24.998 Y21.788 Z4.999 
G1 X5.002 Y21.788 Z4.999 
G1 X5.002 Y21.785 Z4.999 
G1 X24.998 Y21.785 Z4.999 
G1 X24.998 Y21.782 Z4.999 
G1 X5.002 Y21.782 Z4.999 
G1 X5.002 Y21.780 Z4.999 
G1 X24.998 Y21.780 Z4.999 
G1 X24.998 Y21.777 Z4.999 
G1 X5.002 Y21.777 Z4.999 
G1 X5.002 Y21.775 Z4.999 
G1 X24.998 Y21.775 Z4.999 
G1 X24.998 Y21.773 Z4.999 
G1 X5.002 Y21.773 Z4.999 
G1 X5.002 Y21.770 Z4.999 
G1 X24.998 Y21.770 Z4.999 
G1 X24.998 Y21.767 Z4.999 
G1 X5.002 Y21.767 Z4.999 
G1 X5.002 Y21.765 Z4.999 
G1 X24.998 Y21.765 Z4.999 
G1 X24.998 Y21.762 Z4.999 
G1 X5.002 Y21.762 Z4.999 
G1 X5.002 Y21.760 Z4.999 
G1 X24.998 Y21.760 Z4.999 
G1 X24.998 Y21.758 Z4.999 
G1 X5.002 Y21.758 Z4.999 
G1 X5.002 Y21.755 Z4.999 
G1 X24.998 Y21.755 Z4.999 
G1 X24.998 Y21.753 Z4.999 
G1 X5.002 Y21.753 Z4.999 
G1 X5.002 Y21.750 Z4.999 
G1 X24.998 Y21.750 Z4.999 
G1 X24.998 Y21.747 Z4.999 
G1 X5.002 Y21.747 Z4.999 
G1 X5.002 Y21.745 Z4.999 
G1 X24.998 Y21.745 Z4.999 
G1 X24.998 Y21.742 Z4.999 
G1 X5.002 Y21.742 Z4.999 
G1 X5.002 Y21.740 Z4.999 
G1 X24.998 Y21.740 Z4.999 
G1 X24.998 Y21.738 Z4.999 
G1 X5.002 Y21.738 Z4.999 
G1 X5.002 Y21.735 Z4.999 
G1 X24.998 Y21.735 Z4.999 
G1 X24.998 Y21.733 Z4.999 
G1 X5.002 Y21.733 Z4.999 
G1 X5.002 Y21.730 Z4.999 
G1 X24.998 Y21.730 Z4.999 
G1 X24.998 Y21.727 Z4.999 
G1 X5.002 Y21.727 Z4.999 
G1 X5.002 Y21.725 Z4.999 
G1 X24.998 Y21.725 Z4.999 
G1 X24.998 Y21.723 Z4.999 
G1 X5.002 Y21.723 Z4.999 
G1 X5.002 Y21.720 Z4.999 
G1 X24.998 Y21.720 Z4.999 
G1 X24.998 Y21.718 Z4.999 
G1 X5.002 Y21.718 Z4.999 
G1 X5.002 Y21.715 Z4.999 
G1 X24.998 Y21.715 Z4.999 
G1 X24.998 Y21.712 Z4.999 
G1 X5.002 Y21.712 Z4.999 
G1 X5.002 Y21.710 Z4.999 
G1 X24.998 Y21.710 Z4.999 
G1 X24.998 Y21.707 Z4.999 
G1 X5.002 Y21.707 Z4.999 
G1 X5.002 Y21.705 Z4.999 
G1 X24.998 Y21.705 Z4.999 
G1 X24.998 Y21.703 Z4.999 
G1 X5.002 Y21.703 Z4.999 
G1 X5.002 Y21.700 Z4.999 
G1 X24.998 Y21.700 Z4.999 
G1 X24.998 Y21.697 Z4.999 
G1 X5.002 Y21.697 Z4.999 
G1 X5.002 Y21.695 Z4.999 
G1 X24.998 Y21.695 Z4.999 
G1 X24.998 Y21.692 Z4.999 
G1 X5.002 Y21.692 Z4.999 
G1 X5.002 Y21.690 Z4.999 
G1 X24.998 Y21.690 Z4.999 
G1 X24.998 Y21.688 Z4.999 
G1 X5.002 Y21.688 Z4.999 
G1 X5.002 Y21.685 Z4.999 
G1 X24.998 Y21.685 Z4.999 
G1 X24.998 Y21.683 Z4.999 
G1 X5.002 Y21.683 Z4.999 
G1 X5.002 Y21.680 Z4.999 
G1 X24.998 Y21.680 Z4.999 
G1 X24.998 Y21.678 Z4.999 
G1 X5.002 Y21.678 Z4.999 
G1 X5.002 Y21.675 Z4.999 
G1 X24.998 Y21.675 Z4.999 
G1 X24.998 Y21.672 Z4.999 
G1 X5.002 Y21.672 Z4.999 
G1 X5.002 Y21.670 Z4.999 
G1 X24.998 Y21.670 Z4.999 
G1 X24.998 Y21.668 Z4.999 
G1 X5.002 Y21.668 Z4.999 
G1 X5.002 Y21.665 Z4.999 
G1 X24.998 Y21.665 Z4.999 
G1 X24.998 Y21.663 Z4.999 
G1 X5.002 Y21.663 Z4.999 
G1 X5.002 Y21.660 Z4.999 
G1 X24.998 Y21.660 Z4.999 
G1 X24.998 Y21.657 Z4.999 
G1 X5.002 Y21.657 Z4.999 
G1 X5.002 Y21.655 Z4.999 
G1 X24.998 Y21.655 Z4.999 
G1 X24.998 Y21.652 Z4.999 
G1 X5.002 Y21.652 Z4.999 
G1 X5.002 Y21.650 Z4.999 
G1 X24.998 Y21.650 Z4.999 
G1 X24.998 Y21.648 Z4.999 
G1 X5.002 Y21.648 Z4.999 
G1 X5.002 Y21.645 Z4.999 
G1 X24.998 Y21.645 Z4.999 
G1 X24.998 Y21.642 Z4.999 
G1 X5.002 Y21.642 Z4.999 
G1 X5.002 Y21.640 Z4.999 
G1 X24.998 Y21.640 Z4.999 
G1 X24.998 Y21.637 Z4.999 
G1 X5.002 Y21.637 Z4.999 
G1 X5.002 Y21.635 Z4.999 
G1 X24.998 Y21.635 Z4.999 
G1 X24.998 Y21.633 Z4.999 
G1 X5.002 Y21.633 Z4.999 
G1 X5.002 Y21.630 Z4.999 
G1 X24.998 Y21.630 Z4.999 
G1 X24.998 Y21.628 Z4.999 
G1 X5.002 Y21.628 Z4.999 
G1 X5.002 Y21.625 Z4.999 
G1 X24.998 Y21.625 Z4.999 
G1 X24.998 Y21.622 Z4.999 
G1 X5.002 Y21.622 Z4.999 
G1 X5.002 Y21.620 Z4.999 
G1 X24.998 Y21.620 Z4.999 
G1 X24.998 Y21.617 Z4.999 
G1 X5.002 Y21.617 Z4.999 
G1 X5.002 Y21.615 Z4.999 
G1 X24.998 Y21.615 Z4.999 
G1 X24.998 Y21.613 Z4.999 
G1 X5.002 Y21.613 Z4.999 
G1 X5.002 Y21.610 Z4.999 
G1 X24.998 Y21.610 Z4.999 
G1 X24.998 Y21.608 Z4.999 
G1 X5.002 Y21.608 Z4.999 
G1 X5.002 Y21.605 Z4.999 
G1 X24.998 Y21.605 Z4.999 
G1 X24.998 Y21.602 Z4.999 
G1 X5.002 Y21.602 Z4.999 
G1 X5.002 Y21.600 Z4.999 
G1 X24.998 Y21.600 Z4.999 
G1 X24.998 Y21.598 Z4.999 
G1 X5.002 Y21.598 Z4.999 
G1 X5.002 Y21.595 Z4.999 
G1 X24.998 Y21.595 Z4.999 
G1 X24.998 Y21.593 Z4.999 
G1 X5.002 Y21.593 Z4.999 
G1 X5.002 Y21.590 Z4.999 
G1 X24.998 Y21.590 Z4.999 
G1 X24.998 Y21.587 Z4.999 
G1 X5.002 Y21.587 Z4.999 
G1 X5.002 Y21.585 Z4.999 
G1 X24.998 Y21.585 Z4.999 
G1 X24.998 Y21.582 Z4.999 
G1 X5.002 Y21.582 Z4.999 
G1 X5.002 Y21.580 Z4.999 
G1 X24.998 Y21.580 Z4.999 
G1 X24.998 Y21.578 Z4.999 
G1 X5.002 Y21.578 Z4.999 
G1 X5.002 Y21.575 Z4.999 
G1 X24.998 Y21.575 Z4.999 
G1 X24.998 Y21.572 Z4.999 
G1 X5.002 Y21.572 Z4.999 
G1 X5.002 Y21.570 Z4.999 
G1 X24.998 Y21.570 Z4.999 
G1 X24.998 Y21.567 Z4.999 
G1 X5.002 Y21.567 Z4.999 
G1 X5.002 Y21.565 Z4.999 
G1 X24.998 Y21.565 Z4.999 
G1 X24.998 Y21.562 Z4.999 
G1 X5.002 Y21.562 Z4.999 
G1 X5.002 Y21.560 Z4.999 
G1 X24.998 Y21.560 Z4.999 
G1 X24.998 Y21.558 Z4.999 
G1 X5.002 Y21.558 Z4.999 
G1 X5.002 Y21.555 Z4.999 
G1 X24.998 Y21.555 Z4.999 
G1 X24.998 Y21.553 Z4.999 
G1 X5.002 Y21.553 Z4.999 
G1 X5.002 Y21.550 Z4.999 
G1 X24.998 Y21.550 Z4.999 
G1 X24.998 Y21.547 Z4.999 
G1 X5.002 Y21.547 Z4.999 
G1 X5.002 Y21.545 Z4.999 
G1 X24.998 Y21.545 Z4.999 
G1 X24.998 Y21.543 Z4.999 
G1 X5.002 Y21.543 Z4.999 
G1 X5.002 Y21.540 Z4.999 
G1 X24.998 Y21.540 Z4.999 
G1 X24.998 Y21.538 Z4.999 
G1 X5.002 Y21.538 Z4.999 
G1 X5.002 Y21.535 Z4.999 
G1 X24.998 Y21.535 Z4.999 
G1 X24.998 Y21.532 Z4.999 
G1 X5.002 Y21.532 Z4.999 
G1 X5.002 Y21.530 Z4.999 
G1 X24.998 Y21.530 Z4.999 
G1 X24.998 Y21.527 Z4.999 
G1 X5.002 Y21.527 Z4.999 
G1 X5.002 Y21.525 Z4.999 
G1 X24.998 Y21.525 Z4.999 
G1 X24.998 Y21.523 Z4.999 
G1 X5.002 Y21.523 Z4.999 
G1 X5.002 Y21.520 Z4.999 
G1 X24.998 Y21.520 Z4.999 
G1 X24.998 Y21.517 Z4.999 
G1 X5.002 Y21.517 Z4.999 
G1 X5.002 Y21.515 Z4.999 
G1 X24.998 Y21.515 Z4.999 
G1 X24.998 Y21.512 Z4.999 
G1 X5.002 Y21.512 Z4.999 
G1 X5.002 Y21.510 Z4.999 
G1 X24.998 Y21.510 Z4.999 
G1 X24.998 Y21.508 Z4.999 
G1 X5.002 Y21.508 Z4.999 
G1 X5.002 Y21.505 Z4.999 
G1 X24.998 Y21.505 Z4.999 
G1 X24.998 Y21.503 Z4.999 
G1 X5.002 Y21.503 Z4.999 
G1 X5.002 Y21.500 Z4.999 
G1 X24.998 Y21.500 Z4.999 
G1 X24.998 Y21.497 Z4.999 
G1 X5.002 Y21.497 Z4.999 
G1 X5.002 Y21.495 Z4.999 
G1 X24.998 Y21.495 Z4.999 
G1 X24.998 Y21.492 Z4.999 
G1 X5.002 Y21.492 Z4.999 
G1 X5.002 Y21.490 Z4.999 
G1 X24.998 Y21.490 Z4.999 
G1 X24.998 Y21.488 Z4.999 
G1 X5.002 Y21.488 Z4.999 
G1 X5.002 Y21.485 Z4.999 
G1 X24.998 Y21.485 Z4.999 
G1 X24.998 Y21.483 Z4.999 
G1 X5.002 Y21.483 Z4.999 
G1 X5.002 Y21.480 Z4.999 
G1 X24.998 Y21.480 Z4.999 
G1 X24.998 Y21.477 Z4.999 
G1 X5.002 Y21.477 Z4.999 
G1 X5.002 Y21.475 Z4.999 
G1 X24.998 Y21.475 Z4.999 
G1 X24.998 Y21.473 Z4.999 
G1 X5.002 Y21.473 Z4.999 
G1 X5.002 Y21.470 Z4.999 
G1 X24.998 Y21.470 Z4.999 
G1 X24.998 Y21.468 Z4.999 
G1 X5.002 Y21.468 Z4.999 
G1 X5.002 Y21.465 Z4.999 
G1 X24.998 Y21.465 Z4.999 
G1 X24.998 Y21.462 Z4.999 
G1 X5.002 Y21.462 Z4.999 
G1 X5.002 Y21.460 Z4.999 
G1 X24.998 Y21.460 Z4.999 
G1 X24.998 Y21.457 Z4.999 
G1 X5.002 Y21.457 Z4.999 
G1 X5.002 Y21.455 Z4.999 
G1 X24.998 Y21.455 Z4.999 
G1 X24.998 Y21.453 Z4.999 
G1 X5.002 Y21.453 Z4.999 
G1 X5.002 Y21.450 Z4.999 
G1 X24.998 Y21.450 Z4.999 
G1 X24.998 Y21.447 Z4.999 
G1 X5.002 Y21.447 Z4.999 
G1 X5.002 Y21.445 Z4.999 
G1 X24.998 Y21.445 Z4.999 
G1 X24.998 Y21.442 Z4.999 
G1 X5.002 Y21.442 Z4.999 
G1 X5.002 Y21.440 Z4.999 
G1 X24.998 Y21.440 Z4.999 
G1 X24.998 Y21.438 Z4.999 
G1 X5.002 Y21.438 Z4.999 
G1 X5.002 Y21.435 Z4.999 
G1 X24.998 Y21.435 Z4.999 
G1 X24.998 Y21.433 Z4.999 
G1 X5.002 Y21.433 Z4.999 
G1 X5.002 Y21.430 Z4.999 
G1 X24.998 Y21.430 Z4.999 
G1 X24.998 Y21.428 Z4.999 
G1 X5.002 Y21.428 Z4.999 
G1 X5.002 Y21.425 Z4.999 
G1 X24.998 Y21.425 Z4.999 
G1 X24.998 Y21.422 Z4.999 
G1 X5.002 Y21.422 Z4.999 
G1 X5.002 Y21.420 Z4.999 
G1 X24.998 Y21.420 Z4.999 
G1 X24.998 Y21.418 Z4.999 
G1 X5.002 Y21.418 Z4.999 
G1 X5.002 Y21.415 Z4.999 
G1 X24.998 Y21.415 Z4.999 
G1 X24.998 Y21.413 Z4.999 
G1 X5.002 Y21.413 Z4.999 
G1 X5.002 Y21.410 Z4.999 
G1 X24.998 Y21.410 Z4.999 
G1 X24.998 Y21.407 Z4.999 
G1 X5.002 Y21.407 Z4.999 
G1 X5.002 Y21.405 Z4.999 
G1 X24.998 Y21.405 Z4.999 
G1 X24.998 Y21.402 Z4.999 
G1 X5.002 Y21.402 Z4.999 
G1 X5.002 Y21.400 Z4.999 
G1 X24.998 Y21.400 Z4.999 
G1 X24.998 Y21.398 Z4.999 
G1 X5.002 Y21.398 Z4.999 
G1 X5.002 Y21.395 Z4.999 
G1 X24.998 Y21.395 Z4.999 
G1 X24.998 Y21.392 Z4.999 
G1 X5.002 Y21.392 Z4.999 
G1 X5.002 Y21.390 Z4.999 
G1 X24.998 Y21.390 Z4.999 
G1 X24.998 Y21.387 Z4.999 
G1 X5.002 Y21.387 Z4.999 
G1 X5.002 Y21.385 Z4.999 
G1 X24.998 Y21.385 Z4.999 
G1 X24.998 Y21.383 Z4.999 
G1 X5.002 Y21.383 Z4.999 
G1 X5.002 Y21.380 Z4.999 
G1 X24.998 Y21.380 Z4.999 
G1 X24.998 Y21.378 Z4.999 
G1 X5.002 Y21.378 Z4.999 
G1 X5.002 Y21.375 Z4.999 
G1 X24.998 Y21.375 Z4.999 
G1 X24.998 Y21.372 Z4.999 
G1 X5.002 Y21.372 Z4.999 
G1 X5.002 Y21.370 Z4.999 
G1 X24.998 Y21.370 Z4.999 
G1 X24.998 Y21.367 Z4.999 
G1 X5.002 Y21.367 Z4.999 
G1 X5.002 Y21.365 Z4.999 
G1 X24.998 Y21.365 Z4.999 
G1 X24.998 Y21.363 Z4.999 
G1 X5.002 Y21.363 Z4.999 
G1 X5.002 Y21.360 Z4.999 
G1 X24.998 Y21.360 Z4.999 
G1 X24.998 Y21.358 Z4.999 
G1 X5.002 Y21.358 Z4.999 
G1 X5.002 Y21.355 Z4.999 
G1 X24.998 Y21.355 Z4.999 
G1 X24.998 Y21.352 Z4.999 
G1 X5.002 Y21.352 Z4.999 
G1 X5.002 Y21.350 Z4.999 
G1 X24.998 Y21.350 Z4.999 
G1 X24.998 Y21.348 Z4.999 
G1 X5.002 Y21.348 Z4.999 
G1 X5.002 Y21.345 Z4.999 
G1 X24.998 Y21.345 Z4.999 
G1 X24.998 Y21.343 Z4.999 
G1 X5.002 Y21.343 Z4.999 
G1 X5.002 Y21.340 Z4.999 
G1 X24.998 Y21.340 Z4.999 
G1 X24.998 Y21.337 Z4.999 
G1 X5.002 Y21.337 Z4.999 
G1 X5.002 Y21.335 Z4.999 
G1 X24.998 Y21.335 Z4.999 
G1 X24.998 Y21.332 Z4.999 
G1 X5.002 Y21.332 Z4.999 
G1 X5.002 Y21.330 Z4.999 
G1 X24.998 Y21.330 Z4.999 
G1 X24.998 Y21.328 Z4.999 
G1 X5.002 Y21.328 Z4.999 
G1 X5.002 Y21.325 Z4.999 
G1 X24.998 Y21.325 Z4.999 
G1 X24.998 Y21.322 Z4.999 
G1 X5.002 Y21.322 Z4.999 
G1 X5.002 Y21.320 Z4.999 
G1 X24.998 Y21.320 Z4.999 
G1 X24.998 Y21.317 Z4.999 
G1 X5.002 Y21.317 Z4.999 
G1 X5.002 Y21.315 Z4.999 
G1 X24.998 Y21.315 Z4.999 
G1 X24.998 Y21.312 Z4.999 
G1 X5.002 Y21.312 Z4.999 
G1 X5.002 Y21.310 Z4.999 
G1 X24.998 Y21.310 Z4.999 
G1 X24.998 Y21.308 Z4.999 
G1 X5.002 Y21.308 Z4.999 
G1 X5.002 Y21.305 Z4.999 
G1 X24.998 Y21.305 Z4.999 
G1 X24.998 Y21.303 Z4.999 
G1 X5.002 Y21.303 Z4.999 
G1 X5.002 Y21.300 Z4.999 
G1 X24.998 Y21.300 Z4.999 
G1 X24.998 Y21.297 Z4.999 
G1 X5.002 Y21.297 Z4.999 
G1 X5.002 Y21.295 Z4.999 
G1 X24.998 Y21.295 Z4.999 
G1 X24.998 Y21.293 Z4.999 
G1 X5.002 Y21.293 Z4.999 
G1 X5.002 Y21.290 Z4.999 
G1 X24.998 Y21.290 Z4.999 
G1 X24.998 Y21.288 Z4.999 
G1 X5.002 Y21.288 Z4.999 
G1 X5.002 Y21.285 Z4.999 
G1 X24.998 Y21.285 Z4.999 
G1 X24.998 Y21.282 Z4.999 
G1 X5.002 Y21.282 Z4.999 
G1 X5.002 Y21.280 Z4.999 
G1 X24.998 Y21.280 Z4.999 
G1 X24.998 Y21.277 Z4.999 
G1 X5.002 Y21.277 Z4.999 
G1 X5.002 Y21.275 Z4.999 
G1 X24.998 Y21.275 Z4.999 
G1 X24.998 Y21.273 Z4.999 
G1 X5.002 Y21.273 Z4.999 
G1 X5.002 Y21.270 Z4.999 
G1 X24.998 Y21.270 Z4.999 
G1 X24.998 Y21.267 Z4.999 
G1 X5.002 Y21.267 Z4.999 
G1 X5.002 Y21.265 Z4.999 
G1 X24.998 Y21.265 Z4.999 
G1 X24.998 Y21.262 Z4.999 
G1 X5.002 Y21.262 Z4.999 
G1 X5.002 Y21.260 Z4.999 
G1 X24.998 Y21.260 Z4.999 
G1 X24.998 Y21.258 Z4.999 
G1 X5.002 Y21.258 Z4.999 
G1 X5.002 Y21.255 Z4.999 
G1 X24.998 Y21.255 Z4.999 
G1 X24.998 Y21.253 Z4.999 
G1 X5.002 Y21.253 Z4.999 
G1 X5.002 Y21.250 Z4.999 
G1 X24.998 Y21.250 Z4.999 
G1 X24.998 Y21.247 Z4.999 
G1 X5.002 Y21.247 Z4.999 
G1 X5.002 Y21.245 Z4.999 
G1 X24.998 Y21.245 Z4.999 
G1 X24.998 Y21.242 Z4.999 
G1 X5.002 Y21.242 Z4.999 
G1 X5.002 Y21.240 Z4.999 
G1 X24.998 Y21.240 Z4.999 
G1 X24.998 Y21.238 Z4.999 
G1 X5.002 Y21.238 Z4.999 
G1 X5.002 Y21.235 Z4.999 
G1 X24.998 Y21.235 Z4.999 
G1 X24.998 Y21.233 Z4.999 
G1 X5.002 Y21.233 Z4.999 
G1 X5.002 Y21.230 Z4.999 
G1 X24.998 Y21.230 Z4.999 
G1 X24.998 Y21.227 Z4.999 
G1 X5.002 Y21.227 Z4.999 
G1 X5.002 Y21.225 Z4.999 
G1 X24.998 Y21.225 Z4.999 
G1 X24.998 Y21.223 Z4.999 
G1 X5.002 Y21.223 Z4.999 
G1 X5.002 Y21.220 Z4.999 
G1 X24.998 Y21.220 Z4.999 
G1 X24.998 Y21.218 Z4.999 
G1 X5.002 Y21.218 Z4.999 
G1 X5.002 Y21.215 Z4.999 
G1 X24.998 Y21.215 Z4.999 
G1 X24.998 Y21.212 Z4.999 
G1 X5.002 Y21.212 Z4.999 
G1 X5.002 Y21.210 Z4.999 
G1 X24.998 Y21.210 Z4.999 
G1 X24.998 Y21.207 Z4.999 
G1 X5.002 Y21.207 Z4.999 
G1 X5.002 Y21.205 Z4.999 
G1 X24.998 Y21.205 Z4.999 
G1 X24.998 Y21.203 Z4.999 
G1 X5.002 Y21.203 Z4.999 
G1 X5.002 Y21.200 Z4.999 
G1 X24.998 Y21.200 Z4.999 
G1 X24.998 Y21.197 Z4.999 
G1 X5.002 Y21.197 Z4.999 
G1 X5.002 Y21.195 Z4.999 
G1 X24.998 Y21.195 Z4.999 
G1 X24.998 Y21.192 Z4.999 
G1 X5.002 Y21.192 Z4.999 
G1 X5.002 Y21.190 Z4.999 
G1 X24.998 Y21.190 Z4.999 
G1 X24.998 Y21.188 Z4.999 
G1 X5.002 Y21.188 Z4.999 
G1 X5.002 Y21.185 Z4.999 
G1 X24.998 Y21.185 Z4.999 
G1 X24.998 Y21.183 Z4.999 
G1 X5.002 Y21.183 Z4.999 
G1 X5.002 Y21.180 Z4.999 
G1 X24.998 Y21.180 Z4.999 
G1 X24.998 Y21.178 Z4.999 
G1 X5.002 Y21.178 Z4.999 
G1 X5.002 Y21.175 Z4.999 
G1 X24.998 Y21.175 Z4.999 
G1 X24.998 Y21.172 Z4.999 
G1 X5.002 Y21.172 Z4.999 
G1 X5.002 Y21.170 Z4.999 
G1 X24.998 Y21.170 Z4.999 
G1 X24.998 Y21.168 Z4.999 
G1 X5.002 Y21.168 Z4.999 
G1 X5.002 Y21.165 Z4.999 
G1 X24.998 Y21.165 Z4.999 
G1 X24.998 Y21.163 Z4.999 
G1 X5.002 Y21.163 Z4.999 
G1 X5.002 Y21.160 Z4.999 
G1 X24.998 Y21.160 Z4.999 
G1 X24.998 Y21.157 Z4.999 
G1 X5.002 Y21.157 Z4.999 
G1 X5.002 Y21.155 Z4.999 
G1 X24.998 Y21.155 Z4.999 
G1 X24.998 Y21.152 Z4.999 
G1 X5.002 Y21.152 Z4.999 
G1 X5.002 Y21.150 Z4.999 
G1 X24.998 Y21.150 Z4.999 
G1 X24.998 Y21.148 Z4.999 
G1 X5.002 Y21.148 Z4.999 
G1 X5.002 Y21.145 Z4.999 
G1 X24.998 Y21.145 Z4.999 
G1 X24.998 Y21.142 Z4.999 
G1 X5.002 Y21.142 Z4.999 
G1 X5.002 Y21.140 Z4.999 
G1 X24.998 Y21.140 Z4.999 
G1 X24.998 Y21.137 Z4.999 
G1 X5.002 Y21.137 Z4.999 
G1 X5.002 Y21.135 Z4.999 
G1 X24.998 Y21.135 Z4.999 
G1 X24.998 Y21.133 Z4.999 
G1 X5.002 Y21.133 Z4.999 
G1 X5.002 Y21.130 Z4.999 
G1 X24.998 Y21.130 Z4.999 
G1 X24.998 Y21.128 Z4.999 
G1 X5.002 Y21.128 Z4.999 
G1 X5.002 Y21.125 Z4.999 
G1 X24.998 Y21.125 Z4.999 
G1 X24.998 Y21.122 Z4.999 
G1 X5.002 Y21.122 Z4.999 
G1 X5.002 Y21.120 Z4.999 
G1 X24.998 Y21.120 Z4.999 
G1 X24.998 Y21.117 Z4.999 
G1 X5.002 Y21.117 Z4.999 
G1 X5.002 Y21.115 Z4.999 
G1 X24.998 Y21.115 Z4.999 
G1 X24.998 Y21.113 Z4.999 
G1 X5.002 Y21.113 Z4.999 
G1 X5.002 Y21.110 Z4.999 
G1 X24.998 Y21.110 Z4.999 
G1 X24.998 Y21.108 Z4.999 
G1 X5.002 Y21.108 Z4.999 
G1 X5.002 Y21.105 Z4.999 
G1 X24.998 Y21.105 Z4.999 
G1 X24.998 Y21.102 Z4.999 
G1 X5.002 Y21.102 Z4.999 
G1 X5.002 Y21.100 Z4.999 
G1 X24.998 Y21.100 Z4.999 
G1 X24.998 Y21.098 Z4.999 
G1 X5.002 Y21.098 Z4.999 
G1 X5.002 Y21.095 Z4.999 
G1 X24.998 Y21.095 Z4.999 
G1 X24.998 Y21.093 Z4.999 
G1 X5.002 Y21.093 Z4.999 
G1 X5.002 Y21.090 Z4.999 
G1 X24.998 Y21.090 Z4.999 
G1 X24.998 Y21.087 Z4.999 
G1 X5.002 Y21.087 Z4.999 
G1 X5.002 Y21.085 Z4.999 
G1 X24.998 Y21.085 Z4.999 
G1 X24.998 Y21.082 Z4.999 
G1 X5.002 Y21.082 Z4.999 
G1 X5.002 Y21.080 Z4.999 
G1 X24.998 Y21.080 Z4.999 
G1 X24.998 Y21.078 Z4.999 
G1 X5.002 Y21.078 Z4.999 
G1 X5.002 Y21.075 Z4.999 
G1 X24.998 Y21.075 Z4.999 
G1 X24.998 Y21.072 Z4.999 
G1 X5.002 Y21.072 Z4.999 
G1 X5.002 Y21.070 Z4.999 
G1 X24.998 Y21.070 Z4.999 
G1 X24.998 Y21.067 Z4.999 
G1 X5.002 Y21.067 Z4.999 
G1 X5.002 Y21.065 Z4.999 
G1 X24.998 Y21.065 Z4.999 
G1 X24.998 Y21.062 Z4.999 
G1 X5.002 Y21.062 Z4.999 
G1 X5.002 Y21.060 Z4.999 
G1 X24.998 Y21.060 Z4.999 
G1 X24.998 Y21.058 Z4.999 
G1 X5.002 Y21.058 Z4.999 
G1 X5.002 Y21.055 Z4.999 
G1 X24.998 Y21.055 Z4.999 
G1 X24.998 Y21.053 Z4.999 
G1 X5.002 Y21.053 Z4.999 
G1 X5.002 Y21.050 Z4.999 
G1 X24.998 Y21.050 Z4.999 
G1 X24.998 Y21.047 Z4.999 
G1 X5.002 Y21.047 Z4.999 
G1 X5.002 Y21.045 Z4.999 
G1 X24.998 Y21.045 Z4.999 
G1 X24.998 Y21.043 Z4.999 
G1 X5.002 Y21.043 Z4.999 
G1 X5.002 Y21.040 Z4.999 
G1 X24.998 Y21.040 Z4.999 
G1 X24.998 Y21.038 Z4.999 
G1 X5.002 Y21.038 Z4.999 
G1 X5.002 Y21.035 Z4.999 
G1 X24.998 Y21.035 Z4.999 
G1 X24.998 Y21.032 Z4.999 
G1 X5.002 Y21.032 Z4.999 
G1 X5.002 Y21.030 Z4.999 
G1 X24.998 Y21.030 Z4.999 
G1 X24.998 Y21.027 Z4.999 
G1 X5.002 Y21.027 Z4.999 
G1 X5.002 Y21.025 Z4.999 
G1 X24.998 Y21.025 Z4.999 
G1 X24.998 Y21.023 Z4.999 
G1 X5.002 Y21.023 Z4.999 
G1 X5.002 Y21.020 Z4.999 
G1 X24.998 Y21.020 Z4.999 
G1 X24.998 Y21.017 Z4.999 
G1 X5.002 Y21.017 Z4.999 
G1 X5.002 Y21.015 Z4.999 
G1 X24.998 Y21.015 Z4.999 
G1 X24.998 Y21.012 Z4.999 
G1 X5.002 Y21.012 Z4.999 
G1 X5.002 Y21.010 Z4.999 
G1 X24.998 Y21.010 Z4.999 
G1 X24.998 Y21.008 Z4.999 
G1 X5.002 Y21.008 Z4.999 
G1 X5.002 Y21.005 Z4.999 
G1 X24.998 Y21.005 Z4.999 
G1 X24.998 Y21.003 Z4.999 
G1 X5.002 Y21.003 Z4.999 
G1 X5.002 Y21.000 Z4.999 
G1 X24.998 Y21.000 Z4.999 
G1 X24.998 Y20.997 Z4.999 
G1 X5.002 Y20.997 Z4.999 
G1 X5.002 Y20.995 Z4.999 
G1 X24.998 Y20.995 Z4.999 
G1 X24.998 Y20.992 Z4.999 
G1 X5.002 Y20.992 Z4.999 
G1 X5.002 Y20.990 Z4.999 
G1 X24.998 Y20.990 Z4.999 
G1 X24.998 Y20.988 Z4.999 
G1 X5.002 Y20.988 Z4.999 
G1 X5.002 Y20.985 Z4.999 
G1 X24.998 Y20.985 Z4.999 
G1 X24.998 Y20.983 Z4.999 
G1 X5.002 Y20.983 Z4.999 
G1 X5.002 Y20.980 Z4.999 
G1 X24.998 Y20.980 Z4.999 
G1 X24.998 Y20.977 Z4.999 
G1 X5.002 Y20.977 Z4.999 
G1 X5.002 Y20.975 Z4.999 
G1 X24.998 Y20.975 Z4.999 
G1 X24.998 Y20.973 Z4.999 
G1 X5.002 Y20.973 Z4.999 
G1 X5.002 Y20.970 Z4.999 
G1 X24.998 Y20.970 Z4.999 
G1 X24.998 Y20.968 Z4.999 
G1 X5.002 Y20.968 Z4.999 
G1 X5.002 Y20.965 Z4.999 
G1 X24.998 Y20.965 Z4.999 
G1 X24.998 Y20.962 Z4.999 
G1 X5.002 Y20.962 Z4.999 
G1 X5.002 Y20.960 Z4.999 
G1 X24.998 Y20.960 Z4.999 
G1 X24.998 Y20.957 Z4.999 
G1 X5.002 Y20.957 Z4.999 
G1 X5.002 Y20.955 Z4.999 
G1 X24.998 Y20.955 Z4.999 
G1 X24.998 Y20.953 Z4.999 
G1 X5.002 Y20.953 Z4.999 
G1 X5.002 Y20.950 Z4.999 
G1 X24.998 Y20.950 Z4.999 
G1 X24.998 Y20.947 Z4.999 
G1 X5.002 Y20.947 Z4.999 
G1 X5.002 Y20.945 Z4.999 
G1 X24.998 Y20.945 Z4.999 
G1 X24.998 Y20.942 Z4.999 
G1 X5.002 Y20.942 Z4.999 
G1 X5.002 Y20.940 Z4.999 
G1 X24.998 Y20.940 Z4.999 
G1 X24.998 Y20.938 Z4.999 
G1 X5.002 Y20.938 Z4.999 
G1 X5.002 Y20.935 Z4.999 
G1 X24.998 Y20.935 Z4.999 
G1 X24.998 Y20.933 Z4.999 
G1 X5.002 Y20.933 Z4.999 
G1 X5.002 Y20.930 Z4.999 
G1 X24.998 Y20.930 Z4.999 
G1 X24.998 Y20.928 Z4.999 
G1 X5.002 Y20.928 Z4.999 
G1 X5.002 Y20.925 Z4.999 
G1 X24.998 Y20.925 Z4.999 
G1 X24.998 Y20.922 Z4.999 
G1 X5.002 Y20.922 Z4.999 
G1 X5.002 Y20.920 Z4.999 
G1 X24.998 Y20.920 Z4.999 
G1 X24.998 Y20.918 Z4.999 
G1 X5.002 Y20.918 Z4.999 
G1 X5.002 Y20.915 Z4.999 
G1 X24.998 Y20.915 Z4.999 
G1 X24.998 Y20.913 Z4.999 
G1 X5.002 Y20.913 Z4.999 
G1 X5.002 Y20.910 Z4.999 
G1 X24.998 Y20.910 Z4.999 
G1 X24.998 Y20.907 Z4.999 
G1 X5.002 Y20.907 Z4.999 
G1 X5.002 Y20.905 Z4.999 
G1 X24.998 Y20.905 Z4.999 
G1 X24.998 Y20.902 Z4.999 
G1 X5.002 Y20.902 Z4.999 
G1 X5.002 Y20.900 Z4.999 
G1 X24.998 Y20.900 Z4.999 
G1 X24.998 Y20.898 Z4.999 
G1 X5.002 Y20.898 Z4.999 
G1 X5.002 Y20.895 Z4.999 
G1 X24.998 Y20.895 Z4.999 
G1 X24.998 Y20.892 Z4.999 
G1 X5.002 Y20.892 Z4.999 
G1 X5.002 Y20.890 Z4.999 
G1 X24.998 Y20.890 Z4.999 
G1 X24.998 Y20.887 Z4.999 
G1 X5.002 Y20.887 Z4.999 
G1 X5.002 Y20.885 Z4.999 
G1 X24.998 Y20.885 Z4.999 
G1 X24.998 Y20.883 Z4.999 
G1 X5.002 Y20.883 Z4.999 
G1 X5.002 Y20.880 Z4.999 
G1 X24.998 Y20.880 Z4.999 
G1 X24.998 Y20.878 Z4.999 
G1 X5.002 Y20.878 Z4.999 
G1 X5.002 Y20.875 Z4.999 
G1 X24.998 Y20.875 Z4.999 
G1 X24.998 Y20.872 Z4.999 
G1 X5.002 Y20.872 Z4.999 
G1 X5.002 Y20.870 Z4.999 
G1 X24.998 Y20.870 Z4.999 
G1 X24.998 Y20.867 Z4.999 
G1 X5.002 Y20.867 Z4.999 
G1 X5.002 Y20.865 Z4.999 
G1 X24.998 Y20.865 Z4.999 
G1 X24.998 Y20.863 Z4.999 
G1 X5.002 Y20.863 Z4.999 
G1 X5.002 Y20.860 Z4.999 
G1 X24.998 Y20.860 Z4.999 
G1 X24.998 Y20.858 Z4.999 
G1 X5.002 Y20.858 Z4.999 
G1 X5.002 Y20.855 Z4.999 
G1 X24.998 Y20.855 Z4.999 
G1 X24.998 Y20.852 Z4.999 
G1 X5.002 Y20.852 Z4.999 
G1 X5.002 Y20.850 Z4.999 
G1 X24.998 Y20.850 Z4.999 
G1 X24.998 Y20.848 Z4.999 
G1 X5.002 Y20.848 Z4.999 
G1 X5.002 Y20.845 Z4.999 
G1 X24.998 Y20.845 Z4.999 
G1 X24.998 Y20.843 Z4.999 
G1 X5.002 Y20.843 Z4.999 
G1 X5.002 Y20.840 Z4.999 
G1 X24.998 Y20.840 Z4.999 
G1 X24.998 Y20.837 Z4.999 
G1 X5.002 Y20.837 Z4.999 
G1 X5.002 Y20.835 Z4.999 
G1 X24.998 Y20.835 Z4.999 
G1 X24.998 Y20.832 Z4.999 
G1 X5.002 Y20.832 Z4.999 
G1 X5.002 Y20.830 Z4.999 
G1 X24.998 Y20.830 Z4.999 
G1 X24.998 Y20.828 Z4.999 
G1 X5.002 Y20.828 Z4.999 
G1 X5.002 Y20.825 Z4.999 
G1 X24.998 Y20.825 Z4.999 
G1 X24.998 Y20.822 Z4.999 
G1 X5.002 Y20.822 Z4.999 
G1 X5.002 Y20.820 Z4.999 
G1 X24.998 Y20.820 Z4.999 
G1 X24.998 Y20.817 Z4.999 
G1 X5.002 Y20.817 Z4.999 
G1 X5.002 Y20.815 Z4.999 
G1 X24.998 Y20.815 Z4.999 
G1 X24.998 Y20.812 Z4.999 
G1 X5.002 Y20.812 Z4.999 
G1 X5.002 Y20.810 Z4.999 
G1 X24.998 Y20.810 Z4.999 
G1 X24.998 Y20.808 Z4.999 
G1 X5.002 Y20.808 Z4.999 
G1 X5.002 Y20.805 Z4.999 
G1 X24.998 Y20.805 Z4.999 
G1 X24.998 Y20.803 Z4.999 
G1 X5.002 Y20.803 Z4.999 
G1 X5.002 Y20.800 Z4.999 
G1 X24.998 Y20.800 Z4.999 
G1 X24.998 Y20.797 Z4.999 
G1 X5.002 Y20.797 Z4.999 
G1 X5.002 Y20.795 Z4.999 
G1 X24.998 Y20.795 Z4.999 
G1 X24.998 Y20.793 Z4.999 
G1 X5.002 Y20.793 Z4.999 
G1 X5.002 Y20.790 Z4.999 
G1 X24.998 Y20.790 Z4.999 
G1 X24.998 Y20.788 Z4.999 
G1 X5.002 Y20.788 Z4.999 
G1 X5.002 Y20.785 Z4.999 
G1 X24.998 Y20.785 Z4.999 
G1 X24.998 Y20.782 Z4.999 
G1 X5.002 Y20.782 Z4.999 
G1 X5.002 Y20.780 Z4.999 
G1 X24.998 Y20.780 Z4.999 
G1 X24.998 Y20.777 Z4.999 
G1 X5.002 Y20.777 Z4.999 
G1 X5.002 Y20.775 Z4.999 
G1 X24.998 Y20.775 Z4.999 
G1 X24.998 Y20.773 Z4.999 
G1 X5.002 Y20.773 Z4.999 
G1 X5.002 Y20.770 Z4.999 
G1 X24.998 Y20.770 Z4.999 
G1 X24.998 Y20.767 Z4.999 
G1 X5.002 Y20.767 Z4.999 
G1 X5.002 Y20.765 Z4.999 
G1 X24.998 Y20.765 Z4.999 
G1 X24.998 Y20.762 Z4.999 
G1 X5.002 Y20.762 Z4.999 
G1 X5.002 Y20.760 Z4.999 
G1 X24.998 Y20.760 Z4.999 
G1 X24.998 Y20.758 Z4.999 
G1 X5.002 Y20.758 Z4.999 
G1 X5.002 Y20.755 Z4.999 
G1 X24.998 Y20.755 Z4.999 
G1 X24.998 Y20.753 Z4.999 
G1 X5.002 Y20.753 Z4.999 
G1 X5.002 Y20.750 Z4.999 
G1 X24.998 Y20.750 Z4.999 
G1 X24.998 Y20.747 Z4.999 
G1 X5.002 Y20.747 Z4.999 
G1 X5.002 Y20.745 Z4.999 
G1 X24.998 Y20.745 Z4.999 
G1 X24.998 Y20.742 Z4.999 
G1 X5.002 Y20.742 Z4.999 
G1 X5.002 Y20.740 Z4.999 
G1 X24.998 Y20.740 Z4.999 
G1 X24.998 Y20.738 Z4.999 
G1 X5.002 Y20.738 Z4.999 
G1 X5.002 Y20.735 Z4.999 
G1 X24.998 Y20.735 Z4.999 
G1 X24.998 Y20.733 Z4.999 
G1 X5.002 Y20.733 Z4.999 
G1 X5.002 Y20.730 Z4.999 
G1 X24.998 Y20.730 Z4.999 
G1 X24.998 Y20.727 Z4.999 
G1 X5.002 Y20.727 Z4.999 
G1 X5.002 Y20.725 Z4.999 
G1 X24.998 Y20.725 Z4.999 
G1 X24.998 Y20.723 Z4.999 
G1 X5.002 Y20.723 Z4.999 
G1 X5.002 Y20.720 Z4.999 
G1 X24.998 Y20.720 Z4.999 
G1 X24.998 Y20.718 Z4.999 
G1 X5.002 Y20.718 Z4.999 
G1 X5.002 Y20.715 Z4.999 
G1 X24.998 Y20.715 Z4.999 
G1 X24.998 Y20.712 Z4.999 
G1 X5.002 Y20.712 Z4.999 
G1 X5.002 Y20.710 Z4.999 
G1 X24.998 Y20.710 Z4.999 
G1 X24.998 Y20.707 Z4.999 
G1 X5.002 Y20.707 Z4.999 
G1 X5.002 Y20.705 Z4.999 
G1 X24.998 Y20.705 Z4.999 
G1 X24.998 Y20.703 Z4.999 
G1 X5.002 Y20.703 Z4.999 
G1 X5.002 Y20.700 Z4.999 
G1 X24.998 Y20.700 Z4.999 
G1 X24.998 Y20.697 Z4.999 
G1 X5.002 Y20.697 Z4.999 
G1 X5.002 Y20.695 Z4.999 
G1 X24.998 Y20.695 Z4.999 
G1 X24.998 Y20.692 Z4.999 
G1 X5.002 Y20.692 Z4.999 
G1 X5.002 Y20.690 Z4.999 
G1 X24.998 Y20.690 Z4.999 
G1 X24.998 Y20.688 Z4.999 
G1 X5.002 Y20.688 Z4.999 
G1 X5.002 Y20.685 Z4.999 
G1 X24.998 Y20.685 Z4.999 
G1 X24.998 Y20.683 Z4.999 
G1 X5.002 Y20.683 Z4.999 
G1 X5.002 Y20.680 Z4.999 
G1 X24.998 Y20.680 Z4.999 
G1 X24.998 Y20.678 Z4.999 
G1 X5.002 Y20.678 Z4.999 
G1 X5.002 Y20.675 Z4.999 
G1 X24.998 Y20.675 Z4.999 
G1 X24.998 Y20.672 Z4.999 
G1 X5.002 Y20.672 Z4.999 
G1 X5.002 Y20.670 Z4.999 
G1 X24.998 Y20.670 Z4.999 
G1 X24.998 Y20.668 Z4.999 
G1 X5.002 Y20.668 Z4.999 
G1 X5.002 Y20.665 Z4.999 
G1 X24.998 Y20.665 Z4.999 
G1 X24.998 Y20.663 Z4.999 
G1 X5.002 Y20.663 Z4.999 
G1 X5.002 Y20.660 Z4.999 
G1 X24.998 Y20.660 Z4.999 
G1 X24.998 Y20.657 Z4.999 
G1 X5.002 Y20.657 Z4.999 
G1 X5.002 Y20.655 Z4.999 
G1 X24.998 Y20.655 Z4.999 
G1 X24.998 Y20.652 Z4.999 
G1 X5.002 Y20.652 Z4.999 
G1 X5.002 Y20.650 Z4.999 
G1 X24.998 Y20.650 Z4.999 
G1 X24.998 Y20.648 Z4.999 
G1 X5.002 Y20.648 Z4.999 
G1 X5.002 Y20.645 Z4.999 
G1 X24.998 Y20.645 Z4.999 
G1 X24.998 Y20.642 Z4.999 
G1 X5.002 Y20.642 Z4.999 
G1 X5.002 Y20.640 Z4.999 
G1 X24.998 Y20.640 Z4.999 
G1 X24.998 Y20.637 Z4.999 
G1 X5.002 Y20.637 Z4.999 
G1 X5.002 Y20.635 Z4.999 
G1 X24.998 Y20.635 Z4.999 
G1 X24.998 Y20.633 Z4.999 
G1 X5.002 Y20.633 Z4.999 
G1 X5.002 Y20.630 Z4.999 
G1 X24.998 Y20.630 Z4.999 
G1 X24.998 Y20.628 Z4.999 
G1 X5.002 Y20.628 Z4.999 
G1 X5.002 Y20.625 Z4.999 
G1 X24.998 Y20.625 Z4.999 
G1 X24.998 Y20.622 Z4.999 
G1 X5.002 Y20.622 Z4.999 
G1 X5.002 Y20.620 Z4.999 
G1 X24.998 Y20.620 Z4.999 
G1 X24.998 Y20.617 Z4.999 
G1 X5.002 Y20.617 Z4.999 
G1 X5.002 Y20.615 Z4.999 
G1 X24.998 Y20.615 Z4.999 
G1 X24.998 Y20.613 Z4.999 
G1 X5.002 Y20.613 Z4.999 
G1 X5.002 Y20.610 Z4.999 
G1 X24.998 Y20.610 Z4.999 
G1 X24.998 Y20.608 Z4.999 
G1 X5.002 Y20.608 Z4.999 
G1 X5.002 Y20.605 Z4.999 
G1 X24.998 Y20.605 Z4.999 
G1 X24.998 Y20.602 Z4.999 
G1 X5.002 Y20.602 Z4.999 
G1 X5.002 Y20.600 Z4.999 
G1 X24.998 Y20.600 Z4.999 
G1 X24.998 Y20.598 Z4.999 
G1 X5.002 Y20.598 Z4.999 
G1 X5.002 Y20.595 Z4.999 
G1 X24.998 Y20.595 Z4.999 
G1 X24.998 Y20.593 Z4.999 
G1 X5.002 Y20.593 Z4.999 
G1 X5.002 Y20.590 Z4.999 
G1 X24.998 Y20.590 Z4.999 
G1 X24.998 Y20.587 Z4.999 
G1 X5.002 Y20.587 Z4.999 
G1 X5.002 Y20.585 Z4.999 
G1 X24.998 Y20.585 Z4.999 
G1 X24.998 Y20.582 Z4.999 
G1 X5.002 Y20.582 Z4.999 
G1 X5.002 Y20.580 Z4.999 
G1 X24.998 Y20.580 Z4.999 
G1 X24.998 Y20.578 Z4.999 
G1 X5.002 Y20.578 Z4.999 
G1 X5.002 Y20.575 Z4.999 
G1 X24.998 Y20.575 Z4.999 
G1 X24.998 Y20.572 Z4.999 
G1 X5.002 Y20.572 Z4.999 
G1 X5.002 Y20.570 Z4.999 
G1 X24.998 Y20.570 Z4.999 
G1 X24.998 Y20.567 Z4.999 
G1 X5.002 Y20.567 Z4.999 
G1 X5.002 Y20.565 Z4.999 
G1 X24.998 Y20.565 Z4.999 
G1 X24.998 Y20.562 Z4.999 
G1 X5.002 Y20.562 Z4.999 
G1 X5.002 Y20.560 Z4.999 
G1 X24.998 Y20.560 Z4.999 
G1 X24.998 Y20.558 Z4.999 
G1 X5.002 Y20.558 Z4.999 
G1 X5.002 Y20.555 Z4.999 
G1 X24.998 Y20.555 Z4.999 
G1 X24.998 Y20.553 Z4.999 
G1 X5.002 Y20.553 Z4.999 
G1 X5.002 Y20.550 Z4.999 
G1 X24.998 Y20.550 Z4.999 
G1 X24.998 Y20.547 Z4.999 
G1 X5.002 Y20.547 Z4.999 
G1 X5.002 Y20.545 Z4.999 
G1 X24.998 Y20.545 Z4.999 
G1 X24.998 Y20.543 Z4.999 
G1 X5.002 Y20.543 Z4.999 
G1 X5.002 Y20.540 Z4.999 
G1 X24.998 Y20.540 Z4.999 
G1 X24.998 Y20.538 Z4.999 
G1 X5.002 Y20.538 Z4.999 
G1 X5.002 Y20.535 Z4.999 
G1 X24.998 Y20.535 Z4.999 
G1 X24.998 Y20.532 Z4.999 
G1 X5.002 Y20.532 Z4.999 
G1 X5.002 Y20.530 Z4.999 
G1 X24.998 Y20.530 Z4.999 
G1 X24.998 Y20.527 Z4.999 
G1 X5.002 Y20.527 Z4.999 
G1 X5.002 Y20.525 Z4.999 
G1 X24.998 Y20.525 Z4.999 
G1 X24.998 Y20.523 Z4.999 
G1 X5.002 Y20.523 Z4.999 
G1 X5.002 Y20.520 Z4.999 
G1 X24.998 Y20.520 Z4.999 
G1 X24.998 Y20.517 Z4.999 
G1 X5.002 Y20.517 Z4.999 
G1 X5.002 Y20.515 Z4.999 
G1 X24.998 Y20.515 Z4.999 
G1 X24.998 Y20.512 Z4.999 
G1 X5.002 Y20.512 Z4.999 
G1 X5.002 Y20.510 Z4.999 
G1 X24.998 Y20.510 Z4.999 
G1 X24.998 Y20.508 Z4.999 
G1 X5.002 Y20.508 Z4.999 
G1 X5.002 Y20.505 Z4.999 
G1 X24.998 Y20.505 Z4.999 
G1 X24.998 Y20.503 Z4.999 
G1 X5.002 Y20.503 Z4.999 
G1 X5.002 Y20.500 Z4.999 
G1 X24.998 Y20.500 Z4.999 
G1 X24.998 Y20.497 Z4.999 
G1 X5.002 Y20.497 Z4.999 
G1 X5.002 Y20.495 Z4.999 
G1 X24.998 Y20.495 Z4.999 
G1 X24.998 Y20.492 Z4.999 
G1 X5.002 Y20.492 Z4.999 
G1 X5.002 Y20.490 Z4.999 
G1 X24.998 Y20.490 Z4.999 
G1 X24.998 Y20.488 Z4.999 
G1 X5.002 Y20.488 Z4.999 
G1 X5.002 Y20.485 Z4.999 
G1 X24.998 Y20.485 Z4.999 
G1 X24.998 Y20.483 Z4.999 
G1 X5.002 Y20.483 Z4.999 
G1 X5.002 Y20.480 Z4.999 
G1 X24.998 Y20.480 Z4.999 
G1 X24.998 Y20.477 Z4.999 
G1 X5.002 Y20.477 Z4.999 
G1 X5.002 Y20.475 Z4.999 
G1 X24.998 Y20.475 Z4.999 
G1 X24.998 Y20.473 Z4.999 
G1 X5.002 Y20.473 Z4.999 
G1 X5.002 Y20.470 Z4.999 
G1 X24.998 Y20.470 Z4.999 
G1 X24.998 Y20.468 Z4.999 
G1 X5.002 Y20.468 Z4.999 
G1 X5.002 Y20.465 Z4.999 
G1 X24.998 Y20.465 Z4.999 
G1 X24.998 Y20.462 Z4.999 
G1 X5.002 Y20.462 Z4.999 
G1 X5.002 Y20.460 Z4.999 
G1 X24.998 Y20.460 Z4.999 
G1 X24.998 Y20.457 Z4.999 
G1 X5.002 Y20.457 Z4.999 
G1 X5.002 Y20.455 Z4.999 
G1 X24.998 Y20.455 Z4.999 
G1 X24.998 Y20.453 Z4.999 
G1 X5.002 Y20.453 Z4.999 
G1 X5.002 Y20.450 Z4.999 
G1 X24.998 Y20.450 Z4.999 
G1 X24.998 Y20.447 Z4.999 
G1 X5.002 Y20.447 Z4.999 
G1 X5.002 Y20.445 Z4.999 
G1 X24.998 Y20.445 Z4.999 
G1 X24.998 Y20.442 Z4.999 
G1 X5.002 Y20.442 Z4.999 
G1 X5.002 Y20.440 Z4.999 
G1 X24.998 Y20.440 Z4.999 
G1 X24.998 Y20.438 Z4.999 
G1 X5.002 Y20.438 Z4.999 
G1 X5.002 Y20.435 Z4.999 
G1 X24.998 Y20.435 Z4.999 
G1 X24.998 Y20.433 Z4.999 
G1 X5.002 Y20.433 Z4.999 
G1 X5.002 Y20.430 Z4.999 
G1 X24.998 Y20.430 Z4.999 
G1 X24.998 Y20.428 Z4.999 
G1 X5.002 Y20.428 Z4.999 
G1 X5.002 Y20.425 Z4.999 
G1 X24.998 Y20.425 Z4.999 
G1 X24.998 Y20.422 Z4.999 
G1 X5.002 Y20.422 Z4.999 
G1 X5.002 Y20.420 Z4.999 
G1 X24.998 Y20.420 Z4.999 
G1 X24.998 Y20.418 Z4.999 
G1 X5.002 Y20.418 Z4.999 
G1 X5.002 Y20.415 Z4.999 
G1 X24.998 Y20.415 Z4.999 
G1 X24.998 Y20.413 Z4.999 
G1 X5.002 Y20.413 Z4.999 
G1 X5.002 Y20.410 Z4.999 
G1 X24.998 Y20.410 Z4.999 
G1 X24.998 Y20.407 Z4.999 
G1 X5.002 Y20.407 Z4.999 
G1 X5.002 Y20.405 Z4.999 
G1 X24.998 Y20.405 Z4.999 
G1 X24.998 Y20.402 Z4.999 
G1 X5.002 Y20.402 Z4.999 
G1 X5.002 Y20.400 Z4.999 
G1 X24.998 Y20.400 Z4.999 
G1 X24.998 Y20.398 Z4.999 
G1 X5.002 Y20.398 Z4.999 
G1 X5.002 Y20.395 Z4.999 
G1 X24.998 Y20.395 Z4.999 
G1 X24.998 Y20.392 Z4.999 
G1 X5.002 Y20.392 Z4.999 
G1 X5.002 Y20.390 Z4.999 
G1 X24.998 Y20.390 Z4.999 
G1 X24.998 Y20.387 Z4.999 
G1 X5.002 Y20.387 Z4.999 
G1 X5.002 Y20.385 Z4.999 
G1 X24.998 Y20.385 Z4.999 
G1 X24.998 Y20.383 Z4.999 
G1 X5.002 Y20.383 Z4.999 
G1 X5.002 Y20.380 Z4.999 
G1 X24.998 Y20.380 Z4.999 
G1 X24.998 Y20.378 Z4.999 
G1 X5.002 Y20.378 Z4.999 
G1 X5.002 Y20.375 Z4.999 
G1 X24.998 Y20.375 Z4.999 
G1 X24.998 Y20.372 Z4.999 
G1 X5.002 Y20.372 Z4.999 
G1 X5.002 Y20.370 Z4.999 
G1 X24.998 Y20.370 Z4.999 
G1 X24.998 Y20.367 Z4.999 
G1 X5.002 Y20.367 Z4.999 
G1 X5.002 Y20.365 Z4.999 
G1 X24.998 Y20.365 Z4.999 
G1 X24.998 Y20.363 Z4.999 
G1 X5.002 Y20.363 Z4.999 
G1 X5.002 Y20.360 Z4.999 
G1 X24.998 Y20.360 Z4.999 
G1 X24.998 Y20.358 Z4.999 
G1 X5.002 Y20.358 Z4.999 
G1 X5.002 Y20.355 Z4.999 
G1 X24.998 Y20.355 Z4.999 
G1 X24.998 Y20.352 Z4.999 
G1 X5.002 Y20.352 Z4.999 
G1 X5.002 Y20.350 Z4.999 
G1 X24.998 Y20.350 Z4.999 
G1 X24.998 Y20.348 Z4.999 
G1 X5.002 Y20.348 Z4.999 
G1 X5.002 Y20.345 Z4.999 
G1 X24.998 Y20.345 Z4.999 
G1 X24.998 Y20.343 Z4.999 
G1 X5.002 Y20.343 Z4.999 
G1 X5.002 Y20.340 Z4.999 
G1 X24.998 Y20.340 Z4.999 
G1 X24.998 Y20.337 Z4.999 
G1 X5.002 Y20.337 Z4.999 
G1 X5.002 Y20.335 Z4.999 
G1 X24.998 Y20.335 Z4.999 
G1 X24.998 Y20.332 Z4.999 
G1 X5.002 Y20.332 Z4.999 
G1 X5.002 Y20.330 Z4.999 
G1 X24.998 Y20.330 Z4.999 
G1 X24.998 Y20.328 Z4.999 
G1 X5.002 Y20.328 Z4.999 
G1 X5.002 Y20.325 Z4.999 
G1 X24.998 Y20.325 Z4.999 
G1 X24.998 Y20.322 Z4.999 
G1 X5.002 Y20.322 Z4.999 
G1 X5.002 Y20.320 Z4.999 
G1 X24.998 Y20.320 Z4.999 
G1 X24.998 Y20.317 Z4.999 
G1 X5.002 Y20.317 Z4.999 
G1 X5.002 Y20.315 Z4.999 
G1 X24.998 Y20.315 Z4.999 
G1 X24.998 Y20.312 Z4.999 
G1 X5.002 Y20.312 Z4.999 
G1 X5.002 Y20.310 Z4.999 
G1 X24.998 Y20.310 Z4.999 
G1 X24.998 Y20.308 Z4.999 
G1 X5.002 Y20.308 Z4.999 
G1 X5.002 Y20.305 Z4.999 
