(Exported by FreeCAD)
(Post Processor: script_module)
(Output Time:2025-05-29 00:44:11.813355)
(begin preamble)
G17 G54 G40 G49 G80 G90
G21
(begin operation: Fixture)
(machine units: mm/min)
G54 
(finish operation: Fixture)
(begin operation: TC: Default Tool)
(machine units: mm/min)
(TC: Default Tool) 
M5
M6 T1 
G43 H1 
(finish operation: TC: Default Tool)
(begin operation: Pocket_Shape)
(machine units: mm/min)
(Pocket_Shape) 
G0 Z10.001 
G0 X3.797 Y3.797 
G0 Z8.001 
G1 X3.797 Y3.797 Z4.999 
G1 X3.603 Y3.797 Z4.999 
G1 X3.603 Y3.795 Z4.999 
G1 X3.797 Y3.795 Z4.999 
G1 X3.797 Y3.793 Z4.999 
G1 X3.603 Y3.793 Z4.999 
G1 X3.603 Y3.790 Z4.999 
G1 X3.797 Y3.790 Z4.999 
G1 X3.797 Y3.788 Z4.999 
G1 X3.603 Y3.788 Z4.999 
G1 X3.603 Y3.785 Z4.999 
G1 X3.797 Y3.785 Z4.999 
G1 X3.797 Y3.783 Z4.999 
G1 X3.603 Y3.783 Z4.999 
G1 X3.603 Y3.780 Z4.999 
G1 X3.797 Y3.780 Z4.999 
G1 X3.797 Y3.778 Z4.999 
G1 X3.603 Y3.778 Z4.999 
G1 X3.603 Y3.775 Z4.999 
G1 X3.797 Y3.775 Z4.999 
G1 X3.797 Y3.773 Z4.999 
G1 X3.603 Y3.773 Z4.999 
G1 X3.603 Y3.770 Z4.999 
G1 X3.797 Y3.770 Z4.999 
G1 X3.797 Y3.768 Z4.999 
G1 X3.603 Y3.768 Z4.999 
G1 X3.603 Y3.765 Z4.999 
G1 X3.797 Y3.765 Z4.999 
G1 X3.797 Y3.763 Z4.999 
G1 X3.603 Y3.763 Z4.999 
G1 X3.603 Y3.760 Z4.999 
G1 X3.797 Y3.760 Z4.999 
G1 X3.797 Y3.758 Z4.999 
G1 X3.603 Y3.758 Z4.999 
G1 X3.603 Y3.755 Z4.999 
G1 X3.797 Y3.755 Z4.999 
G1 X3.797 Y3.753 Z4.999 
G1 X3.603 Y3.753 Z4.999 
G1 X3.603 Y3.750 Z4.999 
G1 X3.797 Y3.750 Z4.999 
G1 X3.797 Y3.748 Z4.999 
G1 X3.603 Y3.748 Z4.999 
G1 X3.603 Y3.745 Z4.999 
G1 X3.797 Y3.745 Z4.999 
G1 X3.797 Y3.743 Z4.999 
G1 X3.603 Y3.743 Z4.999 
G1 X3.603 Y3.740 Z4.999 
G1 X3.797 Y3.740 Z4.999 
G1 X3.797 Y3.738 Z4.999 
G1 X3.603 Y3.738 Z4.999 
G1 X3.603 Y3.735 Z4.999 
G1 X3.797 Y3.735 Z4.999 
G1 X3.797 Y3.733 Z4.999 
G1 X3.603 Y3.733 Z4.999 
G1 X3.603 Y3.730 Z4.999 
G1 X3.797 Y3.730 Z4.999 
G1 X3.797 Y3.728 Z4.999 
G1 X3.603 Y3.728 Z4.999 
G1 X3.603 Y3.725 Z4.999 
G1 X3.797 Y3.725 Z4.999 
G1 X3.797 Y3.723 Z4.999 
G1 X3.603 Y3.723 Z4.999 
G1 X3.603 Y3.720 Z4.999 
G1 X3.797 Y3.720 Z4.999 
G1 X3.797 Y3.718 Z4.999 
G1 X3.603 Y3.718 Z4.999 
G1 X3.603 Y3.715 Z4.999 
G1 X3.797 Y3.715 Z4.999 
G1 X3.797 Y3.713 Z4.999 
G1 X3.603 Y3.713 Z4.999 
G1 X3.603 Y3.710 Z4.999 
G1 X3.797 Y3.710 Z4.999 
G1 X3.797 Y3.708 Z4.999 
G1 X3.603 Y3.708 Z4.999 
G1 X3.603 Y3.705 Z4.999 
G1 X3.797 Y3.705 Z4.999 
G1 X3.797 Y3.703 Z4.999 
G1 X3.603 Y3.703 Z4.999 
G1 X3.603 Y3.700 Z4.999 
G1 X3.797 Y3.700 Z4.999 
G1 X3.797 Y3.698 Z4.999 
G1 X3.603 Y3.698 Z4.999 
G1 X3.603 Y3.695 Z4.999 
G1 X3.797 Y3.695 Z4.999 
G1 X3.797 Y3.693 Z4.999 
G1 X3.603 Y3.693 Z4.999 
G1 X3.603 Y3.690 Z4.999 
G1 X3.797 Y3.690 Z4.999 
G1 X3.797 Y3.688 Z4.999 
G1 X3.603 Y3.688 Z4.999 
G1 X3.603 Y3.685 Z4.999 
G1 X3.797 Y3.685 Z4.999 
G1 X3.797 Y3.683 Z4.999 
G1 X3.603 Y3.683 Z4.999 
G1 X3.603 Y3.680 Z4.999 
G1 X3.797 Y3.680 Z4.999 
G1 X3.797 Y3.678 Z4.999 
G1 X3.603 Y3.678 Z4.999 
G1 X3.603 Y3.675 Z4.999 
G1 X3.797 Y3.675 Z4.999 
G1 X3.797 Y3.673 Z4.999 
G1 X3.603 Y3.673 Z4.999 
G1 X3.603 Y3.670 Z4.999 
G1 X3.797 Y3.670 Z4.999 
G1 X3.797 Y3.668 Z4.999 
G1 X3.603 Y3.668 Z4.999 
G1 X3.603 Y3.665 Z4.999 
G1 X3.797 Y3.665 Z4.999 
G1 X3.797 Y3.663 Z4.999 
G1 X3.603 Y3.663 Z4.999 
G1 X3.603 Y3.660 Z4.999 
G1 X3.797 Y3.660 Z4.999 
G1 X3.797 Y3.658 Z4.999 
G1 X3.603 Y3.658 Z4.999 
G1 X3.603 Y3.655 Z4.999 
G1 X3.797 Y3.655 Z4.999 
G1 X3.797 Y3.653 Z4.999 
G1 X3.603 Y3.653 Z4.999 
G1 X3.603 Y3.650 Z4.999 
G1 X3.797 Y3.650 Z4.999 
G1 X3.797 Y3.648 Z4.999 
G1 X3.603 Y3.648 Z4.999 
G1 X3.603 Y3.645 Z4.999 
G1 X3.797 Y3.645 Z4.999 
G1 X3.797 Y3.643 Z4.999 
G1 X3.603 Y3.643 Z4.999 
G1 X3.603 Y3.640 Z4.999 
G1 X3.797 Y3.640 Z4.999 
G1 X3.797 Y3.638 Z4.999 
G1 X3.603 Y3.638 Z4.999 
G1 X3.603 Y3.635 Z4.999 
G1 X3.797 Y3.635 Z4.999 
G1 X3.797 Y3.633 Z4.999 
G1 X3.603 Y3.633 Z4.999 
G1 X3.603 Y3.630 Z4.999 
G1 X3.797 Y3.630 Z4.999 
G1 X3.797 Y3.628 Z4.999 
G1 X3.603 Y3.628 Z4.999 
G1 X3.603 Y3.625 Z4.999 
G1 X3.797 Y3.625 Z4.999 
G1 X3.797 Y3.623 Z4.999 
G1 X3.603 Y3.623 Z4.999 
G1 X3.603 Y3.620 Z4.999 
G1 X3.797 Y3.620 Z4.999 
G1 X3.797 Y3.618 Z4.999 
G1 X3.603 Y3.618 Z4.999 
G1 X3.603 Y3.615 Z4.999 
G1 X3.797 Y3.615 Z4.999 
G1 X3.797 Y3.613 Z4.999 
G1 X3.603 Y3.613 Z4.999 
G1 X3.603 Y3.610 Z4.999 
G1 X3.797 Y3.610 Z4.999 
G1 X3.797 Y3.608 Z4.999 
G1 X3.603 Y3.608 Z4.999 
G1 X3.603 Y3.605 Z4.999 
G1 X3.797 Y3.605 Z4.999 
G1 X3.797 Y3.603 Z4.999 
G1 X3.603 Y3.603 Z4.999 
G0 Z10.001 
G0 Z10.001 
G0 X3.603 Y3.603 
G0 Y7.403 
G0 Y7.403 Z8.001 
G1 X3.603 Y7.403 Z4.999 
G1 X3.797 Y7.403 Z4.999 
G1 X3.797 Y7.405 Z4.999 
G1 X3.603 Y7.405 Z4.999 
G1 X3.603 Y7.408 Z4.999 
G1 X3.797 Y7.408 Z4.999 
G1 X3.797 Y7.410 Z4.999 
G1 X3.603 Y7.410 Z4.999 
G1 X3.603 Y7.413 Z4.999 
G1 X3.797 Y7.413 Z4.999 
G1 X3.797 Y7.415 Z4.999 
G1 X3.603 Y7.415 Z4.999 
G1 X3.603 Y7.418 Z4.999 
G1 X3.797 Y7.418 Z4.999 
G1 X3.797 Y7.420 Z4.999 
G1 X3.603 Y7.420 Z4.999 
G1 X3.603 Y7.423 Z4.999 
G1 X3.797 Y7.423 Z4.999 
G1 X3.797 Y7.425 Z4.999 
G1 X3.603 Y7.425 Z4.999 
G1 X3.603 Y7.428 Z4.999 
G1 X3.797 Y7.428 Z4.999 
G1 X3.797 Y7.430 Z4.999 
G1 X3.603 Y7.430 Z4.999 
G1 X3.603 Y7.433 Z4.999 
G1 X3.797 Y7.433 Z4.999 
G1 X3.797 Y7.435 Z4.999 
G1 X3.603 Y7.435 Z4.999 
G1 X3.603 Y7.438 Z4.999 
G1 X3.797 Y7.438 Z4.999 
G1 X3.797 Y7.440 Z4.999 
G1 X3.603 Y7.440 Z4.999 
G1 X3.603 Y7.443 Z4.999 
G1 X3.797 Y7.443 Z4.999 
G1 X3.797 Y7.445 Z4.999 
G1 X3.603 Y7.445 Z4.999 
G1 X3.603 Y7.448 Z4.999 
G1 X3.797 Y7.448 Z4.999 
G1 X3.797 Y7.450 Z4.999 
G1 X3.603 Y7.450 Z4.999 
G1 X3.603 Y7.453 Z4.999 
G1 X3.797 Y7.453 Z4.999 
G1 X3.797 Y7.455 Z4.999 
G1 X3.603 Y7.455 Z4.999 
G1 X3.603 Y7.458 Z4.999 
G1 X3.797 Y7.458 Z4.999 
G1 X3.797 Y7.460 Z4.999 
G1 X3.603 Y7.460 Z4.999 
G1 X3.603 Y7.463 Z4.999 
G1 X3.797 Y7.463 Z4.999 
G1 X3.797 Y7.465 Z4.999 
G1 X3.603 Y7.465 Z4.999 
G1 X3.603 Y7.468 Z4.999 
G1 X3.797 Y7.468 Z4.999 
G1 X3.797 Y7.470 Z4.999 
G1 X3.603 Y7.470 Z4.999 
G1 X3.603 Y7.473 Z4.999 
G1 X3.797 Y7.473 Z4.999 
G1 X3.797 Y7.475 Z4.999 
G1 X3.603 Y7.475 Z4.999 
G1 X3.603 Y7.478 Z4.999 
G1 X3.797 Y7.478 Z4.999 
G1 X3.797 Y7.480 Z4.999 
G1 X3.603 Y7.480 Z4.999 
G1 X3.603 Y7.483 Z4.999 
G1 X3.797 Y7.483 Z4.999 
G1 X3.797 Y7.485 Z4.999 
G1 X3.603 Y7.485 Z4.999 
G1 X3.603 Y7.488 Z4.999 
G1 X3.797 Y7.488 Z4.999 
G1 X3.797 Y7.490 Z4.999 
G1 X3.603 Y7.490 Z4.999 
G1 X3.603 Y7.493 Z4.999 
G1 X3.797 Y7.493 Z4.999 
G1 X3.797 Y7.495 Z4.999 
G1 X3.603 Y7.495 Z4.999 
G1 X3.603 Y7.498 Z4.999 
G1 X3.797 Y7.498 Z4.999 
G1 X3.797 Y7.500 Z4.999 
G1 X3.603 Y7.500 Z4.999 
G1 X3.603 Y7.503 Z4.999 
G1 X3.797 Y7.503 Z4.999 
G1 X3.797 Y7.505 Z4.999 
G1 X3.603 Y7.505 Z4.999 
G1 X3.603 Y7.508 Z4.999 
G1 X3.797 Y7.508 Z4.999 
G1 X3.797 Y7.510 Z4.999 
G1 X3.603 Y7.510 Z4.999 
G1 X3.603 Y7.513 Z4.999 
G1 X3.797 Y7.513 Z4.999 
G1 X3.797 Y7.515 Z4.999 
G1 X3.603 Y7.515 Z4.999 
G1 X3.603 Y7.518 Z4.999 
G1 X3.797 Y7.518 Z4.999 
G1 X3.797 Y7.520 Z4.999 
G1 X3.603 Y7.520 Z4.999 
G1 X3.603 Y7.523 Z4.999 
G1 X3.797 Y7.523 Z4.999 
G1 X3.797 Y7.525 Z4.999 
G1 X3.603 Y7.525 Z4.999 
G1 X3.603 Y7.528 Z4.999 
G1 X3.797 Y7.528 Z4.999 
G1 X3.797 Y7.530 Z4.999 
G1 X3.603 Y7.530 Z4.999 
G1 X3.603 Y7.533 Z4.999 
G1 X3.797 Y7.533 Z4.999 
G1 X3.797 Y7.535 Z4.999 
G1 X3.603 Y7.535 Z4.999 
G1 X3.603 Y7.538 Z4.999 
G1 X3.797 Y7.538 Z4.999 
G1 X3.797 Y7.540 Z4.999 
G1 X3.603 Y7.540 Z4.999 
G1 X3.603 Y7.543 Z4.999 
G1 X3.797 Y7.543 Z4.999 
G1 X3.797 Y7.545 Z4.999 
G1 X3.603 Y7.545 Z4.999 
G1 X3.603 Y7.548 Z4.999 
G1 X3.797 Y7.548 Z4.999 
G1 X3.797 Y7.550 Z4.999 
G1 X3.603 Y7.550 Z4.999 
G1 X3.603 Y7.553 Z4.999 
G1 X3.797 Y7.553 Z4.999 
G1 X3.797 Y7.555 Z4.999 
G1 X3.603 Y7.555 Z4.999 
G1 X3.603 Y7.558 Z4.999 
G1 X3.797 Y7.558 Z4.999 
G1 X3.797 Y7.560 Z4.999 
G1 X3.603 Y7.560 Z4.999 
G1 X3.603 Y7.563 Z4.999 
G1 X3.797 Y7.563 Z4.999 
G1 X3.797 Y7.565 Z4.999 
G1 X3.603 Y7.565 Z4.999 
G1 X3.603 Y7.568 Z4.999 
G1 X3.797 Y7.568 Z4.999 
G1 X3.797 Y7.570 Z4.999 
G1 X3.603 Y7.570 Z4.999 
G1 X3.603 Y7.573 Z4.999 
G1 X3.797 Y7.573 Z4.999 
G1 X3.797 Y7.575 Z4.999 
G1 X3.603 Y7.575 Z4.999 
G1 X3.603 Y7.578 Z4.999 
G1 X3.797 Y7.578 Z4.999 
G1 X3.797 Y7.580 Z4.999 
G1 X3.603 Y7.580 Z4.999 
G1 X3.603 Y7.583 Z4.999 
G1 X3.797 Y7.583 Z4.999 
G1 X3.797 Y7.585 Z4.999 
G1 X3.603 Y7.585 Z4.999 
G1 X3.603 Y7.588 Z4.999 
G1 X3.797 Y7.588 Z4.999 
G1 X3.797 Y7.590 Z4.999 
G1 X3.603 Y7.590 Z4.999 
G1 X3.603 Y7.593 Z4.999 
G1 X3.797 Y7.593 Z4.999 
G1 X3.797 Y7.595 Z4.999 
G1 X3.603 Y7.595 Z4.999 
G1 X3.603 Y7.597 Z4.999 
G1 X3.797 Y7.597 Z4.999 
G0 Z10.001 
G0 Z10.001 
G0 X3.797 Y7.597 
G0 X3.603 Y11.203 
G0 X3.603 Y11.203 Z8.001 
G1 X3.603 Y11.203 Z4.999 
G1 X3.797 Y11.203 Z4.999 
G1 X3.797 Y11.205 Z4.999 
G1 X3.603 Y11.205 Z4.999 
G1 X3.603 Y11.208 Z4.999 
G1 X3.797 Y11.208 Z4.999 
G1 X3.797 Y11.210 Z4.999 
G1 X3.603 Y11.210 Z4.999 
G1 X3.603 Y11.213 Z4.999 
G1 X3.797 Y11.213 Z4.999 
G1 X3.797 Y11.215 Z4.999 
G1 X3.603 Y11.215 Z4.999 
G1 X3.603 Y11.218 Z4.999 
G1 X3.797 Y11.218 Z4.999 
G1 X3.797 Y11.220 Z4.999 
G1 X3.603 Y11.220 Z4.999 
G1 X3.603 Y11.223 Z4.999 
G1 X3.797 Y11.223 Z4.999 
G1 X3.797 Y11.225 Z4.999 
G1 X3.603 Y11.225 Z4.999 
G1 X3.603 Y11.228 Z4.999 
G1 X3.797 Y11.228 Z4.999 
G1 X3.797 Y11.230 Z4.999 
G1 X3.603 Y11.230 Z4.999 
G1 X3.603 Y11.233 Z4.999 
G1 X3.797 Y11.233 Z4.999 
G1 X3.797 Y11.235 Z4.999 
G1 X3.603 Y11.235 Z4.999 
G1 X3.603 Y11.238 Z4.999 
G1 X3.797 Y11.238 Z4.999 
G1 X3.797 Y11.240 Z4.999 
G1 X3.603 Y11.240 Z4.999 
G1 X3.603 Y11.243 Z4.999 
G1 X3.797 Y11.243 Z4.999 
G1 X3.797 Y11.245 Z4.999 
G1 X3.603 Y11.245 Z4.999 
G1 X3.603 Y11.248 Z4.999 
G1 X3.797 Y11.248 Z4.999 
G1 X3.797 Y11.250 Z4.999 
G1 X3.603 Y11.250 Z4.999 
G1 X3.603 Y11.253 Z4.999 
G1 X3.797 Y11.253 Z4.999 
G1 X3.797 Y11.255 Z4.999 
G1 X3.603 Y11.255 Z4.999 
G1 X3.603 Y11.258 Z4.999 
G1 X3.797 Y11.258 Z4.999 
G1 X3.797 Y11.260 Z4.999 
G1 X3.603 Y11.260 Z4.999 
G1 X3.603 Y11.263 Z4.999 
G1 X3.797 Y11.263 Z4.999 
G1 X3.797 Y11.265 Z4.999 
G1 X3.603 Y11.265 Z4.999 
G1 X3.603 Y11.268 Z4.999 
G1 X3.797 Y11.268 Z4.999 
G1 X3.797 Y11.270 Z4.999 
G1 X3.603 Y11.270 Z4.999 
G1 X3.603 Y11.273 Z4.999 
G1 X3.797 Y11.273 Z4.999 
G1 X3.797 Y11.275 Z4.999 
G1 X3.603 Y11.275 Z4.999 
G1 X3.603 Y11.278 Z4.999 
G1 X3.797 Y11.278 Z4.999 
G1 X3.797 Y11.280 Z4.999 
G1 X3.603 Y11.280 Z4.999 
G1 X3.603 Y11.283 Z4.999 
G1 X3.797 Y11.283 Z4.999 
G1 X3.797 Y11.285 Z4.999 
G1 X3.603 Y11.285 Z4.999 
G1 X3.603 Y11.288 Z4.999 
G1 X3.797 Y11.288 Z4.999 
G1 X3.797 Y11.290 Z4.999 
G1 X3.603 Y11.290 Z4.999 
G1 X3.603 Y11.293 Z4.999 
G1 X3.797 Y11.293 Z4.999 
G1 X3.797 Y11.295 Z4.999 
G1 X3.603 Y11.295 Z4.999 
G1 X3.603 Y11.298 Z4.999 
G1 X3.797 Y11.298 Z4.999 
G1 X3.797 Y11.300 Z4.999 
G1 X3.603 Y11.300 Z4.999 
G1 X3.603 Y11.303 Z4.999 
G1 X3.797 Y11.303 Z4.999 
G1 X3.797 Y11.305 Z4.999 
G1 X3.603 Y11.305 Z4.999 
G1 X3.603 Y11.308 Z4.999 
G1 X3.797 Y11.308 Z4.999 
G1 X3.797 Y11.310 Z4.999 
G1 X3.603 Y11.310 Z4.999 
G1 X3.603 Y11.313 Z4.999 
G1 X3.797 Y11.313 Z4.999 
G1 X3.797 Y11.315 Z4.999 
G1 X3.603 Y11.315 Z4.999 
G1 X3.603 Y11.318 Z4.999 
G1 X3.797 Y11.318 Z4.999 
G1 X3.797 Y11.320 Z4.999 
G1 X3.603 Y11.320 Z4.999 
G1 X3.603 Y11.323 Z4.999 
G1 X3.797 Y11.323 Z4.999 
G1 X3.797 Y11.325 Z4.999 
G1 X3.603 Y11.325 Z4.999 
G1 X3.603 Y11.328 Z4.999 
G1 X3.797 Y11.328 Z4.999 
G1 X3.797 Y11.330 Z4.999 
G1 X3.603 Y11.330 Z4.999 
G1 X3.603 Y11.333 Z4.999 
G1 X3.797 Y11.333 Z4.999 
G1 X3.797 Y11.335 Z4.999 
G1 X3.603 Y11.335 Z4.999 
G1 X3.603 Y11.338 Z4.999 
G1 X3.797 Y11.338 Z4.999 
G1 X3.797 Y11.340 Z4.999 
G1 X3.603 Y11.340 Z4.999 
G1 X3.603 Y11.343 Z4.999 
G1 X3.797 Y11.343 Z4.999 
G1 X3.797 Y11.345 Z4.999 
G1 X3.603 Y11.345 Z4.999 
G1 X3.603 Y11.348 Z4.999 
G1 X3.797 Y11.348 Z4.999 
G1 X3.797 Y11.350 Z4.999 
G1 X3.603 Y11.350 Z4.999 
G1 X3.603 Y11.353 Z4.999 
G1 X3.797 Y11.353 Z4.999 
G1 X3.797 Y11.355 Z4.999 
G1 X3.603 Y11.355 Z4.999 
G1 X3.603 Y11.358 Z4.999 
G1 X3.797 Y11.358 Z4.999 
G1 X3.797 Y11.360 Z4.999 
G1 X3.603 Y11.360 Z4.999 
G1 X3.603 Y11.363 Z4.999 
G1 X3.797 Y11.363 Z4.999 
G1 X3.797 Y11.365 Z4.999 
G1 X3.603 Y11.365 Z4.999 
G1 X3.603 Y11.368 Z4.999 
G1 X3.797 Y11.368 Z4.999 
G1 X3.797 Y11.370 Z4.999 
G1 X3.603 Y11.370 Z4.999 
G1 X3.603 Y11.373 Z4.999 
G1 X3.797 Y11.373 Z4.999 
G1 X3.797 Y11.375 Z4.999 
G1 X3.603 Y11.375 Z4.999 
G1 X3.603 Y11.378 Z4.999 
G1 X3.797 Y11.378 Z4.999 
G1 X3.797 Y11.380 Z4.999 
G1 X3.603 Y11.380 Z4.999 
G1 X3.603 Y11.383 Z4.999 
G1 X3.797 Y11.383 Z4.999 
G1 X3.797 Y11.385 Z4.999 
G1 X3.603 Y11.385 Z4.999 
G1 X3.603 Y11.388 Z4.999 
G1 X3.797 Y11.388 Z4.999 
G1 X3.797 Y11.390 Z4.999 
G1 X3.603 Y11.390 Z4.999 
G1 X3.603 Y11.393 Z4.999 
G1 X3.797 Y11.393 Z4.999 
G1 X3.797 Y11.395 Z4.999 
G1 X3.603 Y11.395 Z4.999 
G1 X3.603 Y11.397 Z4.999 
G1 X3.797 Y11.398 Z4.999 
G0 Z10.001 
G0 Z10.001 
G0 X3.797 Y11.398 
G0 X7.403 Y11.203 
G0 X7.403 Y11.203 Z8.001 
G1 X7.403 Y11.203 Z4.999 
G1 X7.597 Y11.203 Z4.999 
G1 X7.597 Y11.205 Z4.999 
G1 X7.403 Y11.205 Z4.999 
G1 X7.403 Y11.208 Z4.999 
G1 X7.597 Y11.208 Z4.999 
G1 X7.597 Y11.210 Z4.999 
G1 X7.403 Y11.210 Z4.999 
G1 X7.403 Y11.213 Z4.999 
G1 X7.597 Y11.213 Z4.999 
G1 X7.597 Y11.215 Z4.999 
G1 X7.403 Y11.215 Z4.999 
G1 X7.403 Y11.218 Z4.999 
G1 X7.597 Y11.218 Z4.999 
G1 X7.597 Y11.220 Z4.999 
G1 X7.403 Y11.220 Z4.999 
G1 X7.403 Y11.223 Z4.999 
G1 X7.597 Y11.223 Z4.999 
G1 X7.597 Y11.225 Z4.999 
G1 X7.403 Y11.225 Z4.999 
G1 X7.403 Y11.228 Z4.999 
G1 X7.597 Y11.228 Z4.999 
G1 X7.597 Y11.230 Z4.999 
G1 X7.403 Y11.230 Z4.999 
G1 X7.403 Y11.233 Z4.999 
G1 X7.597 Y11.233 Z4.999 
G1 X7.597 Y11.235 Z4.999 
G1 X7.403 Y11.235 Z4.999 
G1 X7.403 Y11.238 Z4.999 
G1 X7.597 Y11.238 Z4.999 
G1 X7.597 Y11.240 Z4.999 
G1 X7.403 Y11.240 Z4.999 
G1 X7.403 Y11.243 Z4.999 
G1 X7.597 Y11.243 Z4.999 
G1 X7.597 Y11.245 Z4.999 
G1 X7.403 Y11.245 Z4.999 
G1 X7.403 Y11.248 Z4.999 
G1 X7.597 Y11.248 Z4.999 
G1 X7.597 Y11.250 Z4.999 
G1 X7.403 Y11.250 Z4.999 
G1 X7.403 Y11.253 Z4.999 
G1 X7.597 Y11.253 Z4.999 
G1 X7.597 Y11.255 Z4.999 
G1 X7.403 Y11.255 Z4.999 
G1 X7.403 Y11.258 Z4.999 
G1 X7.597 Y11.258 Z4.999 
G1 X7.597 Y11.260 Z4.999 
G1 X7.403 Y11.260 Z4.999 
G1 X7.403 Y11.263 Z4.999 
G1 X7.597 Y11.263 Z4.999 
G1 X7.597 Y11.265 Z4.999 
G1 X7.403 Y11.265 Z4.999 
G1 X7.403 Y11.268 Z4.999 
G1 X7.597 Y11.268 Z4.999 
G1 X7.597 Y11.270 Z4.999 
G1 X7.403 Y11.270 Z4.999 
G1 X7.403 Y11.273 Z4.999 
G1 X7.597 Y11.273 Z4.999 
G1 X7.597 Y11.275 Z4.999 
G1 X7.403 Y11.275 Z4.999 
G1 X7.403 Y11.278 Z4.999 
G1 X7.597 Y11.278 Z4.999 
G1 X7.597 Y11.280 Z4.999 
G1 X7.403 Y11.280 Z4.999 
G1 X7.403 Y11.283 Z4.999 
G1 X7.597 Y11.283 Z4.999 
G1 X7.597 Y11.285 Z4.999 
G1 X7.403 Y11.285 Z4.999 
G1 X7.403 Y11.288 Z4.999 
G1 X7.597 Y11.288 Z4.999 
G1 X7.597 Y11.290 Z4.999 
G1 X7.403 Y11.290 Z4.999 
G1 X7.403 Y11.293 Z4.999 
G1 X7.597 Y11.293 Z4.999 
G1 X7.597 Y11.295 Z4.999 
G1 X7.403 Y11.295 Z4.999 
G1 X7.403 Y11.298 Z4.999 
G1 X7.597 Y11.298 Z4.999 
G1 X7.597 Y11.300 Z4.999 
G1 X7.403 Y11.300 Z4.999 
G1 X7.403 Y11.303 Z4.999 
G1 X7.597 Y11.303 Z4.999 
G1 X7.597 Y11.305 Z4.999 
G1 X7.403 Y11.305 Z4.999 
G1 X7.403 Y11.308 Z4.999 
G1 X7.597 Y11.308 Z4.999 
G1 X7.597 Y11.310 Z4.999 
G1 X7.403 Y11.310 Z4.999 
G1 X7.403 Y11.313 Z4.999 
G1 X7.597 Y11.313 Z4.999 
G1 X7.597 Y11.315 Z4.999 
G1 X7.403 Y11.315 Z4.999 
G1 X7.403 Y11.318 Z4.999 
G1 X7.597 Y11.318 Z4.999 
G1 X7.597 Y11.320 Z4.999 
G1 X7.403 Y11.320 Z4.999 
G1 X7.403 Y11.323 Z4.999 
G1 X7.597 Y11.323 Z4.999 
G1 X7.597 Y11.325 Z4.999 
G1 X7.403 Y11.325 Z4.999 
G1 X7.403 Y11.328 Z4.999 
G1 X7.597 Y11.328 Z4.999 
G1 X7.597 Y11.330 Z4.999 
G1 X7.403 Y11.330 Z4.999 
G1 X7.403 Y11.333 Z4.999 
G1 X7.597 Y11.333 Z4.999 
G1 X7.597 Y11.335 Z4.999 
G1 X7.403 Y11.335 Z4.999 
G1 X7.403 Y11.338 Z4.999 
G1 X7.597 Y11.338 Z4.999 
G1 X7.597 Y11.340 Z4.999 
G1 X7.403 Y11.340 Z4.999 
G1 X7.403 Y11.343 Z4.999 
G1 X7.597 Y11.343 Z4.999 
G1 X7.597 Y11.345 Z4.999 
G1 X7.403 Y11.345 Z4.999 
G1 X7.403 Y11.348 Z4.999 
G1 X7.597 Y11.348 Z4.999 
G1 X7.597 Y11.350 Z4.999 
G1 X7.403 Y11.350 Z4.999 
G1 X7.403 Y11.353 Z4.999 
G1 X7.597 Y11.353 Z4.999 
G1 X7.597 Y11.355 Z4.999 
G1 X7.403 Y11.355 Z4.999 
G1 X7.403 Y11.358 Z4.999 
G1 X7.597 Y11.358 Z4.999 
G1 X7.597 Y11.360 Z4.999 
G1 X7.403 Y11.360 Z4.999 
G1 X7.403 Y11.363 Z4.999 
G1 X7.597 Y11.363 Z4.999 
G1 X7.597 Y11.365 Z4.999 
G1 X7.403 Y11.365 Z4.999 
G1 X7.403 Y11.368 Z4.999 
G1 X7.597 Y11.368 Z4.999 
G1 X7.597 Y11.370 Z4.999 
G1 X7.403 Y11.370 Z4.999 
G1 X7.403 Y11.373 Z4.999 
G1 X7.597 Y11.373 Z4.999 
G1 X7.597 Y11.375 Z4.999 
G1 X7.403 Y11.375 Z4.999 
G1 X7.403 Y11.378 Z4.999 
G1 X7.597 Y11.378 Z4.999 
G1 X7.597 Y11.380 Z4.999 
G1 X7.403 Y11.380 Z4.999 
G1 X7.403 Y11.383 Z4.999 
G1 X7.597 Y11.383 Z4.999 
G1 X7.597 Y11.385 Z4.999 
G1 X7.403 Y11.385 Z4.999 
G1 X7.403 Y11.388 Z4.999 
G1 X7.597 Y11.388 Z4.999 
G1 X7.597 Y11.390 Z4.999 
G1 X7.403 Y11.390 Z4.999 
G1 X7.403 Y11.393 Z4.999 
G1 X7.597 Y11.393 Z4.999 
G1 X7.597 Y11.395 Z4.999 
G1 X7.403 Y11.395 Z4.999 
G1 X7.403 Y11.397 Z4.999 
G1 X7.597 Y11.398 Z4.999 
G0 Z10.001 
G0 Z10.001 
G0 X7.597 Y11.398 
G0 Y7.597 
G0 Y7.597 Z8.001 
G1 X7.598 Y7.597 Z4.999 
G1 X7.403 Y7.597 Z4.999 
G1 X7.403 Y7.595 Z4.999 
G1 X7.598 Y7.595 Z4.999 
G1 X7.598 Y7.593 Z4.999 
G1 X7.403 Y7.593 Z4.999 
G1 X7.403 Y7.590 Z4.999 
G1 X7.598 Y7.590 Z4.999 
G1 X7.598 Y7.588 Z4.999 
G1 X7.403 Y7.588 Z4.999 
G1 X7.403 Y7.585 Z4.999 
G1 X7.598 Y7.585 Z4.999 
G1 X7.598 Y7.583 Z4.999 
G1 X7.403 Y7.583 Z4.999 
G1 X7.403 Y7.580 Z4.999 
G1 X7.598 Y7.580 Z4.999 
G1 X7.598 Y7.578 Z4.999 
G1 X7.403 Y7.578 Z4.999 
G1 X7.403 Y7.575 Z4.999 
G1 X7.598 Y7.575 Z4.999 
G1 X7.598 Y7.573 Z4.999 
G1 X7.403 Y7.573 Z4.999 
G1 X7.403 Y7.570 Z4.999 
G1 X7.598 Y7.570 Z4.999 
G1 X7.598 Y7.568 Z4.999 
G1 X7.403 Y7.568 Z4.999 
G1 X7.403 Y7.565 Z4.999 
G1 X7.598 Y7.565 Z4.999 
G1 X7.598 Y7.563 Z4.999 
G1 X7.403 Y7.563 Z4.999 
G1 X7.403 Y7.560 Z4.999 
G1 X7.598 Y7.560 Z4.999 
G1 X7.598 Y7.558 Z4.999 
G1 X7.403 Y7.558 Z4.999 
G1 X7.403 Y7.555 Z4.999 
G1 X7.598 Y7.555 Z4.999 
G1 X7.598 Y7.553 Z4.999 
G1 X7.403 Y7.553 Z4.999 
G1 X7.403 Y7.550 Z4.999 
G1 X7.598 Y7.550 Z4.999 
G1 X7.598 Y7.548 Z4.999 
G1 X7.403 Y7.548 Z4.999 
G1 X7.403 Y7.545 Z4.999 
G1 X7.598 Y7.545 Z4.999 
G1 X7.598 Y7.543 Z4.999 
G1 X7.403 Y7.543 Z4.999 
G1 X7.403 Y7.540 Z4.999 
G1 X7.598 Y7.540 Z4.999 
G1 X7.598 Y7.538 Z4.999 
G1 X7.403 Y7.538 Z4.999 
G1 X7.403 Y7.535 Z4.999 
G1 X7.598 Y7.535 Z4.999 
G1 X7.598 Y7.533 Z4.999 
G1 X7.403 Y7.533 Z4.999 
G1 X7.403 Y7.530 Z4.999 
G1 X7.598 Y7.530 Z4.999 
G1 X7.598 Y7.528 Z4.999 
G1 X7.403 Y7.528 Z4.999 
G1 X7.403 Y7.525 Z4.999 
G1 X7.598 Y7.525 Z4.999 
G1 X7.598 Y7.523 Z4.999 
G1 X7.403 Y7.523 Z4.999 
G1 X7.403 Y7.520 Z4.999 
G1 X7.598 Y7.520 Z4.999 
G1 X7.598 Y7.518 Z4.999 
G1 X7.403 Y7.518 Z4.999 
G1 X7.403 Y7.515 Z4.999 
G1 X7.598 Y7.515 Z4.999 
G1 X7.598 Y7.513 Z4.999 
G1 X7.403 Y7.513 Z4.999 
G1 X7.403 Y7.510 Z4.999 
G1 X7.598 Y7.510 Z4.999 
G1 X7.598 Y7.508 Z4.999 
G1 X7.403 Y7.508 Z4.999 
G1 X7.403 Y7.505 Z4.999 
G1 X7.598 Y7.505 Z4.999 
G1 X7.598 Y7.503 Z4.999 
G1 X7.403 Y7.503 Z4.999 
G1 X7.403 Y7.500 Z4.999 
G1 X7.598 Y7.500 Z4.999 
G1 X7.598 Y7.498 Z4.999 
G1 X7.403 Y7.498 Z4.999 
G1 X7.403 Y7.495 Z4.999 
G1 X7.598 Y7.495 Z4.999 
G1 X7.598 Y7.493 Z4.999 
G1 X7.403 Y7.493 Z4.999 
G1 X7.403 Y7.490 Z4.999 
G1 X7.598 Y7.490 Z4.999 
G1 X7.598 Y7.488 Z4.999 
G1 X7.403 Y7.488 Z4.999 
G1 X7.403 Y7.485 Z4.999 
G1 X7.598 Y7.485 Z4.999 
G1 X7.598 Y7.483 Z4.999 
G1 X7.403 Y7.483 Z4.999 
G1 X7.403 Y7.480 Z4.999 
G1 X7.598 Y7.480 Z4.999 
G1 X7.598 Y7.478 Z4.999 
G1 X7.403 Y7.478 Z4.999 
G1 X7.403 Y7.475 Z4.999 
G1 X7.598 Y7.475 Z4.999 
G1 X7.598 Y7.473 Z4.999 
G1 X7.403 Y7.473 Z4.999 
G1 X7.403 Y7.470 Z4.999 
G1 X7.598 Y7.470 Z4.999 
G1 X7.598 Y7.468 Z4.999 
G1 X7.403 Y7.468 Z4.999 
G1 X7.403 Y7.465 Z4.999 
G1 X7.598 Y7.465 Z4.999 
G1 X7.598 Y7.463 Z4.999 
G1 X7.403 Y7.463 Z4.999 
G1 X7.403 Y7.460 Z4.999 
G1 X7.598 Y7.460 Z4.999 
G1 X7.598 Y7.458 Z4.999 
G1 X7.403 Y7.458 Z4.999 
G1 X7.403 Y7.455 Z4.999 
G1 X7.598 Y7.455 Z4.999 
G1 X7.598 Y7.453 Z4.999 
G1 X7.403 Y7.453 Z4.999 
G1 X7.403 Y7.450 Z4.999 
G1 X7.598 Y7.450 Z4.999 
G1 X7.598 Y7.448 Z4.999 
G1 X7.403 Y7.448 Z4.999 
G1 X7.403 Y7.445 Z4.999 
G1 X7.598 Y7.445 Z4.999 
G1 X7.598 Y7.443 Z4.999 
G1 X7.403 Y7.443 Z4.999 
G1 X7.403 Y7.440 Z4.999 
G1 X7.598 Y7.440 Z4.999 
G1 X7.598 Y7.438 Z4.999 
G1 X7.403 Y7.438 Z4.999 
G1 X7.403 Y7.435 Z4.999 
G1 X7.598 Y7.435 Z4.999 
G1 X7.598 Y7.433 Z4.999 
G1 X7.403 Y7.433 Z4.999 
G1 X7.403 Y7.430 Z4.999 
G1 X7.598 Y7.430 Z4.999 
G1 X7.598 Y7.428 Z4.999 
G1 X7.403 Y7.428 Z4.999 
G1 X7.403 Y7.425 Z4.999 
G1 X7.598 Y7.425 Z4.999 
G1 X7.598 Y7.423 Z4.999 
G1 X7.403 Y7.423 Z4.999 
G1 X7.403 Y7.420 Z4.999 
G1 X7.598 Y7.420 Z4.999 
G1 X7.598 Y7.418 Z4.999 
G1 X7.403 Y7.418 Z4.999 
G1 X7.403 Y7.415 Z4.999 
G1 X7.598 Y7.415 Z4.999 
G1 X7.598 Y7.413 Z4.999 
G1 X7.403 Y7.413 Z4.999 
G1 X7.403 Y7.410 Z4.999 
G1 X7.598 Y7.410 Z4.999 
G1 X7.598 Y7.408 Z4.999 
G1 X7.403 Y7.408 Z4.999 
G1 X7.403 Y7.405 Z4.999 
G1 X7.598 Y7.405 Z4.999 
G1 X7.598 Y7.403 Z4.999 
G1 X7.403 Y7.403 Z4.999 
G0 Z10.001 
G0 Z10.001 
G0 X7.403 Y7.403 
G0 X7.598 Y3.797 
G0 X7.598 Y3.797 Z8.001 
G1 X7.598 Y3.797 Z4.999 
G1 X7.403 Y3.797 Z4.999 
G1 X7.403 Y3.795 Z4.999 
G1 X7.598 Y3.795 Z4.999 
G1 X7.598 Y3.793 Z4.999 
G1 X7.403 Y3.793 Z4.999 
G1 X7.403 Y3.790 Z4.999 
G1 X7.598 Y3.790 Z4.999 
G1 X7.598 Y3.788 Z4.999 
G1 X7.403 Y3.788 Z4.999 
G1 X7.403 Y3.785 Z4.999 
G1 X7.598 Y3.785 Z4.999 
G1 X7.598 Y3.783 Z4.999 
G1 X7.403 Y3.783 Z4.999 
G1 X7.403 Y3.780 Z4.999 
G1 X7.598 Y3.780 Z4.999 
G1 X7.598 Y3.778 Z4.999 
G1 X7.403 Y3.778 Z4.999 
G1 X7.403 Y3.775 Z4.999 
G1 X7.598 Y3.775 Z4.999 
G1 X7.598 Y3.773 Z4.999 
G1 X7.403 Y3.773 Z4.999 
G1 X7.403 Y3.770 Z4.999 
G1 X7.598 Y3.770 Z4.999 
G1 X7.598 Y3.768 Z4.999 
G1 X7.403 Y3.768 Z4.999 
G1 X7.403 Y3.765 Z4.999 
G1 X7.598 Y3.765 Z4.999 
G1 X7.598 Y3.763 Z4.999 
G1 X7.403 Y3.763 Z4.999 
G1 X7.403 Y3.760 Z4.999 
G1 X7.598 Y3.760 Z4.999 
G1 X7.598 Y3.758 Z4.999 
G1 X7.403 Y3.758 Z4.999 
G1 X7.403 Y3.755 Z4.999 
G1 X7.598 Y3.755 Z4.999 
G1 X7.598 Y3.753 Z4.999 
G1 X7.403 Y3.753 Z4.999 
G1 X7.403 Y3.750 Z4.999 
G1 X7.598 Y3.750 Z4.999 
G1 X7.598 Y3.748 Z4.999 
G1 X7.403 Y3.748 Z4.999 
G1 X7.403 Y3.745 Z4.999 
G1 X7.598 Y3.745 Z4.999 
G1 X7.598 Y3.743 Z4.999 
G1 X7.403 Y3.743 Z4.999 
G1 X7.403 Y3.740 Z4.999 
G1 X7.598 Y3.740 Z4.999 
G1 X7.598 Y3.738 Z4.999 
G1 X7.403 Y3.738 Z4.999 
G1 X7.403 Y3.735 Z4.999 
G1 X7.598 Y3.735 Z4.999 
G1 X7.598 Y3.733 Z4.999 
G1 X7.403 Y3.733 Z4.999 
G1 X7.403 Y3.730 Z4.999 
G1 X7.598 Y3.730 Z4.999 
G1 X7.598 Y3.728 Z4.999 
G1 X7.403 Y3.728 Z4.999 
G1 X7.403 Y3.725 Z4.999 
G1 X7.598 Y3.725 Z4.999 
G1 X7.598 Y3.723 Z4.999 
G1 X7.403 Y3.723 Z4.999 
G1 X7.403 Y3.720 Z4.999 
G1 X7.598 Y3.720 Z4.999 
G1 X7.598 Y3.718 Z4.999 
G1 X7.403 Y3.718 Z4.999 
G1 X7.403 Y3.715 Z4.999 
G1 X7.598 Y3.715 Z4.999 
G1 X7.598 Y3.713 Z4.999 
G1 X7.403 Y3.713 Z4.999 
G1 X7.403 Y3.710 Z4.999 
G1 X7.598 Y3.710 Z4.999 
G1 X7.598 Y3.708 Z4.999 
G1 X7.403 Y3.708 Z4.999 
G1 X7.403 Y3.705 Z4.999 
G1 X7.598 Y3.705 Z4.999 
G1 X7.598 Y3.703 Z4.999 
G1 X7.403 Y3.703 Z4.999 
G1 X7.403 Y3.700 Z4.999 
G1 X7.598 Y3.700 Z4.999 
G1 X7.598 Y3.698 Z4.999 
G1 X7.403 Y3.698 Z4.999 
G1 X7.403 Y3.695 Z4.999 
G1 X7.598 Y3.695 Z4.999 
G1 X7.598 Y3.693 Z4.999 
G1 X7.403 Y3.693 Z4.999 
G1 X7.403 Y3.690 Z4.999 
G1 X7.598 Y3.690 Z4.999 
G1 X7.598 Y3.688 Z4.999 
G1 X7.403 Y3.688 Z4.999 
G1 X7.403 Y3.685 Z4.999 
G1 X7.598 Y3.685 Z4.999 
G1 X7.598 Y3.683 Z4.999 
G1 X7.403 Y3.683 Z4.999 
G1 X7.403 Y3.680 Z4.999 
G1 X7.598 Y3.680 Z4.999 
G1 X7.598 Y3.678 Z4.999 
G1 X7.403 Y3.678 Z4.999 
G1 X7.403 Y3.675 Z4.999 
G1 X7.598 Y3.675 Z4.999 
G1 X7.598 Y3.673 Z4.999 
G1 X7.403 Y3.673 Z4.999 
G1 X7.403 Y3.670 Z4.999 
G1 X7.598 Y3.670 Z4.999 
G1 X7.598 Y3.668 Z4.999 
G1 X7.403 Y3.668 Z4.999 
G1 X7.403 Y3.665 Z4.999 
G1 X7.598 Y3.665 Z4.999 
G1 X7.598 Y3.663 Z4.999 
G1 X7.403 Y3.663 Z4.999 
G1 X7.403 Y3.660 Z4.999 
G1 X7.598 Y3.660 Z4.999 
G1 X7.598 Y3.658 Z4.999 
G1 X7.403 Y3.658 Z4.999 
G1 X7.403 Y3.655 Z4.999 
G1 X7.598 Y3.655 Z4.999 
G1 X7.598 Y3.653 Z4.999 
G1 X7.403 Y3.653 Z4.999 
G1 X7.403 Y3.650 Z4.999 
G1 X7.598 Y3.650 Z4.999 
G1 X7.598 Y3.648 Z4.999 
G1 X7.403 Y3.648 Z4.999 
G1 X7.403 Y3.645 Z4.999 
G1 X7.598 Y3.645 Z4.999 
G1 X7.598 Y3.643 Z4.999 
G1 X7.403 Y3.643 Z4.999 
G1 X7.403 Y3.640 Z4.999 
G1 X7.598 Y3.640 Z4.999 
G1 X7.598 Y3.638 Z4.999 
G1 X7.403 Y3.638 Z4.999 
G1 X7.403 Y3.635 Z4.999 
G1 X7.598 Y3.635 Z4.999 
G1 X7.598 Y3.633 Z4.999 
G1 X7.403 Y3.633 Z4.999 
G1 X7.403 Y3.630 Z4.999 
G1 X7.598 Y3.630 Z4.999 
G1 X7.598 Y3.628 Z4.999 
G1 X7.403 Y3.628 Z4.999 
G1 X7.403 Y3.625 Z4.999 
G1 X7.598 Y3.625 Z4.999 
G1 X7.598 Y3.623 Z4.999 
G1 X7.403 Y3.623 Z4.999 
G1 X7.403 Y3.620 Z4.999 
G1 X7.598 Y3.620 Z4.999 
G1 X7.598 Y3.618 Z4.999 
G1 X7.403 Y3.618 Z4.999 
G1 X7.403 Y3.615 Z4.999 
G1 X7.598 Y3.615 Z4.999 
G1 X7.598 Y3.613 Z4.999 
G1 X7.403 Y3.613 Z4.999 
G1 X7.403 Y3.610 Z4.999 
G1 X7.598 Y3.610 Z4.999 
G1 X7.598 Y3.608 Z4.999 
G1 X7.403 Y3.608 Z4.999 
G1 X7.403 Y3.605 Z4.999 
G1 X7.598 Y3.605 Z4.999 
G1 X7.598 Y3.603 Z4.999 
G1 X7.403 Y3.603 Z4.999 
G0 Z10.001 
G0 Z10.001 
G0 X7.403 Y3.603 
G0 X11.203 
G0 X11.203 Z8.001 
G1 X11.203 Y3.603 Z4.999 
G1 X11.398 Y3.603 Z4.999 
G1 X11.398 Y3.605 Z4.999 
G1 X11.203 Y3.605 Z4.999 
G1 X11.203 Y3.608 Z4.999 
G1 X11.398 Y3.608 Z4.999 
G1 X11.398 Y3.610 Z4.999 
G1 X11.203 Y3.610 Z4.999 
G1 X11.203 Y3.613 Z4.999 
G1 X11.398 Y3.613 Z4.999 
G1 X11.398 Y3.615 Z4.999 
G1 X11.203 Y3.615 Z4.999 
G1 X11.203 Y3.618 Z4.999 
G1 X11.398 Y3.618 Z4.999 
G1 X11.398 Y3.620 Z4.999 
G1 X11.203 Y3.620 Z4.999 
G1 X11.203 Y3.623 Z4.999 
G1 X11.398 Y3.623 Z4.999 
G1 X11.398 Y3.625 Z4.999 
G1 X11.203 Y3.625 Z4.999 
G1 X11.203 Y3.628 Z4.999 
G1 X11.398 Y3.628 Z4.999 
G1 X11.398 Y3.630 Z4.999 
G1 X11.203 Y3.630 Z4.999 
G1 X11.203 Y3.633 Z4.999 
G1 X11.398 Y3.633 Z4.999 
G1 X11.398 Y3.635 Z4.999 
G1 X11.203 Y3.635 Z4.999 
G1 X11.203 Y3.638 Z4.999 
G1 X11.398 Y3.638 Z4.999 
G1 X11.398 Y3.640 Z4.999 
G1 X11.203 Y3.640 Z4.999 
G1 X11.203 Y3.643 Z4.999 
G1 X11.398 Y3.643 Z4.999 
G1 X11.398 Y3.645 Z4.999 
G1 X11.203 Y3.645 Z4.999 
G1 X11.203 Y3.648 Z4.999 
G1 X11.398 Y3.648 Z4.999 
G1 X11.398 Y3.650 Z4.999 
G1 X11.203 Y3.650 Z4.999 
G1 X11.203 Y3.653 Z4.999 
G1 X11.398 Y3.653 Z4.999 
G1 X11.398 Y3.655 Z4.999 
G1 X11.203 Y3.655 Z4.999 
G1 X11.203 Y3.658 Z4.999 
G1 X11.398 Y3.658 Z4.999 
G1 X11.398 Y3.660 Z4.999 
G1 X11.203 Y3.660 Z4.999 
G1 X11.203 Y3.663 Z4.999 
G1 X11.398 Y3.663 Z4.999 
G1 X11.398 Y3.665 Z4.999 
G1 X11.203 Y3.665 Z4.999 
G1 X11.203 Y3.668 Z4.999 
G1 X11.398 Y3.668 Z4.999 
G1 X11.398 Y3.670 Z4.999 
G1 X11.203 Y3.670 Z4.999 
G1 X11.203 Y3.673 Z4.999 
G1 X11.398 Y3.673 Z4.999 
G1 X11.398 Y3.675 Z4.999 
G1 X11.203 Y3.675 Z4.999 
G1 X11.203 Y3.678 Z4.999 
G1 X11.398 Y3.678 Z4.999 
G1 X11.398 Y3.680 Z4.999 
G1 X11.203 Y3.680 Z4.999 
G1 X11.203 Y3.683 Z4.999 
G1 X11.398 Y3.683 Z4.999 
G1 X11.398 Y3.685 Z4.999 
G1 X11.203 Y3.685 Z4.999 
G1 X11.203 Y3.688 Z4.999 
G1 X11.398 Y3.688 Z4.999 
G1 X11.398 Y3.690 Z4.999 
G1 X11.203 Y3.690 Z4.999 
G1 X11.203 Y3.693 Z4.999 
G1 X11.398 Y3.693 Z4.999 
G1 X11.398 Y3.695 Z4.999 
G1 X11.203 Y3.695 Z4.999 
G1 X11.203 Y3.698 Z4.999 
G1 X11.398 Y3.698 Z4.999 
G1 X11.397 Y3.700 Z4.999 
G1 X11.203 Y3.700 Z4.999 
G1 X11.203 Y3.703 Z4.999 
G1 X11.397 Y3.703 Z4.999 
G1 X11.397 Y3.705 Z4.999 
G1 X11.203 Y3.705 Z4.999 
G1 X11.203 Y3.708 Z4.999 
G1 X11.397 Y3.708 Z4.999 
G1 X11.397 Y3.710 Z4.999 
G1 X11.203 Y3.710 Z4.999 
G1 X11.203 Y3.713 Z4.999 
G1 X11.397 Y3.713 Z4.999 
G1 X11.397 Y3.715 Z4.999 
G1 X11.203 Y3.715 Z4.999 
G1 X11.203 Y3.718 Z4.999 
G1 X11.397 Y3.718 Z4.999 
G1 X11.397 Y3.720 Z4.999 
G1 X11.203 Y3.720 Z4.999 
G1 X11.203 Y3.723 Z4.999 
G1 X11.397 Y3.723 Z4.999 
G1 X11.397 Y3.725 Z4.999 
G1 X11.203 Y3.725 Z4.999 
G1 X11.203 Y3.728 Z4.999 
G1 X11.397 Y3.728 Z4.999 
G1 X11.397 Y3.730 Z4.999 
G1 X11.203 Y3.730 Z4.999 
G1 X11.203 Y3.733 Z4.999 
G1 X11.397 Y3.733 Z4.999 
G1 X11.397 Y3.735 Z4.999 
G1 X11.203 Y3.735 Z4.999 
G1 X11.203 Y3.738 Z4.999 
G1 X11.397 Y3.738 Z4.999 
G1 X11.397 Y3.740 Z4.999 
G1 X11.203 Y3.740 Z4.999 
G1 X11.203 Y3.743 Z4.999 
G1 X11.397 Y3.743 Z4.999 
G1 X11.397 Y3.745 Z4.999 
G1 X11.203 Y3.745 Z4.999 
G1 X11.203 Y3.748 Z4.999 
G1 X11.397 Y3.748 Z4.999 
G1 X11.397 Y3.750 Z4.999 
G1 X11.203 Y3.750 Z4.999 
G1 X11.203 Y3.753 Z4.999 
G1 X11.397 Y3.753 Z4.999 
G1 X11.397 Y3.755 Z4.999 
G1 X11.203 Y3.755 Z4.999 
G1 X11.203 Y3.758 Z4.999 
G1 X11.397 Y3.758 Z4.999 
G1 X11.397 Y3.760 Z4.999 
G1 X11.203 Y3.760 Z4.999 
G1 X11.203 Y3.763 Z4.999 
G1 X11.397 Y3.763 Z4.999 
G1 X11.397 Y3.765 Z4.999 
G1 X11.203 Y3.765 Z4.999 
G1 X11.203 Y3.768 Z4.999 
G1 X11.397 Y3.768 Z4.999 
G1 X11.397 Y3.770 Z4.999 
G1 X11.203 Y3.770 Z4.999 
G1 X11.203 Y3.773 Z4.999 
G1 X11.397 Y3.773 Z4.999 
G1 X11.397 Y3.775 Z4.999 
G1 X11.203 Y3.775 Z4.999 
G1 X11.203 Y3.778 Z4.999 
G1 X11.397 Y3.778 Z4.999 
G1 X11.397 Y3.780 Z4.999 
G1 X11.203 Y3.780 Z4.999 
G1 X11.203 Y3.783 Z4.999 
G1 X11.397 Y3.783 Z4.999 
G1 X11.397 Y3.785 Z4.999 
G1 X11.203 Y3.785 Z4.999 
G1 X11.203 Y3.788 Z4.999 
G1 X11.397 Y3.788 Z4.999 
G1 X11.397 Y3.790 Z4.999 
G1 X11.203 Y3.790 Z4.999 
G1 X11.203 Y3.793 Z4.999 
G1 X11.397 Y3.793 Z4.999 
G1 X11.397 Y3.795 Z4.999 
G1 X11.203 Y3.795 Z4.999 
G1 X11.203 Y3.797 Z4.999 
G1 X11.397 Y3.797 Z4.999 
G0 Z10.001 
G0 Z10.001 
G0 X11.397 Y3.797 
G0 X11.203 Y7.403 
G0 X11.203 Y7.403 Z8.001 
G1 X11.203 Y7.403 Z4.999 
G1 X11.398 Y7.403 Z4.999 
G1 X11.398 Y7.405 Z4.999 
G1 X11.203 Y7.405 Z4.999 
G1 X11.203 Y7.408 Z4.999 
G1 X11.398 Y7.408 Z4.999 
G1 X11.398 Y7.410 Z4.999 
G1 X11.203 Y7.410 Z4.999 
G1 X11.203 Y7.413 Z4.999 
G1 X11.398 Y7.413 Z4.999 
G1 X11.398 Y7.415 Z4.999 
G1 X11.203 Y7.415 Z4.999 
G1 X11.203 Y7.418 Z4.999 
G1 X11.398 Y7.418 Z4.999 
G1 X11.398 Y7.420 Z4.999 
G1 X11.203 Y7.420 Z4.999 
G1 X11.203 Y7.423 Z4.999 
G1 X11.398 Y7.423 Z4.999 
G1 X11.398 Y7.425 Z4.999 
G1 X11.203 Y7.425 Z4.999 
G1 X11.203 Y7.428 Z4.999 
G1 X11.398 Y7.428 Z4.999 
G1 X11.398 Y7.430 Z4.999 
G1 X11.203 Y7.430 Z4.999 
G1 X11.203 Y7.433 Z4.999 
G1 X11.398 Y7.433 Z4.999 
G1 X11.398 Y7.435 Z4.999 
G1 X11.203 Y7.435 Z4.999 
G1 X11.203 Y7.438 Z4.999 
G1 X11.398 Y7.438 Z4.999 
G1 X11.398 Y7.440 Z4.999 
G1 X11.203 Y7.440 Z4.999 
G1 X11.203 Y7.443 Z4.999 
G1 X11.398 Y7.443 Z4.999 
G1 X11.398 Y7.445 Z4.999 
G1 X11.203 Y7.445 Z4.999 
G1 X11.203 Y7.448 Z4.999 
G1 X11.398 Y7.448 Z4.999 
G1 X11.398 Y7.450 Z4.999 
G1 X11.203 Y7.450 Z4.999 
G1 X11.203 Y7.453 Z4.999 
G1 X11.398 Y7.453 Z4.999 
G1 X11.398 Y7.455 Z4.999 
G1 X11.203 Y7.455 Z4.999 
G1 X11.203 Y7.458 Z4.999 
G1 X11.398 Y7.458 Z4.999 
G1 X11.398 Y7.460 Z4.999 
G1 X11.203 Y7.460 Z4.999 
G1 X11.203 Y7.463 Z4.999 
G1 X11.398 Y7.463 Z4.999 
G1 X11.398 Y7.465 Z4.999 
G1 X11.203 Y7.465 Z4.999 
G1 X11.203 Y7.468 Z4.999 
G1 X11.398 Y7.468 Z4.999 
G1 X11.398 Y7.470 Z4.999 
G1 X11.203 Y7.470 Z4.999 
G1 X11.203 Y7.473 Z4.999 
G1 X11.398 Y7.473 Z4.999 
G1 X11.398 Y7.475 Z4.999 
G1 X11.203 Y7.475 Z4.999 
G1 X11.203 Y7.478 Z4.999 
G1 X11.398 Y7.478 Z4.999 
G1 X11.398 Y7.480 Z4.999 
G1 X11.203 Y7.480 Z4.999 
G1 X11.203 Y7.483 Z4.999 
G1 X11.398 Y7.483 Z4.999 
G1 X11.398 Y7.485 Z4.999 
G1 X11.203 Y7.485 Z4.999 
G1 X11.203 Y7.488 Z4.999 
G1 X11.398 Y7.488 Z4.999 
G1 X11.398 Y7.490 Z4.999 
G1 X11.203 Y7.490 Z4.999 
G1 X11.203 Y7.493 Z4.999 
G1 X11.398 Y7.493 Z4.999 
G1 X11.398 Y7.495 Z4.999 
G1 X11.203 Y7.495 Z4.999 
G1 X11.203 Y7.498 Z4.999 
G1 X11.398 Y7.498 Z4.999 
G1 X11.397 Y7.500 Z4.999 
G1 X11.203 Y7.500 Z4.999 
G1 X11.203 Y7.503 Z4.999 
G1 X11.397 Y7.503 Z4.999 
G1 X11.397 Y7.505 Z4.999 
G1 X11.203 Y7.505 Z4.999 
G1 X11.203 Y7.508 Z4.999 
G1 X11.397 Y7.508 Z4.999 
G1 X11.397 Y7.510 Z4.999 
G1 X11.203 Y7.510 Z4.999 
G1 X11.203 Y7.513 Z4.999 
G1 X11.397 Y7.513 Z4.999 
G1 X11.397 Y7.515 Z4.999 
G1 X11.203 Y7.515 Z4.999 
G1 X11.203 Y7.518 Z4.999 
G1 X11.397 Y7.518 Z4.999 
G1 X11.397 Y7.520 Z4.999 
G1 X11.203 Y7.520 Z4.999 
G1 X11.203 Y7.523 Z4.999 
G1 X11.397 Y7.523 Z4.999 
G1 X11.397 Y7.525 Z4.999 
G1 X11.203 Y7.525 Z4.999 
G1 X11.203 Y7.528 Z4.999 
G1 X11.397 Y7.528 Z4.999 
G1 X11.397 Y7.530 Z4.999 
G1 X11.203 Y7.530 Z4.999 
G1 X11.203 Y7.533 Z4.999 
G1 X11.397 Y7.533 Z4.999 
G1 X11.397 Y7.535 Z4.999 
G1 X11.203 Y7.535 Z4.999 
G1 X11.203 Y7.538 Z4.999 
G1 X11.397 Y7.538 Z4.999 
G1 X11.397 Y7.540 Z4.999 
G1 X11.203 Y7.540 Z4.999 
G1 X11.203 Y7.543 Z4.999 
G1 X11.397 Y7.543 Z4.999 
G1 X11.397 Y7.545 Z4.999 
G1 X11.203 Y7.545 Z4.999 
G1 X11.203 Y7.548 Z4.999 
G1 X11.397 Y7.548 Z4.999 
G1 X11.397 Y7.550 Z4.999 
G1 X11.203 Y7.550 Z4.999 
G1 X11.203 Y7.553 Z4.999 
G1 X11.397 Y7.553 Z4.999 
G1 X11.397 Y7.555 Z4.999 
G1 X11.203 Y7.555 Z4.999 
G1 X11.203 Y7.558 Z4.999 
G1 X11.397 Y7.558 Z4.999 
G1 X11.397 Y7.560 Z4.999 
G1 X11.203 Y7.560 Z4.999 
G1 X11.203 Y7.563 Z4.999 
G1 X11.397 Y7.563 Z4.999 
G1 X11.397 Y7.565 Z4.999 
G1 X11.203 Y7.565 Z4.999 
G1 X11.203 Y7.568 Z4.999 
G1 X11.397 Y7.568 Z4.999 
G1 X11.397 Y7.570 Z4.999 
G1 X11.203 Y7.570 Z4.999 
G1 X11.203 Y7.573 Z4.999 
G1 X11.397 Y7.573 Z4.999 
G1 X11.397 Y7.575 Z4.999 
G1 X11.203 Y7.575 Z4.999 
G1 X11.203 Y7.578 Z4.999 
G1 X11.397 Y7.578 Z4.999 
G1 X11.397 Y7.580 Z4.999 
G1 X11.203 Y7.580 Z4.999 
G1 X11.203 Y7.583 Z4.999 
G1 X11.397 Y7.583 Z4.999 
G1 X11.397 Y7.585 Z4.999 
G1 X11.203 Y7.585 Z4.999 
G1 X11.203 Y7.588 Z4.999 
G1 X11.397 Y7.588 Z4.999 
G1 X11.397 Y7.590 Z4.999 
G1 X11.203 Y7.590 Z4.999 
G1 X11.203 Y7.593 Z4.999 
G1 X11.397 Y7.593 Z4.999 
G1 X11.397 Y7.595 Z4.999 
G1 X11.203 Y7.595 Z4.999 
G1 X11.203 Y7.597 Z4.999 
G1 X11.397 Y7.597 Z4.999 
G0 Z10.001 
G0 Z10.001 
G0 X11.397 Y7.597 
G0 X11.203 Y11.203 
G0 X11.203 Y11.203 Z8.001 
G1 X11.203 Y11.203 Z4.999 
G1 X11.398 Y11.203 Z4.999 
G1 X11.398 Y11.205 Z4.999 
G1 X11.203 Y11.205 Z4.999 
G1 X11.203 Y11.208 Z4.999 
G1 X11.398 Y11.208 Z4.999 
G1 X11.398 Y11.210 Z4.999 
G1 X11.203 Y11.210 Z4.999 
G1 X11.203 Y11.213 Z4.999 
G1 X11.398 Y11.213 Z4.999 
G1 X11.398 Y11.215 Z4.999 
G1 X11.203 Y11.215 Z4.999 
G1 X11.203 Y11.218 Z4.999 
G1 X11.398 Y11.218 Z4.999 
G1 X11.398 Y11.220 Z4.999 
G1 X11.203 Y11.220 Z4.999 
G1 X11.203 Y11.223 Z4.999 
G1 X11.398 Y11.223 Z4.999 
G1 X11.398 Y11.225 Z4.999 
G1 X11.203 Y11.225 Z4.999 
G1 X11.203 Y11.228 Z4.999 
G1 X11.398 Y11.228 Z4.999 
G1 X11.398 Y11.230 Z4.999 
G1 X11.203 Y11.230 Z4.999 
G1 X11.203 Y11.233 Z4.999 
G1 X11.398 Y11.233 Z4.999 
G1 X11.398 Y11.235 Z4.999 
G1 X11.203 Y11.235 Z4.999 
G1 X11.203 Y11.238 Z4.999 
G1 X11.398 Y11.238 Z4.999 
G1 X11.398 Y11.240 Z4.999 
G1 X11.203 Y11.240 Z4.999 
G1 X11.203 Y11.243 Z4.999 
G1 X11.398 Y11.243 Z4.999 
G1 X11.398 Y11.245 Z4.999 
G1 X11.203 Y11.245 Z4.999 
G1 X11.203 Y11.248 Z4.999 
G1 X11.398 Y11.248 Z4.999 
G1 X11.398 Y11.250 Z4.999 
G1 X11.203 Y11.250 Z4.999 
G1 X11.203 Y11.253 Z4.999 
G1 X11.398 Y11.253 Z4.999 
G1 X11.398 Y11.255 Z4.999 
G1 X11.203 Y11.255 Z4.999 
G1 X11.203 Y11.258 Z4.999 
G1 X11.398 Y11.258 Z4.999 
G1 X11.398 Y11.260 Z4.999 
G1 X11.203 Y11.260 Z4.999 
G1 X11.203 Y11.263 Z4.999 
G1 X11.398 Y11.263 Z4.999 
G1 X11.398 Y11.265 Z4.999 
G1 X11.203 Y11.265 Z4.999 
G1 X11.203 Y11.268 Z4.999 
G1 X11.398 Y11.268 Z4.999 
G1 X11.398 Y11.270 Z4.999 
G1 X11.203 Y11.270 Z4.999 
G1 X11.203 Y11.273 Z4.999 
G1 X11.398 Y11.273 Z4.999 
G1 X11.398 Y11.275 Z4.999 
G1 X11.203 Y11.275 Z4.999 
G1 X11.203 Y11.278 Z4.999 
G1 X11.398 Y11.278 Z4.999 
G1 X11.398 Y11.280 Z4.999 
G1 X11.203 Y11.280 Z4.999 
G1 X11.203 Y11.283 Z4.999 
G1 X11.398 Y11.283 Z4.999 
G1 X11.398 Y11.285 Z4.999 
G1 X11.203 Y11.285 Z4.999 
G1 X11.203 Y11.288 Z4.999 
G1 X11.398 Y11.288 Z4.999 
G1 X11.398 Y11.290 Z4.999 
G1 X11.203 Y11.290 Z4.999 
G1 X11.203 Y11.293 Z4.999 
G1 X11.398 Y11.293 Z4.999 
G1 X11.398 Y11.295 Z4.999 
G1 X11.203 Y11.295 Z4.999 
G1 X11.203 Y11.298 Z4.999 
G1 X11.398 Y11.298 Z4.999 
G1 X11.397 Y11.300 Z4.999 
G1 X11.203 Y11.300 Z4.999 
G1 X11.203 Y11.303 Z4.999 
G1 X11.397 Y11.303 Z4.999 
G1 X11.397 Y11.305 Z4.999 
G1 X11.203 Y11.305 Z4.999 
G1 X11.203 Y11.308 Z4.999 
G1 X11.397 Y11.308 Z4.999 
G1 X11.397 Y11.310 Z4.999 
G1 X11.203 Y11.310 Z4.999 
G1 X11.203 Y11.313 Z4.999 
G1 X11.397 Y11.313 Z4.999 
G1 X11.397 Y11.315 Z4.999 
G1 X11.203 Y11.315 Z4.999 
G1 X11.203 Y11.318 Z4.999 
G1 X11.397 Y11.318 Z4.999 
G1 X11.397 Y11.320 Z4.999 
G1 X11.203 Y11.320 Z4.999 
G1 X11.203 Y11.323 Z4.999 
G1 X11.397 Y11.323 Z4.999 
G1 X11.397 Y11.325 Z4.999 
G1 X11.203 Y11.325 Z4.999 
G1 X11.203 Y11.328 Z4.999 
G1 X11.397 Y11.328 Z4.999 
G1 X11.397 Y11.330 Z4.999 
G1 X11.203 Y11.330 Z4.999 
G1 X11.203 Y11.333 Z4.999 
G1 X11.397 Y11.333 Z4.999 
G1 X11.397 Y11.335 Z4.999 
G1 X11.203 Y11.335 Z4.999 
G1 X11.203 Y11.338 Z4.999 
G1 X11.397 Y11.338 Z4.999 
G1 X11.397 Y11.340 Z4.999 
G1 X11.203 Y11.340 Z4.999 
G1 X11.203 Y11.343 Z4.999 
G1 X11.397 Y11.343 Z4.999 
G1 X11.397 Y11.345 Z4.999 
G1 X11.203 Y11.345 Z4.999 
G1 X11.203 Y11.348 Z4.999 
G1 X11.397 Y11.348 Z4.999 
G1 X11.397 Y11.350 Z4.999 
G1 X11.203 Y11.350 Z4.999 
G1 X11.203 Y11.353 Z4.999 
G1 X11.397 Y11.353 Z4.999 
G1 X11.397 Y11.355 Z4.999 
G1 X11.203 Y11.355 Z4.999 
G1 X11.203 Y11.358 Z4.999 
G1 X11.397 Y11.358 Z4.999 
G1 X11.397 Y11.360 Z4.999 
G1 X11.203 Y11.360 Z4.999 
G1 X11.203 Y11.363 Z4.999 
G1 X11.397 Y11.363 Z4.999 
G1 X11.397 Y11.365 Z4.999 
G1 X11.203 Y11.365 Z4.999 
G1 X11.203 Y11.368 Z4.999 
G1 X11.397 Y11.368 Z4.999 
G1 X11.397 Y11.370 Z4.999 
G1 X11.203 Y11.370 Z4.999 
G1 X11.203 Y11.373 Z4.999 
G1 X11.397 Y11.373 Z4.999 
G1 X11.397 Y11.375 Z4.999 
G1 X11.203 Y11.375 Z4.999 
G1 X11.203 Y11.378 Z4.999 
G1 X11.397 Y11.378 Z4.999 
G1 X11.397 Y11.380 Z4.999 
G1 X11.203 Y11.380 Z4.999 
G1 X11.203 Y11.383 Z4.999 
G1 X11.397 Y11.383 Z4.999 
G1 X11.397 Y11.385 Z4.999 
G1 X11.203 Y11.385 Z4.999 
G1 X11.203 Y11.388 Z4.999 
G1 X11.397 Y11.388 Z4.999 
G1 X11.397 Y11.390 Z4.999 
G1 X11.203 Y11.390 Z4.999 
G1 X11.203 Y11.393 Z4.999 
G1 X11.397 Y11.393 Z4.999 
G1 X11.397 Y11.395 Z4.999 
G1 X11.203 Y11.395 Z4.999 
G1 X11.203 Y11.397 Z4.999 
G1 X11.397 Y11.398 Z4.999 
G0 Z10.001 
G0 Z10.001 
(finish operation: Pocket_Shape)
(begin postamble)
M05
G17 G54 G90 G80 G40
M2
