(Exported by FreeCAD)
(Post Processor: script_module)
(Output Time:2025-06-10 16:56:47.226304)
(begin preamble)
G17 G54 G40 G49 G80 G90
G21
(begin operation: Fixture)
(machine units: mm/min)
G54 
(finish operation: Fixture)
(begin operation: TC: Default Tool)
(machine units: mm/min)
(TC: Default Tool) 
M5
M6 T1 
G43 H1 
(finish operation: TC: Default Tool)
(begin operation: Pocket_Shape)
(machine units: mm/min)
(Pocket_Shape) 
G0 Z10.001 
G0 X2.169 Y2.169 
G0 Z8.001 
G1 X2.169 Y2.169 Z4.996 
G1 X1.974 Y2.169 Z4.996 
G1 X1.974 Y2.166 Z4.996 
G1 X2.169 Y2.166 Z4.996 
G1 X2.169 Y2.164 Z4.996 
G1 X1.974 Y2.164 Z4.996 
G1 X1.974 Y2.161 Z4.996 
G1 X2.169 Y2.161 Z4.996 
G1 X2.169 Y2.159 Z4.996 
G1 X1.974 Y2.159 Z4.996 
G1 X1.974 Y2.156 Z4.996 
G1 X2.169 Y2.156 Z4.996 
G1 X2.169 Y2.154 Z4.996 
G1 X1.974 Y2.154 Z4.996 
G1 X1.974 Y2.151 Z4.996 
G1 X2.169 Y2.151 Z4.996 
G1 X2.169 Y2.149 Z4.996 
G1 X1.974 Y2.149 Z4.996 
G1 X1.974 Y2.146 Z4.996 
G1 X2.169 Y2.146 Z4.996 
G1 X2.169 Y2.144 Z4.996 
G1 X1.974 Y2.144 Z4.996 
G1 X1.974 Y2.141 Z4.996 
G1 X2.169 Y2.141 Z4.996 
G1 X2.169 Y2.139 Z4.996 
G1 X1.974 Y2.139 Z4.996 
G1 X1.974 Y2.136 Z4.996 
G1 X2.169 Y2.136 Z4.996 
G1 X2.169 Y2.134 Z4.996 
G1 X1.974 Y2.134 Z4.996 
G1 X1.974 Y2.131 Z4.996 
G1 X2.169 Y2.131 Z4.996 
G1 X2.169 Y2.129 Z4.996 
G1 X1.974 Y2.129 Z4.996 
G1 X1.974 Y2.126 Z4.996 
G1 X2.169 Y2.126 Z4.996 
G1 X2.169 Y2.124 Z4.996 
G1 X1.974 Y2.124 Z4.996 
G1 X1.974 Y2.121 Z4.996 
G1 X2.169 Y2.121 Z4.996 
G1 X2.169 Y2.119 Z4.996 
G1 X1.974 Y2.119 Z4.996 
G1 X1.974 Y2.116 Z4.996 
G1 X2.169 Y2.116 Z4.996 
G1 X2.169 Y2.114 Z4.996 
G1 X1.974 Y2.114 Z4.996 
G1 X1.974 Y2.111 Z4.996 
G1 X2.169 Y2.111 Z4.996 
G1 X2.169 Y2.109 Z4.996 
G1 X1.974 Y2.109 Z4.996 
G1 X1.974 Y2.106 Z4.996 
G1 X2.169 Y2.106 Z4.996 
G1 X2.169 Y2.104 Z4.996 
G1 X1.974 Y2.104 Z4.996 
G1 X1.974 Y2.101 Z4.996 
G1 X2.169 Y2.101 Z4.996 
G1 X2.169 Y2.099 Z4.996 
G1 X1.974 Y2.099 Z4.996 
G1 X1.974 Y2.096 Z4.996 
G1 X2.169 Y2.096 Z4.996 
G1 X2.169 Y2.094 Z4.996 
G1 X1.974 Y2.094 Z4.996 
G1 X1.974 Y2.091 Z4.996 
G1 X2.169 Y2.091 Z4.996 
G1 X2.169 Y2.089 Z4.996 
G1 X1.974 Y2.089 Z4.996 
G1 X1.974 Y2.086 Z4.996 
G1 X2.169 Y2.086 Z4.996 
G1 X2.169 Y2.084 Z4.996 
G1 X1.974 Y2.084 Z4.996 
G1 X1.974 Y2.081 Z4.996 
G1 X2.169 Y2.081 Z4.996 
G1 X2.169 Y2.079 Z4.996 
G1 X1.974 Y2.079 Z4.996 
G1 X1.974 Y2.076 Z4.996 
G1 X2.169 Y2.076 Z4.996 
G1 X2.169 Y2.074 Z4.996 
G1 X1.974 Y2.074 Z4.996 
G1 X1.974 Y2.071 Z4.996 
G1 X2.169 Y2.071 Z4.996 
G1 X2.169 Y2.069 Z4.996 
G1 X1.974 Y2.069 Z4.996 
G1 X1.974 Y2.066 Z4.996 
G1 X2.169 Y2.066 Z4.996 
G1 X2.169 Y2.064 Z4.996 
G1 X1.974 Y2.064 Z4.996 
G1 X1.974 Y2.061 Z4.996 
G1 X2.169 Y2.061 Z4.996 
G1 X2.169 Y2.059 Z4.996 
G1 X1.974 Y2.059 Z4.996 
G1 X1.974 Y2.056 Z4.996 
G1 X2.169 Y2.056 Z4.996 
G1 X2.169 Y2.054 Z4.996 
G1 X1.974 Y2.054 Z4.996 
G1 X1.974 Y2.051 Z4.996 
G1 X2.169 Y2.051 Z4.996 
G1 X2.169 Y2.049 Z4.996 
G1 X1.974 Y2.049 Z4.996 
G1 X1.974 Y2.046 Z4.996 
G1 X2.169 Y2.046 Z4.996 
G1 X2.169 Y2.044 Z4.996 
G1 X1.974 Y2.044 Z4.996 
G1 X1.974 Y2.041 Z4.996 
G1 X2.169 Y2.041 Z4.996 
G1 X2.169 Y2.039 Z4.996 
G1 X1.974 Y2.039 Z4.996 
G1 X1.974 Y2.036 Z4.996 
G1 X2.169 Y2.036 Z4.996 
G1 X2.169 Y2.034 Z4.996 
G1 X1.974 Y2.034 Z4.996 
G1 X1.974 Y2.031 Z4.996 
G1 X2.169 Y2.031 Z4.996 
G1 X2.169 Y2.029 Z4.996 
G1 X1.974 Y2.029 Z4.996 
G1 X1.974 Y2.026 Z4.996 
G1 X2.169 Y2.026 Z4.996 
G1 X2.169 Y2.024 Z4.996 
G1 X1.974 Y2.024 Z4.996 
G1 X1.974 Y2.021 Z4.996 
G1 X2.169 Y2.021 Z4.996 
G1 X2.169 Y2.019 Z4.996 
G1 X1.974 Y2.019 Z4.996 
G1 X1.974 Y2.016 Z4.996 
G1 X2.169 Y2.016 Z4.996 
G1 X2.169 Y2.014 Z4.996 
G1 X1.974 Y2.014 Z4.996 
G1 X1.974 Y2.011 Z4.996 
G1 X2.169 Y2.011 Z4.996 
G1 X2.169 Y2.009 Z4.996 
G1 X1.974 Y2.009 Z4.996 
G1 X1.974 Y2.006 Z4.996 
G1 X2.169 Y2.006 Z4.996 
G1 X2.169 Y2.004 Z4.996 
G1 X1.974 Y2.004 Z4.996 
G1 X1.974 Y2.001 Z4.996 
G1 X2.169 Y2.001 Z4.996 
G1 X2.169 Y1.999 Z4.996 
G1 X1.974 Y1.999 Z4.996 
G1 X1.974 Y1.996 Z4.996 
G1 X2.169 Y1.996 Z4.996 
G1 X2.169 Y1.994 Z4.996 
G1 X1.974 Y1.994 Z4.996 
G1 X1.974 Y1.991 Z4.996 
G1 X2.169 Y1.991 Z4.996 
G1 X2.169 Y1.989 Z4.996 
G1 X1.974 Y1.989 Z4.996 
G1 X1.974 Y1.986 Z4.996 
G1 X2.169 Y1.986 Z4.996 
G1 X2.169 Y1.984 Z4.996 
G1 X1.974 Y1.984 Z4.996 
G1 X1.974 Y1.981 Z4.996 
G1 X2.169 Y1.981 Z4.996 
G1 X2.169 Y1.979 Z4.996 
G1 X1.974 Y1.979 Z4.996 
G1 X1.974 Y1.976 Z4.996 
G1 X2.169 Y1.976 Z4.996 
G1 X2.169 Y1.974 Z4.996 
G1 X1.974 Y1.974 Z4.996 
G1 X1.974 Y1.974 Z4.991 
G1 X2.169 Y1.974 Z4.991 
G1 X2.169 Y1.976 Z4.991 
G1 X1.974 Y1.976 Z4.991 
G1 X1.974 Y1.979 Z4.991 
G1 X2.169 Y1.979 Z4.991 
G1 X2.169 Y1.981 Z4.991 
G1 X1.974 Y1.981 Z4.991 
G1 X1.974 Y1.984 Z4.991 
G1 X2.169 Y1.984 Z4.991 
G1 X2.169 Y1.986 Z4.991 
G1 X1.974 Y1.986 Z4.991 
G1 X1.974 Y1.989 Z4.991 
G1 X2.169 Y1.989 Z4.991 
G1 X2.169 Y1.991 Z4.991 
G1 X1.974 Y1.991 Z4.991 
G1 X1.974 Y1.994 Z4.991 
G1 X2.169 Y1.994 Z4.991 
G1 X2.169 Y1.996 Z4.991 
G1 X1.974 Y1.996 Z4.991 
G1 X1.974 Y1.999 Z4.991 
G1 X2.169 Y1.999 Z4.991 
G1 X2.169 Y2.001 Z4.991 
G1 X1.974 Y2.001 Z4.991 
G1 X1.974 Y2.004 Z4.991 
G1 X2.169 Y2.004 Z4.991 
G1 X2.169 Y2.006 Z4.991 
G1 X1.974 Y2.006 Z4.991 
G1 X1.974 Y2.009 Z4.991 
G1 X2.169 Y2.009 Z4.991 
G1 X2.169 Y2.011 Z4.991 
G1 X1.974 Y2.011 Z4.991 
G1 X1.974 Y2.014 Z4.991 
G1 X2.169 Y2.014 Z4.991 
G1 X2.169 Y2.016 Z4.991 
G1 X1.974 Y2.016 Z4.991 
G1 X1.974 Y2.019 Z4.991 
G1 X2.169 Y2.019 Z4.991 
G1 X2.169 Y2.021 Z4.991 
G1 X1.974 Y2.021 Z4.991 
G1 X1.974 Y2.024 Z4.991 
G1 X2.169 Y2.024 Z4.991 
G1 X2.169 Y2.026 Z4.991 
G1 X1.974 Y2.026 Z4.991 
G1 X1.974 Y2.029 Z4.991 
G1 X2.169 Y2.029 Z4.991 
G1 X2.169 Y2.031 Z4.991 
G1 X1.974 Y2.031 Z4.991 
G1 X1.974 Y2.034 Z4.991 
G1 X2.169 Y2.034 Z4.991 
G1 X2.169 Y2.036 Z4.991 
G1 X1.974 Y2.036 Z4.991 
G1 X1.974 Y2.039 Z4.991 
G1 X2.169 Y2.039 Z4.991 
G1 X2.169 Y2.041 Z4.991 
G1 X1.974 Y2.041 Z4.991 
G1 X1.974 Y2.044 Z4.991 
G1 X2.169 Y2.044 Z4.991 
G1 X2.169 Y2.046 Z4.991 
G1 X1.974 Y2.046 Z4.991 
G1 X1.974 Y2.049 Z4.991 
G1 X2.169 Y2.049 Z4.991 
G1 X2.169 Y2.051 Z4.991 
G1 X1.974 Y2.051 Z4.991 
G1 X1.974 Y2.054 Z4.991 
G1 X2.169 Y2.054 Z4.991 
G1 X2.169 Y2.056 Z4.991 
G1 X1.974 Y2.056 Z4.991 
G1 X1.974 Y2.059 Z4.991 
G1 X2.169 Y2.059 Z4.991 
G1 X2.169 Y2.061 Z4.991 
G1 X1.974 Y2.061 Z4.991 
G1 X1.974 Y2.064 Z4.991 
G1 X2.169 Y2.064 Z4.991 
G1 X2.169 Y2.066 Z4.991 
G1 X1.974 Y2.066 Z4.991 
G1 X1.974 Y2.069 Z4.991 
G1 X2.169 Y2.069 Z4.991 
G1 X2.169 Y2.071 Z4.991 
G1 X1.974 Y2.071 Z4.991 
G1 X1.974 Y2.074 Z4.991 
G1 X2.169 Y2.074 Z4.991 
G1 X2.169 Y2.076 Z4.991 
G1 X1.974 Y2.076 Z4.991 
G1 X1.974 Y2.079 Z4.991 
G1 X2.169 Y2.079 Z4.991 
G1 X2.169 Y2.081 Z4.991 
G1 X1.974 Y2.081 Z4.991 
G1 X1.974 Y2.084 Z4.991 
G1 X2.169 Y2.084 Z4.991 
G1 X2.169 Y2.086 Z4.991 
G1 X1.974 Y2.086 Z4.991 
G1 X1.974 Y2.089 Z4.991 
G1 X2.169 Y2.089 Z4.991 
G1 X2.169 Y2.091 Z4.991 
G1 X1.974 Y2.091 Z4.991 
G1 X1.974 Y2.094 Z4.991 
G1 X2.169 Y2.094 Z4.991 
G1 X2.169 Y2.096 Z4.991 
G1 X1.974 Y2.096 Z4.991 
G1 X1.974 Y2.099 Z4.991 
G1 X2.169 Y2.099 Z4.991 
G1 X2.169 Y2.101 Z4.991 
G1 X1.974 Y2.101 Z4.991 
G1 X1.974 Y2.104 Z4.991 
G1 X2.169 Y2.104 Z4.991 
G1 X2.169 Y2.106 Z4.991 
G1 X1.974 Y2.106 Z4.991 
G1 X1.974 Y2.109 Z4.991 
G1 X2.169 Y2.109 Z4.991 
G1 X2.169 Y2.111 Z4.991 
G1 X1.974 Y2.111 Z4.991 
G1 X1.974 Y2.114 Z4.991 
G1 X2.169 Y2.114 Z4.991 
G1 X2.169 Y2.116 Z4.991 
G1 X1.974 Y2.116 Z4.991 
G1 X1.974 Y2.119 Z4.991 
G1 X2.169 Y2.119 Z4.991 
G1 X2.169 Y2.121 Z4.991 
G1 X1.974 Y2.121 Z4.991 
G1 X1.974 Y2.124 Z4.991 
G1 X2.169 Y2.124 Z4.991 
G1 X2.169 Y2.126 Z4.991 
G1 X1.974 Y2.126 Z4.991 
G1 X1.974 Y2.129 Z4.991 
G1 X2.169 Y2.129 Z4.991 
G1 X2.169 Y2.131 Z4.991 
G1 X1.974 Y2.131 Z4.991 
G1 X1.974 Y2.134 Z4.991 
G1 X2.169 Y2.134 Z4.991 
G1 X2.169 Y2.136 Z4.991 
G1 X1.974 Y2.136 Z4.991 
G1 X1.974 Y2.139 Z4.991 
G1 X2.169 Y2.139 Z4.991 
G1 X2.169 Y2.141 Z4.991 
G1 X1.974 Y2.141 Z4.991 
G1 X1.974 Y2.144 Z4.991 
G1 X2.169 Y2.144 Z4.991 
G1 X2.169 Y2.146 Z4.991 
G1 X1.974 Y2.146 Z4.991 
G1 X1.974 Y2.149 Z4.991 
G1 X2.169 Y2.149 Z4.991 
G1 X2.169 Y2.151 Z4.991 
G1 X1.974 Y2.151 Z4.991 
G1 X1.974 Y2.154 Z4.991 
G1 X2.169 Y2.154 Z4.991 
G1 X2.169 Y2.156 Z4.991 
G1 X1.974 Y2.156 Z4.991 
G1 X1.974 Y2.159 Z4.991 
G1 X2.169 Y2.159 Z4.991 
G1 X2.169 Y2.161 Z4.991 
G1 X1.974 Y2.161 Z4.991 
G1 X1.974 Y2.164 Z4.991 
G1 X2.169 Y2.164 Z4.991 
G1 X2.169 Y2.166 Z4.991 
G1 X1.974 Y2.166 Z4.991 
G1 X1.974 Y2.169 Z4.991 
G1 X2.169 Y2.169 Z4.991 
G1 X2.169 Y2.169 Z4.990 
G1 X1.974 Y2.169 Z4.990 
G1 X1.974 Y2.166 Z4.990 
G1 X2.169 Y2.166 Z4.990 
G1 X2.169 Y2.164 Z4.990 
G1 X1.974 Y2.164 Z4.990 
G1 X1.974 Y2.161 Z4.990 
G1 X2.169 Y2.161 Z4.990 
G1 X2.169 Y2.159 Z4.990 
G1 X1.974 Y2.159 Z4.990 
G1 X1.974 Y2.156 Z4.990 
G1 X2.169 Y2.156 Z4.990 
G1 X2.169 Y2.154 Z4.990 
G1 X1.974 Y2.154 Z4.990 
G1 X1.974 Y2.151 Z4.990 
G1 X2.169 Y2.151 Z4.990 
G1 X2.169 Y2.149 Z4.990 
G1 X1.974 Y2.149 Z4.990 
G1 X1.974 Y2.146 Z4.990 
G1 X2.169 Y2.146 Z4.990 
G1 X2.169 Y2.144 Z4.990 
G1 X1.974 Y2.144 Z4.990 
G1 X1.974 Y2.141 Z4.990 
G1 X2.169 Y2.141 Z4.990 
G1 X2.169 Y2.139 Z4.990 
G1 X1.974 Y2.139 Z4.990 
G1 X1.974 Y2.136 Z4.990 
G1 X2.169 Y2.136 Z4.990 
G1 X2.169 Y2.134 Z4.990 
G1 X1.974 Y2.134 Z4.990 
G1 X1.974 Y2.131 Z4.990 
G1 X2.169 Y2.131 Z4.990 
G1 X2.169 Y2.129 Z4.990 
G1 X1.974 Y2.129 Z4.990 
G1 X1.974 Y2.126 Z4.990 
G1 X2.169 Y2.126 Z4.990 
G1 X2.169 Y2.124 Z4.990 
G1 X1.974 Y2.124 Z4.990 
G1 X1.974 Y2.121 Z4.990 
G1 X2.169 Y2.121 Z4.990 
G1 X2.169 Y2.119 Z4.990 
G1 X1.974 Y2.119 Z4.990 
G1 X1.974 Y2.116 Z4.990 
G1 X2.169 Y2.116 Z4.990 
G1 X2.169 Y2.114 Z4.990 
G1 X1.974 Y2.114 Z4.990 
G1 X1.974 Y2.111 Z4.990 
G1 X2.169 Y2.111 Z4.990 
G1 X2.169 Y2.109 Z4.990 
G1 X1.974 Y2.109 Z4.990 
G1 X1.974 Y2.106 Z4.990 
G1 X2.169 Y2.106 Z4.990 
G1 X2.169 Y2.104 Z4.990 
G1 X1.974 Y2.104 Z4.990 
G1 X1.974 Y2.101 Z4.990 
G1 X2.169 Y2.101 Z4.990 
G1 X2.169 Y2.099 Z4.990 
G1 X1.974 Y2.099 Z4.990 
G1 X1.974 Y2.096 Z4.990 
G1 X2.169 Y2.096 Z4.990 
G1 X2.169 Y2.094 Z4.990 
G1 X1.974 Y2.094 Z4.990 
G1 X1.974 Y2.091 Z4.990 
G1 X2.169 Y2.091 Z4.990 
G1 X2.169 Y2.089 Z4.990 
G1 X1.974 Y2.089 Z4.990 
G1 X1.974 Y2.086 Z4.990 
G1 X2.169 Y2.086 Z4.990 
G1 X2.169 Y2.084 Z4.990 
G1 X1.974 Y2.084 Z4.990 
G1 X1.974 Y2.081 Z4.990 
G1 X2.169 Y2.081 Z4.990 
G1 X2.169 Y2.079 Z4.990 
G1 X1.974 Y2.079 Z4.990 
G1 X1.974 Y2.076 Z4.990 
G1 X2.169 Y2.076 Z4.990 
G1 X2.169 Y2.074 Z4.990 
G1 X1.974 Y2.074 Z4.990 
G1 X1.974 Y2.071 Z4.990 
G1 X2.169 Y2.071 Z4.990 
G1 X2.169 Y2.069 Z4.990 
G1 X1.974 Y2.069 Z4.990 
G1 X1.974 Y2.066 Z4.990 
G1 X2.169 Y2.066 Z4.990 
G1 X2.169 Y2.064 Z4.990 
G1 X1.974 Y2.064 Z4.990 
G1 X1.974 Y2.061 Z4.990 
G1 X2.169 Y2.061 Z4.990 
G1 X2.169 Y2.059 Z4.990 
G1 X1.974 Y2.059 Z4.990 
G1 X1.974 Y2.056 Z4.990 
G1 X2.169 Y2.056 Z4.990 
G1 X2.169 Y2.054 Z4.990 
G1 X1.974 Y2.054 Z4.990 
G1 X1.974 Y2.051 Z4.990 
G1 X2.169 Y2.051 Z4.990 
G1 X2.169 Y2.049 Z4.990 
G1 X1.974 Y2.049 Z4.990 
G1 X1.974 Y2.046 Z4.990 
G1 X2.169 Y2.046 Z4.990 
G1 X2.169 Y2.044 Z4.990 
G1 X1.974 Y2.044 Z4.990 
G1 X1.974 Y2.041 Z4.990 
G1 X2.169 Y2.041 Z4.990 
G1 X2.169 Y2.039 Z4.990 
G1 X1.974 Y2.039 Z4.990 
G1 X1.974 Y2.036 Z4.990 
G1 X2.169 Y2.036 Z4.990 
G1 X2.169 Y2.034 Z4.990 
G1 X1.974 Y2.034 Z4.990 
G1 X1.974 Y2.031 Z4.990 
G1 X2.169 Y2.031 Z4.990 
G1 X2.169 Y2.029 Z4.990 
G1 X1.974 Y2.029 Z4.990 
G1 X1.974 Y2.026 Z4.990 
G1 X2.169 Y2.026 Z4.990 
G1 X2.169 Y2.024 Z4.990 
G1 X1.974 Y2.024 Z4.990 
G1 X1.974 Y2.021 Z4.990 
G1 X2.169 Y2.021 Z4.990 
G1 X2.169 Y2.019 Z4.990 
G1 X1.974 Y2.019 Z4.990 
G1 X1.974 Y2.016 Z4.990 
G1 X2.169 Y2.016 Z4.990 
G1 X2.169 Y2.014 Z4.990 
G1 X1.974 Y2.014 Z4.990 
G1 X1.974 Y2.011 Z4.990 
G1 X2.169 Y2.011 Z4.990 
G1 X2.169 Y2.009 Z4.990 
G1 X1.974 Y2.009 Z4.990 
G1 X1.974 Y2.006 Z4.990 
G1 X2.169 Y2.006 Z4.990 
G1 X2.169 Y2.004 Z4.990 
G1 X1.974 Y2.004 Z4.990 
G1 X1.974 Y2.001 Z4.990 
G1 X2.169 Y2.001 Z4.990 
G1 X2.169 Y1.999 Z4.990 
G1 X1.974 Y1.999 Z4.990 
G1 X1.974 Y1.996 Z4.990 
G1 X2.169 Y1.996 Z4.990 
G1 X2.169 Y1.994 Z4.990 
G1 X1.974 Y1.994 Z4.990 
G1 X1.974 Y1.991 Z4.990 
G1 X2.169 Y1.991 Z4.990 
G1 X2.169 Y1.989 Z4.990 
G1 X1.974 Y1.989 Z4.990 
G1 X1.974 Y1.986 Z4.990 
G1 X2.169 Y1.986 Z4.990 
G1 X2.169 Y1.984 Z4.990 
G1 X1.974 Y1.984 Z4.990 
G1 X1.974 Y1.981 Z4.990 
G1 X2.169 Y1.981 Z4.990 
G1 X2.169 Y1.979 Z4.990 
G1 X1.974 Y1.979 Z4.990 
G1 X1.974 Y1.976 Z4.990 
G1 X2.169 Y1.976 Z4.990 
G1 X2.169 Y1.974 Z4.990 
G1 X1.974 Y1.974 Z4.990 
G0 Z10.001 
G0 Z10.001 
G0 X1.974 Y1.974 
G0 Y4.145 
G0 Y4.145 Z8.001 
G1 X1.974 Y4.145 Z4.996 
G1 X2.169 Y4.145 Z4.996 
G1 X2.169 Y4.148 Z4.996 
G1 X1.974 Y4.148 Z4.996 
G1 X1.974 Y4.150 Z4.996 
G1 X2.169 Y4.150 Z4.996 
G1 X2.169 Y4.153 Z4.996 
G1 X1.974 Y4.153 Z4.996 
G1 X1.974 Y4.155 Z4.996 
G1 X2.169 Y4.155 Z4.996 
G1 X2.169 Y4.158 Z4.996 
G1 X1.974 Y4.158 Z4.996 
G1 X1.974 Y4.160 Z4.996 
G1 X2.169 Y4.160 Z4.996 
G1 X2.169 Y4.163 Z4.996 
G1 X1.974 Y4.163 Z4.996 
G1 X1.974 Y4.165 Z4.996 
G1 X2.169 Y4.165 Z4.996 
G1 X2.169 Y4.168 Z4.996 
G1 X1.974 Y4.168 Z4.996 
G1 X1.974 Y4.170 Z4.996 
G1 X2.169 Y4.170 Z4.996 
G1 X2.169 Y4.173 Z4.996 
G1 X1.974 Y4.173 Z4.996 
G1 X1.974 Y4.175 Z4.996 
G1 X2.169 Y4.175 Z4.996 
G1 X2.169 Y4.178 Z4.996 
G1 X1.974 Y4.178 Z4.996 
G1 X1.974 Y4.180 Z4.996 
G1 X2.169 Y4.180 Z4.996 
G1 X2.169 Y4.183 Z4.996 
G1 X1.974 Y4.183 Z4.996 
G1 X1.974 Y4.185 Z4.996 
G1 X2.169 Y4.185 Z4.996 
G1 X2.169 Y4.188 Z4.996 
G1 X1.974 Y4.188 Z4.996 
G1 X1.974 Y4.190 Z4.996 
G1 X2.169 Y4.190 Z4.996 
G1 X2.169 Y4.193 Z4.996 
G1 X1.974 Y4.193 Z4.996 
G1 X1.974 Y4.195 Z4.996 
G1 X2.169 Y4.195 Z4.996 
G1 X2.169 Y4.198 Z4.996 
G1 X1.974 Y4.198 Z4.996 
G1 X1.974 Y4.200 Z4.996 
G1 X2.169 Y4.200 Z4.996 
G1 X2.169 Y4.203 Z4.996 
G1 X1.974 Y4.203 Z4.996 
G1 X1.974 Y4.205 Z4.996 
G1 X2.169 Y4.205 Z4.996 
G1 X2.169 Y4.208 Z4.996 
G1 X1.974 Y4.208 Z4.996 
G1 X1.974 Y4.210 Z4.996 
G1 X2.169 Y4.210 Z4.996 
G1 X2.169 Y4.213 Z4.996 
G1 X1.974 Y4.213 Z4.996 
G1 X1.974 Y4.215 Z4.996 
G1 X2.169 Y4.215 Z4.996 
G1 X2.169 Y4.218 Z4.996 
G1 X1.974 Y4.218 Z4.996 
G1 X1.974 Y4.220 Z4.996 
G1 X2.169 Y4.220 Z4.996 
G1 X2.169 Y4.223 Z4.996 
G1 X1.974 Y4.223 Z4.996 
G1 X1.974 Y4.225 Z4.996 
G1 X2.169 Y4.225 Z4.996 
G1 X2.169 Y4.228 Z4.996 
G1 X1.974 Y4.228 Z4.996 
G1 X1.974 Y4.230 Z4.996 
G1 X2.169 Y4.230 Z4.996 
G1 X2.169 Y4.233 Z4.996 
G1 X1.974 Y4.233 Z4.996 
G1 X1.974 Y4.235 Z4.996 
G1 X2.169 Y4.235 Z4.996 
G1 X2.169 Y4.238 Z4.996 
G1 X1.974 Y4.238 Z4.996 
G1 X1.974 Y4.240 Z4.996 
G1 X2.169 Y4.240 Z4.996 
G1 X2.169 Y4.243 Z4.996 
G1 X1.974 Y4.243 Z4.996 
G1 X1.974 Y4.245 Z4.996 
G1 X2.169 Y4.245 Z4.996 
G1 X2.169 Y4.248 Z4.996 
G1 X1.974 Y4.248 Z4.996 
G1 X1.974 Y4.250 Z4.996 
G1 X2.169 Y4.250 Z4.996 
G1 X2.169 Y4.253 Z4.996 
G1 X1.974 Y4.253 Z4.996 
G1 X1.974 Y4.255 Z4.996 
G1 X2.169 Y4.255 Z4.996 
G1 X2.169 Y4.258 Z4.996 
G1 X1.974 Y4.258 Z4.996 
G1 X1.974 Y4.260 Z4.996 
G1 X2.169 Y4.260 Z4.996 
G1 X2.169 Y4.263 Z4.996 
G1 X1.974 Y4.263 Z4.996 
G1 X1.974 Y4.265 Z4.996 
G1 X2.169 Y4.265 Z4.996 
G1 X2.169 Y4.268 Z4.996 
G1 X1.974 Y4.268 Z4.996 
G1 X1.974 Y4.270 Z4.996 
G1 X2.169 Y4.270 Z4.996 
G1 X2.169 Y4.273 Z4.996 
G1 X1.974 Y4.273 Z4.996 
G1 X1.974 Y4.275 Z4.996 
G1 X2.169 Y4.275 Z4.996 
G1 X2.169 Y4.278 Z4.996 
G1 X1.974 Y4.278 Z4.996 
G1 X1.974 Y4.280 Z4.996 
G1 X2.169 Y4.280 Z4.996 
G1 X2.169 Y4.283 Z4.996 
G1 X1.974 Y4.283 Z4.996 
G1 X1.974 Y4.285 Z4.996 
G1 X2.169 Y4.285 Z4.996 
G1 X2.169 Y4.288 Z4.996 
G1 X1.974 Y4.288 Z4.996 
G1 X1.974 Y4.290 Z4.996 
G1 X2.169 Y4.290 Z4.996 
G1 X2.169 Y4.293 Z4.996 
G1 X1.974 Y4.293 Z4.996 
G1 X1.974 Y4.295 Z4.996 
G1 X2.169 Y4.295 Z4.996 
G1 X2.169 Y4.298 Z4.996 
G1 X1.974 Y4.298 Z4.996 
G1 X1.974 Y4.300 Z4.996 
G1 X2.169 Y4.300 Z4.996 
G1 X2.169 Y4.303 Z4.996 
G1 X1.974 Y4.303 Z4.996 
G1 X1.974 Y4.305 Z4.996 
G1 X2.169 Y4.305 Z4.996 
G1 X2.169 Y4.308 Z4.996 
G1 X1.974 Y4.308 Z4.996 
G1 X1.974 Y4.310 Z4.996 
G1 X2.169 Y4.310 Z4.996 
G1 X2.169 Y4.313 Z4.996 
G1 X1.974 Y4.313 Z4.996 
G1 X1.974 Y4.315 Z4.996 
G1 X2.169 Y4.315 Z4.996 
G1 X2.169 Y4.318 Z4.996 
G1 X1.974 Y4.318 Z4.996 
G1 X1.974 Y4.320 Z4.996 
G1 X2.169 Y4.320 Z4.996 
G1 X2.169 Y4.323 Z4.996 
G1 X1.974 Y4.323 Z4.996 
G1 X1.974 Y4.325 Z4.996 
G1 X2.169 Y4.325 Z4.996 
G1 X2.169 Y4.328 Z4.996 
G1 X1.974 Y4.328 Z4.996 
G1 X1.974 Y4.330 Z4.996 
G1 X2.169 Y4.330 Z4.996 
G1 X2.169 Y4.333 Z4.996 
G1 X1.974 Y4.333 Z4.996 
G1 X1.974 Y4.335 Z4.996 
G1 X2.169 Y4.335 Z4.996 
G1 X2.169 Y4.338 Z4.996 
G1 X1.974 Y4.338 Z4.996 
G1 X1.974 Y4.340 Z4.996 
G1 X2.169 Y4.340 Z4.996 
G1 X2.169 Y4.340 Z4.991 
G1 X1.974 Y4.340 Z4.991 
G1 X1.974 Y4.338 Z4.991 
G1 X2.169 Y4.338 Z4.991 
G1 X2.169 Y4.335 Z4.991 
G1 X1.974 Y4.335 Z4.991 
G1 X1.974 Y4.333 Z4.991 
G1 X2.169 Y4.333 Z4.991 
G1 X2.169 Y4.330 Z4.991 
G1 X1.974 Y4.330 Z4.991 
G1 X1.974 Y4.328 Z4.991 
G1 X2.169 Y4.328 Z4.991 
G1 X2.169 Y4.325 Z4.991 
G1 X1.974 Y4.325 Z4.991 
G1 X1.974 Y4.323 Z4.991 
G1 X2.169 Y4.323 Z4.991 
G1 X2.169 Y4.320 Z4.991 
G1 X1.974 Y4.320 Z4.991 
G1 X1.974 Y4.318 Z4.991 
G1 X2.169 Y4.318 Z4.991 
G1 X2.169 Y4.315 Z4.991 
G1 X1.974 Y4.315 Z4.991 
G1 X1.974 Y4.313 Z4.991 
G1 X2.169 Y4.313 Z4.991 
G1 X2.169 Y4.310 Z4.991 
G1 X1.974 Y4.310 Z4.991 
G1 X1.974 Y4.308 Z4.991 
G1 X2.169 Y4.308 Z4.991 
G1 X2.169 Y4.305 Z4.991 
G1 X1.974 Y4.305 Z4.991 
G1 X1.974 Y4.303 Z4.991 
G1 X2.169 Y4.303 Z4.991 
G1 X2.169 Y4.300 Z4.991 
G1 X1.974 Y4.300 Z4.991 
G1 X1.974 Y4.298 Z4.991 
G1 X2.169 Y4.298 Z4.991 
G1 X2.169 Y4.295 Z4.991 
G1 X1.974 Y4.295 Z4.991 
G1 X1.974 Y4.293 Z4.991 
G1 X2.169 Y4.293 Z4.991 
G1 X2.169 Y4.290 Z4.991 
G1 X1.974 Y4.290 Z4.991 
G1 X1.974 Y4.288 Z4.991 
G1 X2.169 Y4.288 Z4.991 
G1 X2.169 Y4.285 Z4.991 
G1 X1.974 Y4.285 Z4.991 
G1 X1.974 Y4.283 Z4.991 
G1 X2.169 Y4.283 Z4.991 
G1 X2.169 Y4.280 Z4.991 
G1 X1.974 Y4.280 Z4.991 
G1 X1.974 Y4.278 Z4.991 
G1 X2.169 Y4.278 Z4.991 
G1 X2.169 Y4.275 Z4.991 
G1 X1.974 Y4.275 Z4.991 
G1 X1.974 Y4.273 Z4.991 
G1 X2.169 Y4.273 Z4.991 
G1 X2.169 Y4.270 Z4.991 
G1 X1.974 Y4.270 Z4.991 
G1 X1.974 Y4.268 Z4.991 
G1 X2.169 Y4.268 Z4.991 
G1 X2.169 Y4.265 Z4.991 
G1 X1.974 Y4.265 Z4.991 
G1 X1.974 Y4.263 Z4.991 
G1 X2.169 Y4.263 Z4.991 
G1 X2.169 Y4.260 Z4.991 
G1 X1.974 Y4.260 Z4.991 
G1 X1.974 Y4.258 Z4.991 
G1 X2.169 Y4.258 Z4.991 
G1 X2.169 Y4.255 Z4.991 
G1 X1.974 Y4.255 Z4.991 
G1 X1.974 Y4.253 Z4.991 
G1 X2.169 Y4.253 Z4.991 
G1 X2.169 Y4.250 Z4.991 
G1 X1.974 Y4.250 Z4.991 
G1 X1.974 Y4.248 Z4.991 
G1 X2.169 Y4.248 Z4.991 
G1 X2.169 Y4.245 Z4.991 
G1 X1.974 Y4.245 Z4.991 
G1 X1.974 Y4.243 Z4.991 
G1 X2.169 Y4.243 Z4.991 
G1 X2.169 Y4.240 Z4.991 
G1 X1.974 Y4.240 Z4.991 
G1 X1.974 Y4.238 Z4.991 
G1 X2.169 Y4.238 Z4.991 
G1 X2.169 Y4.235 Z4.991 
G1 X1.974 Y4.235 Z4.991 
G1 X1.974 Y4.233 Z4.991 
G1 X2.169 Y4.233 Z4.991 
G1 X2.169 Y4.230 Z4.991 
G1 X1.974 Y4.230 Z4.991 
G1 X1.974 Y4.228 Z4.991 
G1 X2.169 Y4.228 Z4.991 
G1 X2.169 Y4.225 Z4.991 
G1 X1.974 Y4.225 Z4.991 
G1 X1.974 Y4.223 Z4.991 
G1 X2.169 Y4.223 Z4.991 
G1 X2.169 Y4.220 Z4.991 
G1 X1.974 Y4.220 Z4.991 
G1 X1.974 Y4.218 Z4.991 
G1 X2.169 Y4.218 Z4.991 
G1 X2.169 Y4.215 Z4.991 
G1 X1.974 Y4.215 Z4.991 
G1 X1.974 Y4.213 Z4.991 
G1 X2.169 Y4.213 Z4.991 
G1 X2.169 Y4.210 Z4.991 
G1 X1.974 Y4.210 Z4.991 
G1 X1.974 Y4.208 Z4.991 
G1 X2.169 Y4.208 Z4.991 
G1 X2.169 Y4.205 Z4.991 
G1 X1.974 Y4.205 Z4.991 
G1 X1.974 Y4.203 Z4.991 
G1 X2.169 Y4.203 Z4.991 
G1 X2.169 Y4.200 Z4.991 
G1 X1.974 Y4.200 Z4.991 
G1 X1.974 Y4.198 Z4.991 
G1 X2.169 Y4.198 Z4.991 
G1 X2.169 Y4.195 Z4.991 
G1 X1.974 Y4.195 Z4.991 
G1 X1.974 Y4.193 Z4.991 
G1 X2.169 Y4.193 Z4.991 
G1 X2.169 Y4.190 Z4.991 
G1 X1.974 Y4.190 Z4.991 
G1 X1.974 Y4.188 Z4.991 
G1 X2.169 Y4.188 Z4.991 
G1 X2.169 Y4.185 Z4.991 
G1 X1.974 Y4.185 Z4.991 
G1 X1.974 Y4.183 Z4.991 
G1 X2.169 Y4.183 Z4.991 
G1 X2.169 Y4.180 Z4.991 
G1 X1.974 Y4.180 Z4.991 
G1 X1.974 Y4.178 Z4.991 
G1 X2.169 Y4.178 Z4.991 
G1 X2.169 Y4.175 Z4.991 
G1 X1.974 Y4.175 Z4.991 
G1 X1.974 Y4.173 Z4.991 
G1 X2.169 Y4.173 Z4.991 
G1 X2.169 Y4.170 Z4.991 
G1 X1.974 Y4.170 Z4.991 
G1 X1.974 Y4.168 Z4.991 
G1 X2.169 Y4.168 Z4.991 
G1 X2.169 Y4.165 Z4.991 
G1 X1.974 Y4.165 Z4.991 
G1 X1.974 Y4.163 Z4.991 
G1 X2.169 Y4.163 Z4.991 
G1 X2.169 Y4.160 Z4.991 
G1 X1.974 Y4.160 Z4.991 
G1 X1.974 Y4.158 Z4.991 
G1 X2.169 Y4.158 Z4.991 
G1 X2.169 Y4.155 Z4.991 
G1 X1.974 Y4.155 Z4.991 
G1 X1.974 Y4.153 Z4.991 
G1 X2.169 Y4.153 Z4.991 
G1 X2.169 Y4.150 Z4.991 
G1 X1.974 Y4.150 Z4.991 
G1 X1.974 Y4.148 Z4.991 
G1 X2.169 Y4.148 Z4.991 
G1 X2.169 Y4.145 Z4.991 
G1 X1.974 Y4.145 Z4.991 
G1 X1.974 Y4.145 Z4.990 
G1 X2.169 Y4.145 Z4.990 
G1 X2.169 Y4.148 Z4.990 
G1 X1.974 Y4.148 Z4.990 
G1 X1.974 Y4.150 Z4.990 
G1 X2.169 Y4.150 Z4.990 
G1 X2.169 Y4.153 Z4.990 
G1 X1.974 Y4.153 Z4.990 
G1 X1.974 Y4.155 Z4.990 
G1 X2.169 Y4.155 Z4.990 
G1 X2.169 Y4.158 Z4.990 
G1 X1.974 Y4.158 Z4.990 
G1 X1.974 Y4.160 Z4.990 
G1 X2.169 Y4.160 Z4.990 
G1 X2.169 Y4.163 Z4.990 
G1 X1.974 Y4.163 Z4.990 
G1 X1.974 Y4.165 Z4.990 
G1 X2.169 Y4.165 Z4.990 
G1 X2.169 Y4.168 Z4.990 
G1 X1.974 Y4.168 Z4.990 
G1 X1.974 Y4.170 Z4.990 
G1 X2.169 Y4.170 Z4.990 
G1 X2.169 Y4.173 Z4.990 
G1 X1.974 Y4.173 Z4.990 
G1 X1.974 Y4.175 Z4.990 
G1 X2.169 Y4.175 Z4.990 
G1 X2.169 Y4.178 Z4.990 
G1 X1.974 Y4.178 Z4.990 
G1 X1.974 Y4.180 Z4.990 
G1 X2.169 Y4.180 Z4.990 
G1 X2.169 Y4.183 Z4.990 
G1 X1.974 Y4.183 Z4.990 
G1 X1.974 Y4.185 Z4.990 
G1 X2.169 Y4.185 Z4.990 
G1 X2.169 Y4.188 Z4.990 
G1 X1.974 Y4.188 Z4.990 
G1 X1.974 Y4.190 Z4.990 
G1 X2.169 Y4.190 Z4.990 
G1 X2.169 Y4.193 Z4.990 
G1 X1.974 Y4.193 Z4.990 
G1 X1.974 Y4.195 Z4.990 
G1 X2.169 Y4.195 Z4.990 
G1 X2.169 Y4.198 Z4.990 
G1 X1.974 Y4.198 Z4.990 
G1 X1.974 Y4.200 Z4.990 
G1 X2.169 Y4.200 Z4.990 
G1 X2.169 Y4.203 Z4.990 
G1 X1.974 Y4.203 Z4.990 
G1 X1.974 Y4.205 Z4.990 
G1 X2.169 Y4.205 Z4.990 
G1 X2.169 Y4.208 Z4.990 
G1 X1.974 Y4.208 Z4.990 
G1 X1.974 Y4.210 Z4.990 
G1 X2.169 Y4.210 Z4.990 
G1 X2.169 Y4.213 Z4.990 
G1 X1.974 Y4.213 Z4.990 
G1 X1.974 Y4.215 Z4.990 
G1 X2.169 Y4.215 Z4.990 
G1 X2.169 Y4.218 Z4.990 
G1 X1.974 Y4.218 Z4.990 
G1 X1.974 Y4.220 Z4.990 
G1 X2.169 Y4.220 Z4.990 
G1 X2.169 Y4.223 Z4.990 
G1 X1.974 Y4.223 Z4.990 
G1 X1.974 Y4.225 Z4.990 
G1 X2.169 Y4.225 Z4.990 
G1 X2.169 Y4.228 Z4.990 
G1 X1.974 Y4.228 Z4.990 
G1 X1.974 Y4.230 Z4.990 
G1 X2.169 Y4.230 Z4.990 
G1 X2.169 Y4.233 Z4.990 
G1 X1.974 Y4.233 Z4.990 
G1 X1.974 Y4.235 Z4.990 
G1 X2.169 Y4.235 Z4.990 
G1 X2.169 Y4.238 Z4.990 
G1 X1.974 Y4.238 Z4.990 
G1 X1.974 Y4.240 Z4.990 
G1 X2.169 Y4.240 Z4.990 
G1 X2.169 Y4.243 Z4.990 
G1 X1.974 Y4.243 Z4.990 
G1 X1.974 Y4.245 Z4.990 
G1 X2.169 Y4.245 Z4.990 
G1 X2.169 Y4.248 Z4.990 
G1 X1.974 Y4.248 Z4.990 
G1 X1.974 Y4.250 Z4.990 
G1 X2.169 Y4.250 Z4.990 
G1 X2.169 Y4.253 Z4.990 
G1 X1.974 Y4.253 Z4.990 
G1 X1.974 Y4.255 Z4.990 
G1 X2.169 Y4.255 Z4.990 
G1 X2.169 Y4.258 Z4.990 
G1 X1.974 Y4.258 Z4.990 
G1 X1.974 Y4.260 Z4.990 
G1 X2.169 Y4.260 Z4.990 
G1 X2.169 Y4.263 Z4.990 
G1 X1.974 Y4.263 Z4.990 
G1 X1.974 Y4.265 Z4.990 
G1 X2.169 Y4.265 Z4.990 
G1 X2.169 Y4.268 Z4.990 
G1 X1.974 Y4.268 Z4.990 
G1 X1.974 Y4.270 Z4.990 
G1 X2.169 Y4.270 Z4.990 
G1 X2.169 Y4.273 Z4.990 
G1 X1.974 Y4.273 Z4.990 
G1 X1.974 Y4.275 Z4.990 
G1 X2.169 Y4.275 Z4.990 
G1 X2.169 Y4.278 Z4.990 
G1 X1.974 Y4.278 Z4.990 
G1 X1.974 Y4.280 Z4.990 
G1 X2.169 Y4.280 Z4.990 
G1 X2.169 Y4.283 Z4.990 
G1 X1.974 Y4.283 Z4.990 
G1 X1.974 Y4.285 Z4.990 
G1 X2.169 Y4.285 Z4.990 
G1 X2.169 Y4.288 Z4.990 
G1 X1.974 Y4.288 Z4.990 
G1 X1.974 Y4.290 Z4.990 
G1 X2.169 Y4.290 Z4.990 
G1 X2.169 Y4.293 Z4.990 
G1 X1.974 Y4.293 Z4.990 
G1 X1.974 Y4.295 Z4.990 
G1 X2.169 Y4.295 Z4.990 
G1 X2.169 Y4.298 Z4.990 
G1 X1.974 Y4.298 Z4.990 
G1 X1.974 Y4.300 Z4.990 
G1 X2.169 Y4.300 Z4.990 
G1 X2.169 Y4.303 Z4.990 
G1 X1.974 Y4.303 Z4.990 
G1 X1.974 Y4.305 Z4.990 
G1 X2.169 Y4.305 Z4.990 
G1 X2.169 Y4.308 Z4.990 
G1 X1.974 Y4.308 Z4.990 
G1 X1.974 Y4.310 Z4.990 
G1 X2.169 Y4.310 Z4.990 
G1 X2.169 Y4.313 Z4.990 
G1 X1.974 Y4.313 Z4.990 
G1 X1.974 Y4.315 Z4.990 
G1 X2.169 Y4.315 Z4.990 
G1 X2.169 Y4.318 Z4.990 
G1 X1.974 Y4.318 Z4.990 
G1 X1.974 Y4.320 Z4.990 
G1 X2.169 Y4.320 Z4.990 
G1 X2.169 Y4.323 Z4.990 
G1 X1.974 Y4.323 Z4.990 
G1 X1.974 Y4.325 Z4.990 
G1 X2.169 Y4.325 Z4.990 
G1 X2.169 Y4.328 Z4.990 
G1 X1.974 Y4.328 Z4.990 
G1 X1.974 Y4.330 Z4.990 
G1 X2.169 Y4.330 Z4.990 
G1 X2.169 Y4.333 Z4.990 
G1 X1.974 Y4.333 Z4.990 
G1 X1.974 Y4.335 Z4.990 
G1 X2.169 Y4.335 Z4.990 
G1 X2.169 Y4.338 Z4.990 
G1 X1.974 Y4.338 Z4.990 
G1 X1.974 Y4.340 Z4.990 
G1 X2.169 Y4.340 Z4.990 
G0 Z10.001 
G0 Z10.001 
G0 X2.169 Y4.340 
G0 X1.974 Y6.317 
G0 X1.974 Y6.317 Z8.001 
G1 X1.974 Y6.317 Z4.996 
G1 X2.169 Y6.317 Z4.996 
G1 X2.169 Y6.319 Z4.996 
G1 X1.974 Y6.319 Z4.996 
G1 X1.974 Y6.322 Z4.996 
G1 X2.169 Y6.322 Z4.996 
G1 X2.169 Y6.324 Z4.996 
G1 X1.974 Y6.324 Z4.996 
G1 X1.974 Y6.327 Z4.996 
G1 X2.169 Y6.327 Z4.996 
G1 X2.169 Y6.329 Z4.996 
G1 X1.974 Y6.329 Z4.996 
G1 X1.974 Y6.332 Z4.996 
G1 X2.169 Y6.332 Z4.996 
G1 X2.169 Y6.334 Z4.996 
G1 X1.974 Y6.334 Z4.996 
G1 X1.974 Y6.337 Z4.996 
G1 X2.169 Y6.337 Z4.996 
G1 X2.169 Y6.339 Z4.996 
G1 X1.974 Y6.339 Z4.996 
G1 X1.974 Y6.342 Z4.996 
G1 X2.169 Y6.342 Z4.996 
G1 X2.169 Y6.344 Z4.996 
G1 X1.974 Y6.344 Z4.996 
G1 X1.974 Y6.347 Z4.996 
G1 X2.169 Y6.347 Z4.996 
G1 X2.169 Y6.349 Z4.996 
G1 X1.974 Y6.349 Z4.996 
G1 X1.974 Y6.352 Z4.996 
G1 X2.169 Y6.352 Z4.996 
G1 X2.169 Y6.354 Z4.996 
G1 X1.974 Y6.354 Z4.996 
G1 X1.974 Y6.357 Z4.996 
G1 X2.169 Y6.357 Z4.996 
G1 X2.169 Y6.359 Z4.996 
G1 X1.974 Y6.359 Z4.996 
G1 X1.974 Y6.362 Z4.996 
G1 X2.169 Y6.362 Z4.996 
G1 X2.169 Y6.364 Z4.996 
G1 X1.974 Y6.364 Z4.996 
G1 X1.974 Y6.367 Z4.996 
G1 X2.169 Y6.367 Z4.996 
G1 X2.169 Y6.369 Z4.996 
G1 X1.974 Y6.369 Z4.996 
G1 X1.974 Y6.372 Z4.996 
G1 X2.169 Y6.372 Z4.996 
G1 X2.169 Y6.374 Z4.996 
G1 X1.974 Y6.374 Z4.996 
G1 X1.974 Y6.377 Z4.996 
G1 X2.169 Y6.377 Z4.996 
G1 X2.169 Y6.379 Z4.996 
G1 X1.974 Y6.379 Z4.996 
G1 X1.974 Y6.382 Z4.996 
G1 X2.169 Y6.382 Z4.996 
G1 X2.169 Y6.384 Z4.996 
G1 X1.974 Y6.384 Z4.996 
G1 X1.974 Y6.387 Z4.996 
G1 X2.169 Y6.387 Z4.996 
G1 X2.169 Y6.389 Z4.996 
G1 X1.974 Y6.389 Z4.996 
G1 X1.974 Y6.392 Z4.996 
G1 X2.169 Y6.392 Z4.996 
G1 X2.169 Y6.394 Z4.996 
G1 X1.974 Y6.394 Z4.996 
G1 X1.974 Y6.397 Z4.996 
G1 X2.169 Y6.397 Z4.996 
G1 X2.169 Y6.399 Z4.996 
G1 X1.974 Y6.399 Z4.996 
G1 X1.974 Y6.402 Z4.996 
G1 X2.169 Y6.402 Z4.996 
G1 X2.169 Y6.404 Z4.996 
G1 X1.974 Y6.404 Z4.996 
G1 X1.974 Y6.407 Z4.996 
G1 X2.169 Y6.407 Z4.996 
G1 X2.169 Y6.409 Z4.996 
G1 X1.974 Y6.409 Z4.996 
G1 X1.974 Y6.412 Z4.996 
G1 X2.169 Y6.412 Z4.996 
G1 X2.169 Y6.414 Z4.996 
G1 X1.974 Y6.414 Z4.996 
G1 X1.974 Y6.417 Z4.996 
G1 X2.169 Y6.417 Z4.996 
G1 X2.169 Y6.419 Z4.996 
G1 X1.974 Y6.419 Z4.996 
G1 X1.974 Y6.422 Z4.996 
G1 X2.169 Y6.422 Z4.996 
G1 X2.169 Y6.424 Z4.996 
G1 X1.974 Y6.424 Z4.996 
G1 X1.974 Y6.427 Z4.996 
G1 X2.169 Y6.427 Z4.996 
G1 X2.169 Y6.429 Z4.996 
G1 X1.974 Y6.429 Z4.996 
G1 X1.974 Y6.432 Z4.996 
G1 X2.169 Y6.432 Z4.996 
G1 X2.169 Y6.434 Z4.996 
G1 X1.974 Y6.434 Z4.996 
G1 X1.974 Y6.437 Z4.996 
G1 X2.169 Y6.437 Z4.996 
G1 X2.169 Y6.439 Z4.996 
G1 X1.974 Y6.439 Z4.996 
G1 X1.974 Y6.442 Z4.996 
G1 X2.169 Y6.442 Z4.996 
G1 X2.169 Y6.444 Z4.996 
G1 X1.974 Y6.444 Z4.996 
G1 X1.974 Y6.447 Z4.996 
G1 X2.169 Y6.447 Z4.996 
G1 X2.169 Y6.449 Z4.996 
G1 X1.974 Y6.449 Z4.996 
G1 X1.974 Y6.452 Z4.996 
G1 X2.169 Y6.452 Z4.996 
G1 X2.169 Y6.454 Z4.996 
G1 X1.974 Y6.454 Z4.996 
G1 X1.974 Y6.457 Z4.996 
G1 X2.169 Y6.457 Z4.996 
G1 X2.169 Y6.459 Z4.996 
G1 X1.974 Y6.459 Z4.996 
G1 X1.974 Y6.462 Z4.996 
G1 X2.169 Y6.462 Z4.996 
G1 X2.169 Y6.464 Z4.996 
G1 X1.974 Y6.464 Z4.996 
G1 X1.974 Y6.467 Z4.996 
G1 X2.169 Y6.467 Z4.996 
G1 X2.169 Y6.469 Z4.996 
G1 X1.974 Y6.469 Z4.996 
G1 X1.974 Y6.472 Z4.996 
G1 X2.169 Y6.472 Z4.996 
G1 X2.169 Y6.474 Z4.996 
G1 X1.974 Y6.474 Z4.996 
G1 X1.974 Y6.477 Z4.996 
G1 X2.169 Y6.477 Z4.996 
G1 X2.169 Y6.479 Z4.996 
G1 X1.974 Y6.479 Z4.996 
G1 X1.974 Y6.482 Z4.996 
G1 X2.169 Y6.482 Z4.996 
G1 X2.169 Y6.484 Z4.996 
G1 X1.974 Y6.484 Z4.996 
G1 X1.974 Y6.487 Z4.996 
G1 X2.169 Y6.487 Z4.996 
G1 X2.169 Y6.489 Z4.996 
G1 X1.974 Y6.489 Z4.996 
G1 X1.974 Y6.492 Z4.996 
G1 X2.169 Y6.492 Z4.996 
G1 X2.169 Y6.494 Z4.996 
G1 X1.974 Y6.494 Z4.996 
G1 X1.974 Y6.497 Z4.996 
G1 X2.169 Y6.497 Z4.996 
G1 X2.169 Y6.499 Z4.996 
G1 X1.974 Y6.499 Z4.996 
G1 X1.974 Y6.502 Z4.996 
G1 X2.169 Y6.502 Z4.996 
G1 X2.169 Y6.504 Z4.996 
G1 X1.974 Y6.504 Z4.996 
G1 X1.974 Y6.507 Z4.996 
G1 X2.169 Y6.507 Z4.996 
G1 X2.169 Y6.509 Z4.996 
G1 X1.974 Y6.509 Z4.996 
G1 X1.974 Y6.512 Z4.996 
G1 X2.169 Y6.512 Z4.996 
G1 X2.169 Y6.512 Z4.991 
G1 X1.974 Y6.512 Z4.991 
G1 X1.974 Y6.509 Z4.991 
G1 X2.169 Y6.509 Z4.991 
G1 X2.169 Y6.507 Z4.991 
G1 X1.974 Y6.507 Z4.991 
G1 X1.974 Y6.504 Z4.991 
G1 X2.169 Y6.504 Z4.991 
G1 X2.169 Y6.502 Z4.991 
G1 X1.974 Y6.502 Z4.991 
G1 X1.974 Y6.499 Z4.991 
G1 X2.169 Y6.499 Z4.991 
G1 X2.169 Y6.497 Z4.991 
G1 X1.974 Y6.497 Z4.991 
G1 X1.974 Y6.494 Z4.991 
G1 X2.169 Y6.494 Z4.991 
G1 X2.169 Y6.492 Z4.991 
G1 X1.974 Y6.492 Z4.991 
G1 X1.974 Y6.489 Z4.991 
G1 X2.169 Y6.489 Z4.991 
G1 X2.169 Y6.487 Z4.991 
G1 X1.974 Y6.487 Z4.991 
G1 X1.974 Y6.484 Z4.991 
G1 X2.169 Y6.484 Z4.991 
G1 X2.169 Y6.482 Z4.991 
G1 X1.974 Y6.482 Z4.991 
G1 X1.974 Y6.479 Z4.991 
G1 X2.169 Y6.479 Z4.991 
G1 X2.169 Y6.477 Z4.991 
G1 X1.974 Y6.477 Z4.991 
G1 X1.974 Y6.474 Z4.991 
G1 X2.169 Y6.474 Z4.991 
G1 X2.169 Y6.472 Z4.991 
G1 X1.974 Y6.472 Z4.991 
G1 X1.974 Y6.469 Z4.991 
G1 X2.169 Y6.469 Z4.991 
G1 X2.169 Y6.467 Z4.991 
G1 X1.974 Y6.467 Z4.991 
G1 X1.974 Y6.464 Z4.991 
G1 X2.169 Y6.464 Z4.991 
G1 X2.169 Y6.462 Z4.991 
G1 X1.974 Y6.462 Z4.991 
G1 X1.974 Y6.459 Z4.991 
G1 X2.169 Y6.459 Z4.991 
G1 X2.169 Y6.457 Z4.991 
G1 X1.974 Y6.457 Z4.991 
G1 X1.974 Y6.454 Z4.991 
G1 X2.169 Y6.454 Z4.991 
G1 X2.169 Y6.452 Z4.991 
G1 X1.974 Y6.452 Z4.991 
G1 X1.974 Y6.449 Z4.991 
G1 X2.169 Y6.449 Z4.991 
G1 X2.169 Y6.447 Z4.991 
G1 X1.974 Y6.447 Z4.991 
G1 X1.974 Y6.444 Z4.991 
G1 X2.169 Y6.444 Z4.991 
G1 X2.169 Y6.442 Z4.991 
G1 X1.974 Y6.442 Z4.991 
G1 X1.974 Y6.439 Z4.991 
G1 X2.169 Y6.439 Z4.991 
G1 X2.169 Y6.437 Z4.991 
G1 X1.974 Y6.437 Z4.991 
G1 X1.974 Y6.434 Z4.991 
G1 X2.169 Y6.434 Z4.991 
G1 X2.169 Y6.432 Z4.991 
G1 X1.974 Y6.432 Z4.991 
G1 X1.974 Y6.429 Z4.991 
G1 X2.169 Y6.429 Z4.991 
G1 X2.169 Y6.427 Z4.991 
G1 X1.974 Y6.427 Z4.991 
G1 X1.974 Y6.424 Z4.991 
G1 X2.169 Y6.424 Z4.991 
G1 X2.169 Y6.422 Z4.991 
G1 X1.974 Y6.422 Z4.991 
G1 X1.974 Y6.419 Z4.991 
G1 X2.169 Y6.419 Z4.991 
G1 X2.169 Y6.417 Z4.991 
G1 X1.974 Y6.417 Z4.991 
G1 X1.974 Y6.414 Z4.991 
G1 X2.169 Y6.414 Z4.991 
G1 X2.169 Y6.412 Z4.991 
G1 X1.974 Y6.412 Z4.991 
G1 X1.974 Y6.409 Z4.991 
G1 X2.169 Y6.409 Z4.991 
G1 X2.169 Y6.407 Z4.991 
G1 X1.974 Y6.407 Z4.991 
G1 X1.974 Y6.404 Z4.991 
G1 X2.169 Y6.404 Z4.991 
G1 X2.169 Y6.402 Z4.991 
G1 X1.974 Y6.402 Z4.991 
G1 X1.974 Y6.399 Z4.991 
G1 X2.169 Y6.399 Z4.991 
G1 X2.169 Y6.397 Z4.991 
G1 X1.974 Y6.397 Z4.991 
G1 X1.974 Y6.394 Z4.991 
G1 X2.169 Y6.394 Z4.991 
G1 X2.169 Y6.392 Z4.991 
G1 X1.974 Y6.392 Z4.991 
G1 X1.974 Y6.389 Z4.991 
G1 X2.169 Y6.389 Z4.991 
G1 X2.169 Y6.387 Z4.991 
G1 X1.974 Y6.387 Z4.991 
G1 X1.974 Y6.384 Z4.991 
G1 X2.169 Y6.384 Z4.991 
G1 X2.169 Y6.382 Z4.991 
G1 X1.974 Y6.382 Z4.991 
G1 X1.974 Y6.379 Z4.991 
G1 X2.169 Y6.379 Z4.991 
G1 X2.169 Y6.377 Z4.991 
G1 X1.974 Y6.377 Z4.991 
G1 X1.974 Y6.374 Z4.991 
G1 X2.169 Y6.374 Z4.991 
G1 X2.169 Y6.372 Z4.991 
G1 X1.974 Y6.372 Z4.991 
G1 X1.974 Y6.369 Z4.991 
G1 X2.169 Y6.369 Z4.991 
G1 X2.169 Y6.367 Z4.991 
G1 X1.974 Y6.367 Z4.991 
G1 X1.974 Y6.364 Z4.991 
G1 X2.169 Y6.364 Z4.991 
G1 X2.169 Y6.362 Z4.991 
G1 X1.974 Y6.362 Z4.991 
G1 X1.974 Y6.359 Z4.991 
G1 X2.169 Y6.359 Z4.991 
G1 X2.169 Y6.357 Z4.991 
G1 X1.974 Y6.357 Z4.991 
G1 X1.974 Y6.354 Z4.991 
G1 X2.169 Y6.354 Z4.991 
G1 X2.169 Y6.352 Z4.991 
G1 X1.974 Y6.352 Z4.991 
G1 X1.974 Y6.349 Z4.991 
G1 X2.169 Y6.349 Z4.991 
G1 X2.169 Y6.347 Z4.991 
G1 X1.974 Y6.347 Z4.991 
G1 X1.974 Y6.344 Z4.991 
G1 X2.169 Y6.344 Z4.991 
G1 X2.169 Y6.342 Z4.991 
G1 X1.974 Y6.342 Z4.991 
G1 X1.974 Y6.339 Z4.991 
G1 X2.169 Y6.339 Z4.991 
G1 X2.169 Y6.337 Z4.991 
G1 X1.974 Y6.337 Z4.991 
G1 X1.974 Y6.334 Z4.991 
G1 X2.169 Y6.334 Z4.991 
G1 X2.169 Y6.332 Z4.991 
G1 X1.974 Y6.332 Z4.991 
G1 X1.974 Y6.329 Z4.991 
G1 X2.169 Y6.329 Z4.991 
G1 X2.169 Y6.327 Z4.991 
G1 X1.974 Y6.327 Z4.991 
G1 X1.974 Y6.324 Z4.991 
G1 X2.169 Y6.324 Z4.991 
G1 X2.169 Y6.322 Z4.991 
G1 X1.974 Y6.322 Z4.991 
G1 X1.974 Y6.319 Z4.991 
G1 X2.169 Y6.319 Z4.991 
G1 X2.169 Y6.317 Z4.991 
G1 X1.974 Y6.317 Z4.991 
G1 X1.974 Y6.317 Z4.990 
G1 X2.169 Y6.317 Z4.990 
G1 X2.169 Y6.319 Z4.990 
G1 X1.974 Y6.319 Z4.990 
G1 X1.974 Y6.322 Z4.990 
G1 X2.169 Y6.322 Z4.990 
G1 X2.169 Y6.324 Z4.990 
G1 X1.974 Y6.324 Z4.990 
G1 X1.974 Y6.327 Z4.990 
G1 X2.169 Y6.327 Z4.990 
G1 X2.169 Y6.329 Z4.990 
G1 X1.974 Y6.329 Z4.990 
G1 X1.974 Y6.332 Z4.990 
G1 X2.169 Y6.332 Z4.990 
G1 X2.169 Y6.334 Z4.990 
G1 X1.974 Y6.334 Z4.990 
G1 X1.974 Y6.337 Z4.990 
G1 X2.169 Y6.337 Z4.990 
G1 X2.169 Y6.339 Z4.990 
G1 X1.974 Y6.339 Z4.990 
G1 X1.974 Y6.342 Z4.990 
G1 X2.169 Y6.342 Z4.990 
G1 X2.169 Y6.344 Z4.990 
G1 X1.974 Y6.344 Z4.990 
G1 X1.974 Y6.347 Z4.990 
G1 X2.169 Y6.347 Z4.990 
G1 X2.169 Y6.349 Z4.990 
G1 X1.974 Y6.349 Z4.990 
G1 X1.974 Y6.352 Z4.990 
G1 X2.169 Y6.352 Z4.990 
G1 X2.169 Y6.354 Z4.990 
G1 X1.974 Y6.354 Z4.990 
G1 X1.974 Y6.357 Z4.990 
G1 X2.169 Y6.357 Z4.990 
G1 X2.169 Y6.359 Z4.990 
G1 X1.974 Y6.359 Z4.990 
G1 X1.974 Y6.362 Z4.990 
G1 X2.169 Y6.362 Z4.990 
G1 X2.169 Y6.364 Z4.990 
G1 X1.974 Y6.364 Z4.990 
G1 X1.974 Y6.367 Z4.990 
G1 X2.169 Y6.367 Z4.990 
G1 X2.169 Y6.369 Z4.990 
G1 X1.974 Y6.369 Z4.990 
G1 X1.974 Y6.372 Z4.990 
G1 X2.169 Y6.372 Z4.990 
G1 X2.169 Y6.374 Z4.990 
G1 X1.974 Y6.374 Z4.990 
G1 X1.974 Y6.377 Z4.990 
G1 X2.169 Y6.377 Z4.990 
G1 X2.169 Y6.379 Z4.990 
G1 X1.974 Y6.379 Z4.990 
G1 X1.974 Y6.382 Z4.990 
G1 X2.169 Y6.382 Z4.990 
G1 X2.169 Y6.384 Z4.990 
G1 X1.974 Y6.384 Z4.990 
G1 X1.974 Y6.387 Z4.990 
G1 X2.169 Y6.387 Z4.990 
G1 X2.169 Y6.389 Z4.990 
G1 X1.974 Y6.389 Z4.990 
G1 X1.974 Y6.392 Z4.990 
G1 X2.169 Y6.392 Z4.990 
G1 X2.169 Y6.394 Z4.990 
G1 X1.974 Y6.394 Z4.990 
G1 X1.974 Y6.397 Z4.990 
G1 X2.169 Y6.397 Z4.990 
G1 X2.169 Y6.399 Z4.990 
G1 X1.974 Y6.399 Z4.990 
G1 X1.974 Y6.402 Z4.990 
G1 X2.169 Y6.402 Z4.990 
G1 X2.169 Y6.404 Z4.990 
G1 X1.974 Y6.404 Z4.990 
G1 X1.974 Y6.407 Z4.990 
G1 X2.169 Y6.407 Z4.990 
G1 X2.169 Y6.409 Z4.990 
G1 X1.974 Y6.409 Z4.990 
G1 X1.974 Y6.412 Z4.990 
G1 X2.169 Y6.412 Z4.990 
G1 X2.169 Y6.414 Z4.990 
G1 X1.974 Y6.414 Z4.990 
G1 X1.974 Y6.417 Z4.990 
G1 X2.169 Y6.417 Z4.990 
G1 X2.169 Y6.419 Z4.990 
G1 X1.974 Y6.419 Z4.990 
G1 X1.974 Y6.422 Z4.990 
G1 X2.169 Y6.422 Z4.990 
G1 X2.169 Y6.424 Z4.990 
G1 X1.974 Y6.424 Z4.990 
G1 X1.974 Y6.427 Z4.990 
G1 X2.169 Y6.427 Z4.990 
G1 X2.169 Y6.429 Z4.990 
G1 X1.974 Y6.429 Z4.990 
G1 X1.974 Y6.432 Z4.990 
G1 X2.169 Y6.432 Z4.990 
G1 X2.169 Y6.434 Z4.990 
G1 X1.974 Y6.434 Z4.990 
G1 X1.974 Y6.437 Z4.990 
G1 X2.169 Y6.437 Z4.990 
G1 X2.169 Y6.439 Z4.990 
G1 X1.974 Y6.439 Z4.990 
G1 X1.974 Y6.442 Z4.990 
G1 X2.169 Y6.442 Z4.990 
G1 X2.169 Y6.444 Z4.990 
G1 X1.974 Y6.444 Z4.990 
G1 X1.974 Y6.447 Z4.990 
G1 X2.169 Y6.447 Z4.990 
G1 X2.169 Y6.449 Z4.990 
G1 X1.974 Y6.449 Z4.990 
G1 X1.974 Y6.452 Z4.990 
G1 X2.169 Y6.452 Z4.990 
G1 X2.169 Y6.454 Z4.990 
G1 X1.974 Y6.454 Z4.990 
G1 X1.974 Y6.457 Z4.990 
G1 X2.169 Y6.457 Z4.990 
G1 X2.169 Y6.459 Z4.990 
G1 X1.974 Y6.459 Z4.990 
G1 X1.974 Y6.462 Z4.990 
G1 X2.169 Y6.462 Z4.990 
G1 X2.169 Y6.464 Z4.990 
G1 X1.974 Y6.464 Z4.990 
G1 X1.974 Y6.467 Z4.990 
G1 X2.169 Y6.467 Z4.990 
G1 X2.169 Y6.469 Z4.990 
G1 X1.974 Y6.469 Z4.990 
G1 X1.974 Y6.472 Z4.990 
G1 X2.169 Y6.472 Z4.990 
G1 X2.169 Y6.474 Z4.990 
G1 X1.974 Y6.474 Z4.990 
G1 X1.974 Y6.477 Z4.990 
G1 X2.169 Y6.477 Z4.990 
G1 X2.169 Y6.479 Z4.990 
G1 X1.974 Y6.479 Z4.990 
G1 X1.974 Y6.482 Z4.990 
G1 X2.169 Y6.482 Z4.990 
G1 X2.169 Y6.484 Z4.990 
G1 X1.974 Y6.484 Z4.990 
G1 X1.974 Y6.487 Z4.990 
G1 X2.169 Y6.487 Z4.990 
G1 X2.169 Y6.489 Z4.990 
G1 X1.974 Y6.489 Z4.990 
G1 X1.974 Y6.492 Z4.990 
G1 X2.169 Y6.492 Z4.990 
G1 X2.169 Y6.494 Z4.990 
G1 X1.974 Y6.494 Z4.990 
G1 X1.974 Y6.497 Z4.990 
G1 X2.169 Y6.497 Z4.990 
G1 X2.169 Y6.499 Z4.990 
G1 X1.974 Y6.499 Z4.990 
G1 X1.974 Y6.502 Z4.990 
G1 X2.169 Y6.502 Z4.990 
G1 X2.169 Y6.504 Z4.990 
G1 X1.974 Y6.504 Z4.990 
G1 X1.974 Y6.507 Z4.990 
G1 X2.169 Y6.507 Z4.990 
G1 X2.169 Y6.509 Z4.990 
G1 X1.974 Y6.509 Z4.990 
G1 X1.974 Y6.512 Z4.990 
G1 X2.169 Y6.512 Z4.990 
G0 Z10.001 
G0 Z10.001 
G0 X2.169 Y6.512 
G0 X1.974 Y8.488 
G0 X1.974 Y8.488 Z8.001 
G1 X1.974 Y8.488 Z4.996 
G1 X2.169 Y8.488 Z4.996 
G1 X2.169 Y8.491 Z4.996 
G1 X1.974 Y8.491 Z4.996 
G1 X1.974 Y8.493 Z4.996 
G1 X2.169 Y8.493 Z4.996 
G1 X2.169 Y8.496 Z4.996 
G1 X1.974 Y8.496 Z4.996 
G1 X1.974 Y8.498 Z4.996 
G1 X2.169 Y8.498 Z4.996 
G1 X2.169 Y8.501 Z4.996 
G1 X1.974 Y8.501 Z4.996 
G1 X1.974 Y8.503 Z4.996 
G1 X2.169 Y8.503 Z4.996 
G1 X2.169 Y8.506 Z4.996 
G1 X1.974 Y8.506 Z4.996 
G1 X1.974 Y8.508 Z4.996 
G1 X2.169 Y8.508 Z4.996 
G1 X2.169 Y8.511 Z4.996 
G1 X1.974 Y8.511 Z4.996 
G1 X1.974 Y8.513 Z4.996 
G1 X2.169 Y8.513 Z4.996 
G1 X2.169 Y8.516 Z4.996 
G1 X1.974 Y8.516 Z4.996 
G1 X1.974 Y8.518 Z4.996 
G1 X2.169 Y8.518 Z4.996 
G1 X2.169 Y8.521 Z4.996 
G1 X1.974 Y8.521 Z4.996 
G1 X1.974 Y8.523 Z4.996 
G1 X2.169 Y8.523 Z4.996 
G1 X2.169 Y8.526 Z4.996 
G1 X1.974 Y8.526 Z4.996 
G1 X1.974 Y8.528 Z4.996 
G1 X2.169 Y8.528 Z4.996 
G1 X2.169 Y8.531 Z4.996 
G1 X1.974 Y8.531 Z4.996 
G1 X1.974 Y8.533 Z4.996 
G1 X2.169 Y8.533 Z4.996 
G1 X2.169 Y8.536 Z4.996 
G1 X1.974 Y8.536 Z4.996 
G1 X1.974 Y8.538 Z4.996 
G1 X2.169 Y8.538 Z4.996 
G1 X2.169 Y8.541 Z4.996 
G1 X1.974 Y8.541 Z4.996 
G1 X1.974 Y8.543 Z4.996 
G1 X2.169 Y8.543 Z4.996 
G1 X2.169 Y8.546 Z4.996 
G1 X1.974 Y8.546 Z4.996 
G1 X1.974 Y8.548 Z4.996 
G1 X2.169 Y8.548 Z4.996 
G1 X2.169 Y8.551 Z4.996 
G1 X1.974 Y8.551 Z4.996 
G1 X1.974 Y8.553 Z4.996 
G1 X2.169 Y8.553 Z4.996 
G1 X2.169 Y8.556 Z4.996 
G1 X1.974 Y8.556 Z4.996 
G1 X1.974 Y8.558 Z4.996 
G1 X2.169 Y8.558 Z4.996 
G1 X2.169 Y8.561 Z4.996 
G1 X1.974 Y8.561 Z4.996 
G1 X1.974 Y8.563 Z4.996 
G1 X2.169 Y8.563 Z4.996 
G1 X2.169 Y8.566 Z4.996 
G1 X1.974 Y8.566 Z4.996 
G1 X1.974 Y8.568 Z4.996 
G1 X2.169 Y8.568 Z4.996 
G1 X2.169 Y8.571 Z4.996 
G1 X1.974 Y8.571 Z4.996 
G1 X1.974 Y8.573 Z4.996 
G1 X2.169 Y8.573 Z4.996 
G1 X2.169 Y8.576 Z4.996 
G1 X1.974 Y8.576 Z4.996 
G1 X1.974 Y8.578 Z4.996 
G1 X2.169 Y8.578 Z4.996 
G1 X2.169 Y8.581 Z4.996 
G1 X1.974 Y8.581 Z4.996 
G1 X1.974 Y8.583 Z4.996 
G1 X2.169 Y8.583 Z4.996 
G1 X2.169 Y8.586 Z4.996 
G1 X1.974 Y8.586 Z4.996 
G1 X1.974 Y8.588 Z4.996 
G1 X2.169 Y8.588 Z4.996 
G1 X2.169 Y8.591 Z4.996 
G1 X1.974 Y8.591 Z4.996 
G1 X1.974 Y8.593 Z4.996 
G1 X2.169 Y8.593 Z4.996 
G1 X2.169 Y8.596 Z4.996 
G1 X1.974 Y8.596 Z4.996 
G1 X1.974 Y8.598 Z4.996 
G1 X2.169 Y8.598 Z4.996 
G1 X2.169 Y8.601 Z4.996 
G1 X1.974 Y8.601 Z4.996 
G1 X1.974 Y8.603 Z4.996 
G1 X2.169 Y8.603 Z4.996 
G1 X2.169 Y8.606 Z4.996 
G1 X1.974 Y8.606 Z4.996 
G1 X1.974 Y8.608 Z4.996 
G1 X2.169 Y8.608 Z4.996 
G1 X2.169 Y8.611 Z4.996 
G1 X1.974 Y8.611 Z4.996 
G1 X1.974 Y8.613 Z4.996 
G1 X2.169 Y8.613 Z4.996 
G1 X2.169 Y8.616 Z4.996 
G1 X1.974 Y8.616 Z4.996 
G1 X1.974 Y8.618 Z4.996 
G1 X2.169 Y8.618 Z4.996 
G1 X2.169 Y8.621 Z4.996 
G1 X1.974 Y8.621 Z4.996 
G1 X1.974 Y8.623 Z4.996 
G1 X2.169 Y8.623 Z4.996 
G1 X2.169 Y8.626 Z4.996 
G1 X1.974 Y8.626 Z4.996 
G1 X1.974 Y8.628 Z4.996 
G1 X2.169 Y8.628 Z4.996 
G1 X2.169 Y8.631 Z4.996 
G1 X1.974 Y8.631 Z4.996 
G1 X1.974 Y8.633 Z4.996 
G1 X2.169 Y8.633 Z4.996 
G1 X2.169 Y8.636 Z4.996 
G1 X1.974 Y8.636 Z4.996 
G1 X1.974 Y8.638 Z4.996 
G1 X2.169 Y8.638 Z4.996 
G1 X2.169 Y8.641 Z4.996 
G1 X1.974 Y8.641 Z4.996 
G1 X1.974 Y8.643 Z4.996 
G1 X2.169 Y8.643 Z4.996 
G1 X2.169 Y8.646 Z4.996 
G1 X1.974 Y8.646 Z4.996 
G1 X1.974 Y8.648 Z4.996 
G1 X2.169 Y8.648 Z4.996 
G1 X2.169 Y8.651 Z4.996 
G1 X1.974 Y8.651 Z4.996 
G1 X1.974 Y8.653 Z4.996 
G1 X2.169 Y8.653 Z4.996 
G1 X2.169 Y8.656 Z4.996 
G1 X1.974 Y8.656 Z4.996 
G1 X1.974 Y8.658 Z4.996 
G1 X2.169 Y8.658 Z4.996 
G1 X2.169 Y8.661 Z4.996 
G1 X1.974 Y8.661 Z4.996 
G1 X1.974 Y8.663 Z4.996 
G1 X2.169 Y8.663 Z4.996 
G1 X2.169 Y8.666 Z4.996 
G1 X1.974 Y8.666 Z4.996 
G1 X1.974 Y8.668 Z4.996 
G1 X2.169 Y8.668 Z4.996 
G1 X2.169 Y8.671 Z4.996 
G1 X1.974 Y8.671 Z4.996 
G1 X1.974 Y8.673 Z4.996 
G1 X2.169 Y8.673 Z4.996 
G1 X2.169 Y8.676 Z4.996 
G1 X1.974 Y8.676 Z4.996 
G1 X1.974 Y8.678 Z4.996 
G1 X2.169 Y8.678 Z4.996 
G1 X2.169 Y8.681 Z4.996 
G1 X1.974 Y8.681 Z4.996 
G1 X1.974 Y8.683 Z4.996 
G1 X2.169 Y8.683 Z4.996 
G1 X2.169 Y8.683 Z4.991 
G1 X1.974 Y8.683 Z4.991 
G1 X1.974 Y8.681 Z4.991 
G1 X2.169 Y8.681 Z4.991 
G1 X2.169 Y8.678 Z4.991 
G1 X1.974 Y8.678 Z4.991 
G1 X1.974 Y8.676 Z4.991 
G1 X2.169 Y8.676 Z4.991 
G1 X2.169 Y8.673 Z4.991 
G1 X1.974 Y8.673 Z4.991 
G1 X1.974 Y8.671 Z4.991 
G1 X2.169 Y8.671 Z4.991 
G1 X2.169 Y8.668 Z4.991 
G1 X1.974 Y8.668 Z4.991 
G1 X1.974 Y8.666 Z4.991 
G1 X2.169 Y8.666 Z4.991 
G1 X2.169 Y8.663 Z4.991 
G1 X1.974 Y8.663 Z4.991 
G1 X1.974 Y8.661 Z4.991 
G1 X2.169 Y8.661 Z4.991 
G1 X2.169 Y8.658 Z4.991 
G1 X1.974 Y8.658 Z4.991 
G1 X1.974 Y8.656 Z4.991 
G1 X2.169 Y8.656 Z4.991 
G1 X2.169 Y8.653 Z4.991 
G1 X1.974 Y8.653 Z4.991 
G1 X1.974 Y8.651 Z4.991 
G1 X2.169 Y8.651 Z4.991 
G1 X2.169 Y8.648 Z4.991 
G1 X1.974 Y8.648 Z4.991 
G1 X1.974 Y8.646 Z4.991 
G1 X2.169 Y8.646 Z4.991 
G1 X2.169 Y8.643 Z4.991 
G1 X1.974 Y8.643 Z4.991 
G1 X1.974 Y8.641 Z4.991 
G1 X2.169 Y8.641 Z4.991 
G1 X2.169 Y8.638 Z4.991 
G1 X1.974 Y8.638 Z4.991 
G1 X1.974 Y8.636 Z4.991 
G1 X2.169 Y8.636 Z4.991 
G1 X2.169 Y8.633 Z4.991 
G1 X1.974 Y8.633 Z4.991 
G1 X1.974 Y8.631 Z4.991 
G1 X2.169 Y8.631 Z4.991 
G1 X2.169 Y8.628 Z4.991 
G1 X1.974 Y8.628 Z4.991 
G1 X1.974 Y8.626 Z4.991 
G1 X2.169 Y8.626 Z4.991 
G1 X2.169 Y8.623 Z4.991 
G1 X1.974 Y8.623 Z4.991 
G1 X1.974 Y8.621 Z4.991 
G1 X2.169 Y8.621 Z4.991 
G1 X2.169 Y8.618 Z4.991 
G1 X1.974 Y8.618 Z4.991 
G1 X1.974 Y8.616 Z4.991 
G1 X2.169 Y8.616 Z4.991 
G1 X2.169 Y8.613 Z4.991 
G1 X1.974 Y8.613 Z4.991 
G1 X1.974 Y8.611 Z4.991 
G1 X2.169 Y8.611 Z4.991 
G1 X2.169 Y8.608 Z4.991 
G1 X1.974 Y8.608 Z4.991 
G1 X1.974 Y8.606 Z4.991 
G1 X2.169 Y8.606 Z4.991 
G1 X2.169 Y8.603 Z4.991 
G1 X1.974 Y8.603 Z4.991 
G1 X1.974 Y8.601 Z4.991 
G1 X2.169 Y8.601 Z4.991 
G1 X2.169 Y8.598 Z4.991 
G1 X1.974 Y8.598 Z4.991 
G1 X1.974 Y8.596 Z4.991 
G1 X2.169 Y8.596 Z4.991 
G1 X2.169 Y8.593 Z4.991 
G1 X1.974 Y8.593 Z4.991 
G1 X1.974 Y8.591 Z4.991 
G1 X2.169 Y8.591 Z4.991 
G1 X2.169 Y8.588 Z4.991 
G1 X1.974 Y8.588 Z4.991 
G1 X1.974 Y8.586 Z4.991 
G1 X2.169 Y8.586 Z4.991 
G1 X2.169 Y8.583 Z4.991 
G1 X1.974 Y8.583 Z4.991 
G1 X1.974 Y8.581 Z4.991 
G1 X2.169 Y8.581 Z4.991 
G1 X2.169 Y8.578 Z4.991 
G1 X1.974 Y8.578 Z4.991 
G1 X1.974 Y8.576 Z4.991 
G1 X2.169 Y8.576 Z4.991 
G1 X2.169 Y8.573 Z4.991 
G1 X1.974 Y8.573 Z4.991 
G1 X1.974 Y8.571 Z4.991 
G1 X2.169 Y8.571 Z4.991 
G1 X2.169 Y8.568 Z4.991 
G1 X1.974 Y8.568 Z4.991 
G1 X1.974 Y8.566 Z4.991 
G1 X2.169 Y8.566 Z4.991 
G1 X2.169 Y8.563 Z4.991 
G1 X1.974 Y8.563 Z4.991 
G1 X1.974 Y8.561 Z4.991 
G1 X2.169 Y8.561 Z4.991 
G1 X2.169 Y8.558 Z4.991 
G1 X1.974 Y8.558 Z4.991 
G1 X1.974 Y8.556 Z4.991 
G1 X2.169 Y8.556 Z4.991 
G1 X2.169 Y8.553 Z4.991 
G1 X1.974 Y8.553 Z4.991 
G1 X1.974 Y8.551 Z4.991 
G1 X2.169 Y8.551 Z4.991 
G1 X2.169 Y8.548 Z4.991 
G1 X1.974 Y8.548 Z4.991 
G1 X1.974 Y8.546 Z4.991 
G1 X2.169 Y8.546 Z4.991 
G1 X2.169 Y8.543 Z4.991 
G1 X1.974 Y8.543 Z4.991 
G1 X1.974 Y8.541 Z4.991 
G1 X2.169 Y8.541 Z4.991 
G1 X2.169 Y8.538 Z4.991 
G1 X1.974 Y8.538 Z4.991 
G1 X1.974 Y8.536 Z4.991 
G1 X2.169 Y8.536 Z4.991 
G1 X2.169 Y8.533 Z4.991 
G1 X1.974 Y8.533 Z4.991 
G1 X1.974 Y8.531 Z4.991 
G1 X2.169 Y8.531 Z4.991 
G1 X2.169 Y8.528 Z4.991 
G1 X1.974 Y8.528 Z4.991 
G1 X1.974 Y8.526 Z4.991 
G1 X2.169 Y8.526 Z4.991 
G1 X2.169 Y8.523 Z4.991 
G1 X1.974 Y8.523 Z4.991 
G1 X1.974 Y8.521 Z4.991 
G1 X2.169 Y8.521 Z4.991 
G1 X2.169 Y8.518 Z4.991 
G1 X1.974 Y8.518 Z4.991 
G1 X1.974 Y8.516 Z4.991 
G1 X2.169 Y8.516 Z4.991 
G1 X2.169 Y8.513 Z4.991 
G1 X1.974 Y8.513 Z4.991 
G1 X1.974 Y8.511 Z4.991 
G1 X2.169 Y8.511 Z4.991 
G1 X2.169 Y8.508 Z4.991 
G1 X1.974 Y8.508 Z4.991 
G1 X1.974 Y8.506 Z4.991 
G1 X2.169 Y8.506 Z4.991 
G1 X2.169 Y8.503 Z4.991 
G1 X1.974 Y8.503 Z4.991 
G1 X1.974 Y8.501 Z4.991 
G1 X2.169 Y8.501 Z4.991 
G1 X2.169 Y8.498 Z4.991 
G1 X1.974 Y8.498 Z4.991 
G1 X1.974 Y8.496 Z4.991 
G1 X2.169 Y8.496 Z4.991 
G1 X2.169 Y8.493 Z4.991 
G1 X1.974 Y8.493 Z4.991 
G1 X1.974 Y8.491 Z4.991 
G1 X2.169 Y8.491 Z4.991 
G1 X2.169 Y8.488 Z4.991 
G1 X1.974 Y8.488 Z4.991 
G1 X1.974 Y8.488 Z4.990 
G1 X2.169 Y8.488 Z4.990 
G1 X2.169 Y8.491 Z4.990 
G1 X1.974 Y8.491 Z4.990 
G1 X1.974 Y8.493 Z4.990 
G1 X2.169 Y8.493 Z4.990 
G1 X2.169 Y8.496 Z4.990 
G1 X1.974 Y8.496 Z4.990 
G1 X1.974 Y8.498 Z4.990 
G1 X2.169 Y8.498 Z4.990 
G1 X2.169 Y8.501 Z4.990 
G1 X1.974 Y8.501 Z4.990 
G1 X1.974 Y8.503 Z4.990 
G1 X2.169 Y8.503 Z4.990 
G1 X2.169 Y8.506 Z4.990 
G1 X1.974 Y8.506 Z4.990 
G1 X1.974 Y8.508 Z4.990 
G1 X2.169 Y8.508 Z4.990 
G1 X2.169 Y8.511 Z4.990 
G1 X1.974 Y8.511 Z4.990 
G1 X1.974 Y8.513 Z4.990 
G1 X2.169 Y8.513 Z4.990 
G1 X2.169 Y8.516 Z4.990 
G1 X1.974 Y8.516 Z4.990 
G1 X1.974 Y8.518 Z4.990 
G1 X2.169 Y8.518 Z4.990 
G1 X2.169 Y8.521 Z4.990 
G1 X1.974 Y8.521 Z4.990 
G1 X1.974 Y8.523 Z4.990 
G1 X2.169 Y8.523 Z4.990 
G1 X2.169 Y8.526 Z4.990 
G1 X1.974 Y8.526 Z4.990 
G1 X1.974 Y8.528 Z4.990 
G1 X2.169 Y8.528 Z4.990 
G1 X2.169 Y8.531 Z4.990 
G1 X1.974 Y8.531 Z4.990 
G1 X1.974 Y8.533 Z4.990 
G1 X2.169 Y8.533 Z4.990 
G1 X2.169 Y8.536 Z4.990 
G1 X1.974 Y8.536 Z4.990 
G1 X1.974 Y8.538 Z4.990 
G1 X2.169 Y8.538 Z4.990 
G1 X2.169 Y8.541 Z4.990 
G1 X1.974 Y8.541 Z4.990 
G1 X1.974 Y8.543 Z4.990 
G1 X2.169 Y8.543 Z4.990 
G1 X2.169 Y8.546 Z4.990 
G1 X1.974 Y8.546 Z4.990 
G1 X1.974 Y8.548 Z4.990 
G1 X2.169 Y8.548 Z4.990 
G1 X2.169 Y8.551 Z4.990 
G1 X1.974 Y8.551 Z4.990 
G1 X1.974 Y8.553 Z4.990 
G1 X2.169 Y8.553 Z4.990 
G1 X2.169 Y8.556 Z4.990 
G1 X1.974 Y8.556 Z4.990 
G1 X1.974 Y8.558 Z4.990 
G1 X2.169 Y8.558 Z4.990 
G1 X2.169 Y8.561 Z4.990 
G1 X1.974 Y8.561 Z4.990 
G1 X1.974 Y8.563 Z4.990 
G1 X2.169 Y8.563 Z4.990 
G1 X2.169 Y8.566 Z4.990 
G1 X1.974 Y8.566 Z4.990 
G1 X1.974 Y8.568 Z4.990 
G1 X2.169 Y8.568 Z4.990 
G1 X2.169 Y8.571 Z4.990 
G1 X1.974 Y8.571 Z4.990 
G1 X1.974 Y8.573 Z4.990 
G1 X2.169 Y8.573 Z4.990 
G1 X2.169 Y8.576 Z4.990 
G1 X1.974 Y8.576 Z4.990 
G1 X1.974 Y8.578 Z4.990 
G1 X2.169 Y8.578 Z4.990 
G1 X2.169 Y8.581 Z4.990 
G1 X1.974 Y8.581 Z4.990 
G1 X1.974 Y8.583 Z4.990 
G1 X2.169 Y8.583 Z4.990 
G1 X2.169 Y8.586 Z4.990 
G1 X1.974 Y8.586 Z4.990 
G1 X1.974 Y8.588 Z4.990 
G1 X2.169 Y8.588 Z4.990 
G1 X2.169 Y8.591 Z4.990 
G1 X1.974 Y8.591 Z4.990 
G1 X1.974 Y8.593 Z4.990 
G1 X2.169 Y8.593 Z4.990 
G1 X2.169 Y8.596 Z4.990 
G1 X1.974 Y8.596 Z4.990 
G1 X1.974 Y8.598 Z4.990 
G1 X2.169 Y8.598 Z4.990 
G1 X2.169 Y8.601 Z4.990 
G1 X1.974 Y8.601 Z4.990 
G1 X1.974 Y8.603 Z4.990 
G1 X2.169 Y8.603 Z4.990 
G1 X2.169 Y8.606 Z4.990 
G1 X1.974 Y8.606 Z4.990 
G1 X1.974 Y8.608 Z4.990 
G1 X2.169 Y8.608 Z4.990 
G1 X2.169 Y8.611 Z4.990 
G1 X1.974 Y8.611 Z4.990 
G1 X1.974 Y8.613 Z4.990 
G1 X2.169 Y8.613 Z4.990 
G1 X2.169 Y8.616 Z4.990 
G1 X1.974 Y8.616 Z4.990 
G1 X1.974 Y8.618 Z4.990 
G1 X2.169 Y8.618 Z4.990 
G1 X2.169 Y8.621 Z4.990 
G1 X1.974 Y8.621 Z4.990 
G1 X1.974 Y8.623 Z4.990 
G1 X2.169 Y8.623 Z4.990 
G1 X2.169 Y8.626 Z4.990 
G1 X1.974 Y8.626 Z4.990 
G1 X1.974 Y8.628 Z4.990 
G1 X2.169 Y8.628 Z4.990 
G1 X2.169 Y8.631 Z4.990 
G1 X1.974 Y8.631 Z4.990 
G1 X1.974 Y8.633 Z4.990 
G1 X2.169 Y8.633 Z4.990 
G1 X2.169 Y8.636 Z4.990 
G1 X1.974 Y8.636 Z4.990 
G1 X1.974 Y8.638 Z4.990 
G1 X2.169 Y8.638 Z4.990 
G1 X2.169 Y8.641 Z4.990 
G1 X1.974 Y8.641 Z4.990 
G1 X1.974 Y8.643 Z4.990 
G1 X2.169 Y8.643 Z4.990 
G1 X2.169 Y8.646 Z4.990 
G1 X1.974 Y8.646 Z4.990 
G1 X1.974 Y8.648 Z4.990 
G1 X2.169 Y8.648 Z4.990 
G1 X2.169 Y8.651 Z4.990 
G1 X1.974 Y8.651 Z4.990 
G1 X1.974 Y8.653 Z4.990 
G1 X2.169 Y8.653 Z4.990 
G1 X2.169 Y8.656 Z4.990 
G1 X1.974 Y8.656 Z4.990 
G1 X1.974 Y8.658 Z4.990 
G1 X2.169 Y8.658 Z4.990 
G1 X2.169 Y8.661 Z4.990 
G1 X1.974 Y8.661 Z4.990 
G1 X1.974 Y8.663 Z4.990 
G1 X2.169 Y8.663 Z4.990 
G1 X2.169 Y8.666 Z4.990 
G1 X1.974 Y8.666 Z4.990 
G1 X1.974 Y8.668 Z4.990 
G1 X2.169 Y8.668 Z4.990 
G1 X2.169 Y8.671 Z4.990 
G1 X1.974 Y8.671 Z4.990 
G1 X1.974 Y8.673 Z4.990 
G1 X2.169 Y8.673 Z4.990 
G1 X2.169 Y8.676 Z4.990 
G1 X1.974 Y8.676 Z4.990 
G1 X1.974 Y8.678 Z4.990 
G1 X2.169 Y8.678 Z4.990 
G1 X2.169 Y8.681 Z4.990 
G1 X1.974 Y8.681 Z4.990 
G1 X1.974 Y8.683 Z4.990 
G1 X2.169 Y8.683 Z4.990 
G0 Z10.001 
G0 Z10.001 
G0 X2.169 Y8.683 
G0 X1.974 Y10.660 
G0 X1.974 Y10.660 Z8.001 
G1 X1.974 Y10.660 Z4.996 
G1 X2.169 Y10.660 Z4.996 
G1 X2.169 Y10.662 Z4.996 
G1 X1.974 Y10.662 Z4.996 
G1 X1.974 Y10.665 Z4.996 
G1 X2.169 Y10.665 Z4.996 
G1 X2.169 Y10.667 Z4.996 
G1 X1.974 Y10.667 Z4.996 
G1 X1.974 Y10.670 Z4.996 
G1 X2.169 Y10.670 Z4.996 
G1 X2.169 Y10.672 Z4.996 
G1 X1.974 Y10.672 Z4.996 
G1 X1.974 Y10.675 Z4.996 
G1 X2.169 Y10.675 Z4.996 
G1 X2.169 Y10.677 Z4.996 
G1 X1.974 Y10.677 Z4.996 
G1 X1.974 Y10.680 Z4.996 
G1 X2.169 Y10.680 Z4.996 
G1 X2.169 Y10.682 Z4.996 
G1 X1.974 Y10.682 Z4.996 
G1 X1.974 Y10.685 Z4.996 
G1 X2.169 Y10.685 Z4.996 
G1 X2.169 Y10.687 Z4.996 
G1 X1.974 Y10.687 Z4.996 
G1 X1.974 Y10.690 Z4.996 
G1 X2.169 Y10.690 Z4.996 
G1 X2.169 Y10.692 Z4.996 
G1 X1.974 Y10.692 Z4.996 
G1 X1.974 Y10.695 Z4.996 
G1 X2.169 Y10.695 Z4.996 
G1 X2.169 Y10.697 Z4.996 
G1 X1.974 Y10.697 Z4.996 
G1 X1.974 Y10.700 Z4.996 
G1 X2.169 Y10.700 Z4.996 
G1 X2.169 Y10.702 Z4.996 
G1 X1.974 Y10.702 Z4.996 
G1 X1.974 Y10.705 Z4.996 
G1 X2.169 Y10.705 Z4.996 
G1 X2.169 Y10.707 Z4.996 
G1 X1.974 Y10.707 Z4.996 
G1 X1.974 Y10.710 Z4.996 
G1 X2.169 Y10.710 Z4.996 
G1 X2.169 Y10.712 Z4.996 
G1 X1.974 Y10.712 Z4.996 
G1 X1.974 Y10.715 Z4.996 
G1 X2.169 Y10.715 Z4.996 
G1 X2.169 Y10.717 Z4.996 
G1 X1.974 Y10.717 Z4.996 
G1 X1.974 Y10.720 Z4.996 
G1 X2.169 Y10.720 Z4.996 
G1 X2.169 Y10.722 Z4.996 
G1 X1.974 Y10.722 Z4.996 
G1 X1.974 Y10.725 Z4.996 
G1 X2.169 Y10.725 Z4.996 
G1 X2.169 Y10.727 Z4.996 
G1 X1.974 Y10.727 Z4.996 
G1 X1.974 Y10.730 Z4.996 
G1 X2.169 Y10.730 Z4.996 
G1 X2.169 Y10.732 Z4.996 
G1 X1.974 Y10.732 Z4.996 
G1 X1.974 Y10.735 Z4.996 
G1 X2.169 Y10.735 Z4.996 
G1 X2.169 Y10.737 Z4.996 
G1 X1.974 Y10.737 Z4.996 
G1 X1.974 Y10.740 Z4.996 
G1 X2.169 Y10.740 Z4.996 
G1 X2.169 Y10.742 Z4.996 
G1 X1.974 Y10.742 Z4.996 
G1 X1.974 Y10.745 Z4.996 
G1 X2.169 Y10.745 Z4.996 
G1 X2.169 Y10.747 Z4.996 
G1 X1.974 Y10.747 Z4.996 
G1 X1.974 Y10.750 Z4.996 
G1 X2.169 Y10.750 Z4.996 
G1 X2.169 Y10.752 Z4.996 
G1 X1.974 Y10.752 Z4.996 
G1 X1.974 Y10.755 Z4.996 
G1 X2.169 Y10.755 Z4.996 
G1 X2.169 Y10.757 Z4.996 
G1 X1.974 Y10.757 Z4.996 
G1 X1.974 Y10.760 Z4.996 
G1 X2.169 Y10.760 Z4.996 
G1 X2.169 Y10.762 Z4.996 
G1 X1.974 Y10.762 Z4.996 
G1 X1.974 Y10.765 Z4.996 
G1 X2.169 Y10.765 Z4.996 
G1 X2.169 Y10.767 Z4.996 
G1 X1.974 Y10.767 Z4.996 
G1 X1.974 Y10.770 Z4.996 
G1 X2.169 Y10.770 Z4.996 
G1 X2.169 Y10.772 Z4.996 
G1 X1.974 Y10.772 Z4.996 
G1 X1.974 Y10.775 Z4.996 
G1 X2.169 Y10.775 Z4.996 
G1 X2.169 Y10.777 Z4.996 
G1 X1.974 Y10.777 Z4.996 
G1 X1.974 Y10.780 Z4.996 
G1 X2.169 Y10.780 Z4.996 
G1 X2.169 Y10.782 Z4.996 
G1 X1.974 Y10.782 Z4.996 
G1 X1.974 Y10.785 Z4.996 
G1 X2.169 Y10.785 Z4.996 
G1 X2.169 Y10.787 Z4.996 
G1 X1.974 Y10.787 Z4.996 
G1 X1.974 Y10.790 Z4.996 
G1 X2.169 Y10.790 Z4.996 
G1 X2.169 Y10.792 Z4.996 
G1 X1.974 Y10.792 Z4.996 
G1 X1.974 Y10.795 Z4.996 
G1 X2.169 Y10.795 Z4.996 
G1 X2.169 Y10.797 Z4.996 
G1 X1.974 Y10.797 Z4.996 
G1 X1.974 Y10.800 Z4.996 
G1 X2.169 Y10.800 Z4.996 
G1 X2.169 Y10.802 Z4.996 
G1 X1.974 Y10.802 Z4.996 
G1 X1.974 Y10.805 Z4.996 
G1 X2.169 Y10.805 Z4.996 
G1 X2.169 Y10.807 Z4.996 
G1 X1.974 Y10.807 Z4.996 
G1 X1.974 Y10.810 Z4.996 
G1 X2.169 Y10.810 Z4.996 
G1 X2.169 Y10.812 Z4.996 
G1 X1.974 Y10.812 Z4.996 
G1 X1.974 Y10.815 Z4.996 
G1 X2.169 Y10.815 Z4.996 
G1 X2.169 Y10.817 Z4.996 
G1 X1.974 Y10.817 Z4.996 
G1 X1.974 Y10.820 Z4.996 
G1 X2.169 Y10.820 Z4.996 
G1 X2.169 Y10.822 Z4.996 
G1 X1.974 Y10.822 Z4.996 
G1 X1.974 Y10.825 Z4.996 
G1 X2.169 Y10.825 Z4.996 
G1 X2.169 Y10.827 Z4.996 
G1 X1.974 Y10.827 Z4.996 
G1 X1.974 Y10.830 Z4.996 
G1 X2.169 Y10.830 Z4.996 
G1 X2.169 Y10.832 Z4.996 
G1 X1.974 Y10.832 Z4.996 
G1 X1.974 Y10.835 Z4.996 
G1 X2.169 Y10.835 Z4.996 
G1 X2.169 Y10.837 Z4.996 
G1 X1.974 Y10.837 Z4.996 
G1 X1.974 Y10.840 Z4.996 
G1 X2.169 Y10.840 Z4.996 
G1 X2.169 Y10.842 Z4.996 
G1 X1.974 Y10.842 Z4.996 
G1 X1.974 Y10.845 Z4.996 
G1 X2.169 Y10.845 Z4.996 
G1 X2.169 Y10.847 Z4.996 
G1 X1.974 Y10.847 Z4.996 
G1 X1.974 Y10.850 Z4.996 
G1 X2.169 Y10.850 Z4.996 
G1 X2.169 Y10.852 Z4.996 
G1 X1.974 Y10.852 Z4.996 
G1 X1.974 Y10.855 Z4.996 
G1 X2.169 Y10.855 Z4.996 
G1 X2.169 Y10.855 Z4.991 
G1 X1.974 Y10.855 Z4.991 
G1 X1.974 Y10.852 Z4.991 
G1 X2.169 Y10.852 Z4.991 
G1 X2.169 Y10.850 Z4.991 
G1 X1.974 Y10.850 Z4.991 
G1 X1.974 Y10.847 Z4.991 
G1 X2.169 Y10.847 Z4.991 
G1 X2.169 Y10.845 Z4.991 
G1 X1.974 Y10.845 Z4.991 
G1 X1.974 Y10.842 Z4.991 
G1 X2.169 Y10.842 Z4.991 
G1 X2.169 Y10.840 Z4.991 
G1 X1.974 Y10.840 Z4.991 
G1 X1.974 Y10.837 Z4.991 
G1 X2.169 Y10.837 Z4.991 
G1 X2.169 Y10.835 Z4.991 
G1 X1.974 Y10.835 Z4.991 
G1 X1.974 Y10.832 Z4.991 
G1 X2.169 Y10.832 Z4.991 
G1 X2.169 Y10.830 Z4.991 
G1 X1.974 Y10.830 Z4.991 
G1 X1.974 Y10.827 Z4.991 
G1 X2.169 Y10.827 Z4.991 
G1 X2.169 Y10.825 Z4.991 
G1 X1.974 Y10.825 Z4.991 
G1 X1.974 Y10.822 Z4.991 
G1 X2.169 Y10.822 Z4.991 
G1 X2.169 Y10.820 Z4.991 
G1 X1.974 Y10.820 Z4.991 
G1 X1.974 Y10.817 Z4.991 
G1 X2.169 Y10.817 Z4.991 
G1 X2.169 Y10.815 Z4.991 
G1 X1.974 Y10.815 Z4.991 
G1 X1.974 Y10.812 Z4.991 
G1 X2.169 Y10.812 Z4.991 
G1 X2.169 Y10.810 Z4.991 
G1 X1.974 Y10.810 Z4.991 
G1 X1.974 Y10.807 Z4.991 
G1 X2.169 Y10.807 Z4.991 
G1 X2.169 Y10.805 Z4.991 
G1 X1.974 Y10.805 Z4.991 
G1 X1.974 Y10.802 Z4.991 
G1 X2.169 Y10.802 Z4.991 
G1 X2.169 Y10.800 Z4.991 
G1 X1.974 Y10.800 Z4.991 
G1 X1.974 Y10.797 Z4.991 
G1 X2.169 Y10.797 Z4.991 
G1 X2.169 Y10.795 Z4.991 
G1 X1.974 Y10.795 Z4.991 
G1 X1.974 Y10.792 Z4.991 
G1 X2.169 Y10.792 Z4.991 
G1 X2.169 Y10.790 Z4.991 
G1 X1.974 Y10.790 Z4.991 
G1 X1.974 Y10.787 Z4.991 
G1 X2.169 Y10.787 Z4.991 
G1 X2.169 Y10.785 Z4.991 
G1 X1.974 Y10.785 Z4.991 
G1 X1.974 Y10.782 Z4.991 
G1 X2.169 Y10.782 Z4.991 
G1 X2.169 Y10.780 Z4.991 
G1 X1.974 Y10.780 Z4.991 
G1 X1.974 Y10.777 Z4.991 
G1 X2.169 Y10.777 Z4.991 
G1 X2.169 Y10.775 Z4.991 
G1 X1.974 Y10.775 Z4.991 
G1 X1.974 Y10.772 Z4.991 
G1 X2.169 Y10.772 Z4.991 
G1 X2.169 Y10.770 Z4.991 
G1 X1.974 Y10.770 Z4.991 
G1 X1.974 Y10.767 Z4.991 
G1 X2.169 Y10.767 Z4.991 
G1 X2.169 Y10.765 Z4.991 
G1 X1.974 Y10.765 Z4.991 
G1 X1.974 Y10.762 Z4.991 
G1 X2.169 Y10.762 Z4.991 
G1 X2.169 Y10.760 Z4.991 
G1 X1.974 Y10.760 Z4.991 
G1 X1.974 Y10.757 Z4.991 
G1 X2.169 Y10.757 Z4.991 
G1 X2.169 Y10.755 Z4.991 
G1 X1.974 Y10.755 Z4.991 
G1 X1.974 Y10.752 Z4.991 
G1 X2.169 Y10.752 Z4.991 
G1 X2.169 Y10.750 Z4.991 
G1 X1.974 Y10.750 Z4.991 
G1 X1.974 Y10.747 Z4.991 
G1 X2.169 Y10.747 Z4.991 
G1 X2.169 Y10.745 Z4.991 
G1 X1.974 Y10.745 Z4.991 
G1 X1.974 Y10.742 Z4.991 
G1 X2.169 Y10.742 Z4.991 
G1 X2.169 Y10.740 Z4.991 
G1 X1.974 Y10.740 Z4.991 
G1 X1.974 Y10.737 Z4.991 
G1 X2.169 Y10.737 Z4.991 
G1 X2.169 Y10.735 Z4.991 
G1 X1.974 Y10.735 Z4.991 
G1 X1.974 Y10.732 Z4.991 
G1 X2.169 Y10.732 Z4.991 
G1 X2.169 Y10.730 Z4.991 
G1 X1.974 Y10.730 Z4.991 
G1 X1.974 Y10.727 Z4.991 
G1 X2.169 Y10.727 Z4.991 
G1 X2.169 Y10.725 Z4.991 
G1 X1.974 Y10.725 Z4.991 
G1 X1.974 Y10.722 Z4.991 
G1 X2.169 Y10.722 Z4.991 
G1 X2.169 Y10.720 Z4.991 
G1 X1.974 Y10.720 Z4.991 
G1 X1.974 Y10.717 Z4.991 
G1 X2.169 Y10.717 Z4.991 
G1 X2.169 Y10.715 Z4.991 
G1 X1.974 Y10.715 Z4.991 
G1 X1.974 Y10.712 Z4.991 
G1 X2.169 Y10.712 Z4.991 
G1 X2.169 Y10.710 Z4.991 
G1 X1.974 Y10.710 Z4.991 
G1 X1.974 Y10.707 Z4.991 
G1 X2.169 Y10.707 Z4.991 
G1 X2.169 Y10.705 Z4.991 
G1 X1.974 Y10.705 Z4.991 
G1 X1.974 Y10.702 Z4.991 
G1 X2.169 Y10.702 Z4.991 
G1 X2.169 Y10.700 Z4.991 
G1 X1.974 Y10.700 Z4.991 
G1 X1.974 Y10.697 Z4.991 
G1 X2.169 Y10.697 Z4.991 
G1 X2.169 Y10.695 Z4.991 
G1 X1.974 Y10.695 Z4.991 
G1 X1.974 Y10.692 Z4.991 
G1 X2.169 Y10.692 Z4.991 
G1 X2.169 Y10.690 Z4.991 
G1 X1.974 Y10.690 Z4.991 
G1 X1.974 Y10.687 Z4.991 
G1 X2.169 Y10.687 Z4.991 
G1 X2.169 Y10.685 Z4.991 
G1 X1.974 Y10.685 Z4.991 
G1 X1.974 Y10.682 Z4.991 
G1 X2.169 Y10.682 Z4.991 
G1 X2.169 Y10.680 Z4.991 
G1 X1.974 Y10.680 Z4.991 
G1 X1.974 Y10.677 Z4.991 
G1 X2.169 Y10.677 Z4.991 
G1 X2.169 Y10.675 Z4.991 
G1 X1.974 Y10.675 Z4.991 
G1 X1.974 Y10.672 Z4.991 
G1 X2.169 Y10.672 Z4.991 
G1 X2.169 Y10.670 Z4.991 
G1 X1.974 Y10.670 Z4.991 
G1 X1.974 Y10.667 Z4.991 
G1 X2.169 Y10.667 Z4.991 
G1 X2.169 Y10.665 Z4.991 
G1 X1.974 Y10.665 Z4.991 
G1 X1.974 Y10.662 Z4.991 
G1 X2.169 Y10.662 Z4.991 
G1 X2.169 Y10.660 Z4.991 
G1 X1.974 Y10.660 Z4.991 
G1 X1.974 Y10.660 Z4.990 
G1 X2.169 Y10.660 Z4.990 
G1 X2.169 Y10.662 Z4.990 
G1 X1.974 Y10.662 Z4.990 
G1 X1.974 Y10.665 Z4.990 
G1 X2.169 Y10.665 Z4.990 
G1 X2.169 Y10.667 Z4.990 
G1 X1.974 Y10.667 Z4.990 
G1 X1.974 Y10.670 Z4.990 
G1 X2.169 Y10.670 Z4.990 
G1 X2.169 Y10.672 Z4.990 
G1 X1.974 Y10.672 Z4.990 
G1 X1.974 Y10.675 Z4.990 
G1 X2.169 Y10.675 Z4.990 
G1 X2.169 Y10.677 Z4.990 
G1 X1.974 Y10.677 Z4.990 
G1 X1.974 Y10.680 Z4.990 
G1 X2.169 Y10.680 Z4.990 
G1 X2.169 Y10.682 Z4.990 
G1 X1.974 Y10.682 Z4.990 
G1 X1.974 Y10.685 Z4.990 
G1 X2.169 Y10.685 Z4.990 
G1 X2.169 Y10.687 Z4.990 
G1 X1.974 Y10.687 Z4.990 
G1 X1.974 Y10.690 Z4.990 
G1 X2.169 Y10.690 Z4.990 
G1 X2.169 Y10.692 Z4.990 
G1 X1.974 Y10.692 Z4.990 
G1 X1.974 Y10.695 Z4.990 
G1 X2.169 Y10.695 Z4.990 
G1 X2.169 Y10.697 Z4.990 
G1 X1.974 Y10.697 Z4.990 
G1 X1.974 Y10.700 Z4.990 
G1 X2.169 Y10.700 Z4.990 
G1 X2.169 Y10.702 Z4.990 
G1 X1.974 Y10.702 Z4.990 
G1 X1.974 Y10.705 Z4.990 
G1 X2.169 Y10.705 Z4.990 
G1 X2.169 Y10.707 Z4.990 
G1 X1.974 Y10.707 Z4.990 
G1 X1.974 Y10.710 Z4.990 
G1 X2.169 Y10.710 Z4.990 
G1 X2.169 Y10.712 Z4.990 
G1 X1.974 Y10.712 Z4.990 
G1 X1.974 Y10.715 Z4.990 
G1 X2.169 Y10.715 Z4.990 
G1 X2.169 Y10.717 Z4.990 
G1 X1.974 Y10.717 Z4.990 
G1 X1.974 Y10.720 Z4.990 
G1 X2.169 Y10.720 Z4.990 
G1 X2.169 Y10.722 Z4.990 
G1 X1.974 Y10.722 Z4.990 
G1 X1.974 Y10.725 Z4.990 
G1 X2.169 Y10.725 Z4.990 
G1 X2.169 Y10.727 Z4.990 
G1 X1.974 Y10.727 Z4.990 
G1 X1.974 Y10.730 Z4.990 
G1 X2.169 Y10.730 Z4.990 
G1 X2.169 Y10.732 Z4.990 
G1 X1.974 Y10.732 Z4.990 
G1 X1.974 Y10.735 Z4.990 
G1 X2.169 Y10.735 Z4.990 
G1 X2.169 Y10.737 Z4.990 
G1 X1.974 Y10.737 Z4.990 
G1 X1.974 Y10.740 Z4.990 
G1 X2.169 Y10.740 Z4.990 
G1 X2.169 Y10.742 Z4.990 
G1 X1.974 Y10.742 Z4.990 
G1 X1.974 Y10.745 Z4.990 
G1 X2.169 Y10.745 Z4.990 
G1 X2.169 Y10.747 Z4.990 
G1 X1.974 Y10.747 Z4.990 
G1 X1.974 Y10.750 Z4.990 
G1 X2.169 Y10.750 Z4.990 
G1 X2.169 Y10.752 Z4.990 
G1 X1.974 Y10.752 Z4.990 
G1 X1.974 Y10.755 Z4.990 
G1 X2.169 Y10.755 Z4.990 
G1 X2.169 Y10.757 Z4.990 
G1 X1.974 Y10.757 Z4.990 
G1 X1.974 Y10.760 Z4.990 
G1 X2.169 Y10.760 Z4.990 
G1 X2.169 Y10.762 Z4.990 
G1 X1.974 Y10.762 Z4.990 
G1 X1.974 Y10.765 Z4.990 
G1 X2.169 Y10.765 Z4.990 
G1 X2.169 Y10.767 Z4.990 
G1 X1.974 Y10.767 Z4.990 
G1 X1.974 Y10.770 Z4.990 
G1 X2.169 Y10.770 Z4.990 
G1 X2.169 Y10.772 Z4.990 
G1 X1.974 Y10.772 Z4.990 
G1 X1.974 Y10.775 Z4.990 
G1 X2.169 Y10.775 Z4.990 
G1 X2.169 Y10.777 Z4.990 
G1 X1.974 Y10.777 Z4.990 
G1 X1.974 Y10.780 Z4.990 
G1 X2.169 Y10.780 Z4.990 
G1 X2.169 Y10.782 Z4.990 
G1 X1.974 Y10.782 Z4.990 
G1 X1.974 Y10.785 Z4.990 
G1 X2.169 Y10.785 Z4.990 
G1 X2.169 Y10.787 Z4.990 
G1 X1.974 Y10.787 Z4.990 
G1 X1.974 Y10.790 Z4.990 
G1 X2.169 Y10.790 Z4.990 
G1 X2.169 Y10.792 Z4.990 
G1 X1.974 Y10.792 Z4.990 
G1 X1.974 Y10.795 Z4.990 
G1 X2.169 Y10.795 Z4.990 
G1 X2.169 Y10.797 Z4.990 
G1 X1.974 Y10.797 Z4.990 
G1 X1.974 Y10.800 Z4.990 
G1 X2.169 Y10.800 Z4.990 
G1 X2.169 Y10.802 Z4.990 
G1 X1.974 Y10.802 Z4.990 
G1 X1.974 Y10.805 Z4.990 
G1 X2.169 Y10.805 Z4.990 
G1 X2.169 Y10.807 Z4.990 
G1 X1.974 Y10.807 Z4.990 
G1 X1.974 Y10.810 Z4.990 
G1 X2.169 Y10.810 Z4.990 
G1 X2.169 Y10.812 Z4.990 
G1 X1.974 Y10.812 Z4.990 
G1 X1.974 Y10.815 Z4.990 
G1 X2.169 Y10.815 Z4.990 
G1 X2.169 Y10.817 Z4.990 
G1 X1.974 Y10.817 Z4.990 
G1 X1.974 Y10.820 Z4.990 
G1 X2.169 Y10.820 Z4.990 
G1 X2.169 Y10.822 Z4.990 
G1 X1.974 Y10.822 Z4.990 
G1 X1.974 Y10.825 Z4.990 
G1 X2.169 Y10.825 Z4.990 
G1 X2.169 Y10.827 Z4.990 
G1 X1.974 Y10.827 Z4.990 
G1 X1.974 Y10.830 Z4.990 
G1 X2.169 Y10.830 Z4.990 
G1 X2.169 Y10.832 Z4.990 
G1 X1.974 Y10.832 Z4.990 
G1 X1.974 Y10.835 Z4.990 
G1 X2.169 Y10.835 Z4.990 
G1 X2.169 Y10.837 Z4.990 
G1 X1.974 Y10.837 Z4.990 
G1 X1.974 Y10.840 Z4.990 
G1 X2.169 Y10.840 Z4.990 
G1 X2.169 Y10.842 Z4.990 
G1 X1.974 Y10.842 Z4.990 
G1 X1.974 Y10.845 Z4.990 
G1 X2.169 Y10.845 Z4.990 
G1 X2.169 Y10.847 Z4.990 
G1 X1.974 Y10.847 Z4.990 
G1 X1.974 Y10.850 Z4.990 
G1 X2.169 Y10.850 Z4.990 
G1 X2.169 Y10.852 Z4.990 
G1 X1.974 Y10.852 Z4.990 
G1 X1.974 Y10.855 Z4.990 
G1 X2.169 Y10.855 Z4.990 
G0 Z10.001 
G0 Z10.001 
G0 X2.169 Y10.855 
G0 X1.974 Y12.831 
G0 X1.974 Y12.831 Z8.001 
G1 X1.974 Y12.831 Z4.996 
G1 X2.169 Y12.831 Z4.996 
G1 X2.169 Y12.834 Z4.996 
G1 X1.974 Y12.834 Z4.996 
G1 X1.974 Y12.836 Z4.996 
G1 X2.169 Y12.836 Z4.996 
G1 X2.169 Y12.839 Z4.996 
G1 X1.974 Y12.839 Z4.996 
G1 X1.974 Y12.841 Z4.996 
G1 X2.169 Y12.841 Z4.996 
G1 X2.169 Y12.844 Z4.996 
G1 X1.974 Y12.844 Z4.996 
G1 X1.974 Y12.846 Z4.996 
G1 X2.169 Y12.846 Z4.996 
G1 X2.169 Y12.849 Z4.996 
G1 X1.974 Y12.849 Z4.996 
G1 X1.974 Y12.851 Z4.996 
G1 X2.169 Y12.851 Z4.996 
G1 X2.169 Y12.854 Z4.996 
G1 X1.974 Y12.854 Z4.996 
G1 X1.974 Y12.856 Z4.996 
G1 X2.169 Y12.856 Z4.996 
G1 X2.169 Y12.859 Z4.996 
G1 X1.974 Y12.859 Z4.996 
G1 X1.974 Y12.861 Z4.996 
G1 X2.169 Y12.861 Z4.996 
G1 X2.169 Y12.864 Z4.996 
G1 X1.974 Y12.864 Z4.996 
G1 X1.974 Y12.866 Z4.996 
G1 X2.169 Y12.866 Z4.996 
G1 X2.169 Y12.869 Z4.996 
G1 X1.974 Y12.869 Z4.996 
G1 X1.974 Y12.871 Z4.996 
G1 X2.169 Y12.871 Z4.996 
G1 X2.169 Y12.874 Z4.996 
G1 X1.974 Y12.874 Z4.996 
G1 X1.974 Y12.876 Z4.996 
G1 X2.169 Y12.876 Z4.996 
G1 X2.169 Y12.879 Z4.996 
G1 X1.974 Y12.879 Z4.996 
G1 X1.974 Y12.881 Z4.996 
G1 X2.169 Y12.881 Z4.996 
G1 X2.169 Y12.884 Z4.996 
G1 X1.974 Y12.884 Z4.996 
G1 X1.974 Y12.886 Z4.996 
G1 X2.169 Y12.886 Z4.996 
G1 X2.169 Y12.889 Z4.996 
G1 X1.974 Y12.889 Z4.996 
G1 X1.974 Y12.891 Z4.996 
G1 X2.169 Y12.891 Z4.996 
G1 X2.169 Y12.894 Z4.996 
G1 X1.974 Y12.894 Z4.996 
G1 X1.974 Y12.896 Z4.996 
G1 X2.169 Y12.896 Z4.996 
G1 X2.169 Y12.899 Z4.996 
G1 X1.974 Y12.899 Z4.996 
G1 X1.974 Y12.901 Z4.996 
G1 X2.169 Y12.901 Z4.996 
G1 X2.169 Y12.904 Z4.996 
G1 X1.974 Y12.904 Z4.996 
G1 X1.974 Y12.906 Z4.996 
G1 X2.169 Y12.906 Z4.996 
G1 X2.169 Y12.909 Z4.996 
G1 X1.974 Y12.909 Z4.996 
G1 X1.974 Y12.911 Z4.996 
G1 X2.169 Y12.911 Z4.996 
G1 X2.169 Y12.914 Z4.996 
G1 X1.974 Y12.914 Z4.996 
G1 X1.974 Y12.916 Z4.996 
G1 X2.169 Y12.916 Z4.996 
G1 X2.169 Y12.919 Z4.996 
G1 X1.974 Y12.919 Z4.996 
G1 X1.974 Y12.921 Z4.996 
G1 X2.169 Y12.921 Z4.996 
G1 X2.169 Y12.924 Z4.996 
G1 X1.974 Y12.924 Z4.996 
G1 X1.974 Y12.926 Z4.996 
G1 X2.169 Y12.926 Z4.996 
G1 X2.169 Y12.929 Z4.996 
G1 X1.974 Y12.929 Z4.996 
G1 X1.974 Y12.931 Z4.996 
G1 X2.169 Y12.931 Z4.996 
G1 X2.169 Y12.934 Z4.996 
G1 X1.974 Y12.934 Z4.996 
G1 X1.974 Y12.936 Z4.996 
G1 X2.169 Y12.936 Z4.996 
G1 X2.169 Y12.939 Z4.996 
G1 X1.974 Y12.939 Z4.996 
G1 X1.974 Y12.941 Z4.996 
G1 X2.169 Y12.941 Z4.996 
G1 X2.169 Y12.944 Z4.996 
G1 X1.974 Y12.944 Z4.996 
G1 X1.974 Y12.946 Z4.996 
G1 X2.169 Y12.946 Z4.996 
G1 X2.169 Y12.949 Z4.996 
G1 X1.974 Y12.949 Z4.996 
G1 X1.974 Y12.951 Z4.996 
G1 X2.169 Y12.951 Z4.996 
G1 X2.169 Y12.954 Z4.996 
G1 X1.974 Y12.954 Z4.996 
G1 X1.974 Y12.956 Z4.996 
G1 X2.169 Y12.956 Z4.996 
G1 X2.169 Y12.959 Z4.996 
G1 X1.974 Y12.959 Z4.996 
G1 X1.974 Y12.961 Z4.996 
G1 X2.169 Y12.961 Z4.996 
G1 X2.169 Y12.964 Z4.996 
G1 X1.974 Y12.964 Z4.996 
G1 X1.974 Y12.966 Z4.996 
G1 X2.169 Y12.966 Z4.996 
G1 X2.169 Y12.969 Z4.996 
G1 X1.974 Y12.969 Z4.996 
G1 X1.974 Y12.971 Z4.996 
G1 X2.169 Y12.971 Z4.996 
G1 X2.169 Y12.974 Z4.996 
G1 X1.974 Y12.974 Z4.996 
G1 X1.974 Y12.976 Z4.996 
G1 X2.169 Y12.976 Z4.996 
G1 X2.169 Y12.979 Z4.996 
G1 X1.974 Y12.979 Z4.996 
G1 X1.974 Y12.981 Z4.996 
G1 X2.169 Y12.981 Z4.996 
G1 X2.169 Y12.984 Z4.996 
G1 X1.974 Y12.984 Z4.996 
G1 X1.974 Y12.986 Z4.996 
G1 X2.169 Y12.986 Z4.996 
G1 X2.169 Y12.989 Z4.996 
G1 X1.974 Y12.989 Z4.996 
G1 X1.974 Y12.991 Z4.996 
G1 X2.169 Y12.991 Z4.996 
G1 X2.169 Y12.994 Z4.996 
G1 X1.974 Y12.994 Z4.996 
G1 X1.974 Y12.996 Z4.996 
G1 X2.169 Y12.996 Z4.996 
G1 X2.169 Y12.999 Z4.996 
G1 X1.974 Y12.999 Z4.996 
G1 X1.974 Y13.001 Z4.996 
G1 X2.169 Y13.001 Z4.996 
G1 X2.169 Y13.004 Z4.996 
G1 X1.974 Y13.004 Z4.996 
G1 X1.974 Y13.006 Z4.996 
G1 X2.169 Y13.006 Z4.996 
G1 X2.169 Y13.009 Z4.996 
G1 X1.974 Y13.009 Z4.996 
G1 X1.974 Y13.011 Z4.996 
G1 X2.169 Y13.011 Z4.996 
G1 X2.169 Y13.014 Z4.996 
G1 X1.974 Y13.014 Z4.996 
G1 X1.974 Y13.016 Z4.996 
G1 X2.169 Y13.016 Z4.996 
G1 X2.169 Y13.019 Z4.996 
G1 X1.974 Y13.019 Z4.996 
G1 X1.974 Y13.021 Z4.996 
G1 X2.169 Y13.021 Z4.996 
G1 X2.169 Y13.024 Z4.996 
G1 X1.974 Y13.024 Z4.996 
G1 X1.974 Y13.026 Z4.996 
G1 X2.169 Y13.026 Z4.996 
G1 X2.169 Y13.026 Z4.991 
G1 X1.974 Y13.026 Z4.991 
G1 X1.974 Y13.024 Z4.991 
G1 X2.169 Y13.024 Z4.991 
G1 X2.169 Y13.021 Z4.991 
G1 X1.974 Y13.021 Z4.991 
G1 X1.974 Y13.019 Z4.991 
G1 X2.169 Y13.019 Z4.991 
G1 X2.169 Y13.016 Z4.991 
G1 X1.974 Y13.016 Z4.991 
G1 X1.974 Y13.014 Z4.991 
G1 X2.169 Y13.014 Z4.991 
G1 X2.169 Y13.011 Z4.991 
G1 X1.974 Y13.011 Z4.991 
G1 X1.974 Y13.009 Z4.991 
G1 X2.169 Y13.009 Z4.991 
G1 X2.169 Y13.006 Z4.991 
G1 X1.974 Y13.006 Z4.991 
G1 X1.974 Y13.004 Z4.991 
G1 X2.169 Y13.004 Z4.991 
G1 X2.169 Y13.001 Z4.991 
G1 X1.974 Y13.001 Z4.991 
G1 X1.974 Y12.999 Z4.991 
G1 X2.169 Y12.999 Z4.991 
G1 X2.169 Y12.996 Z4.991 
G1 X1.974 Y12.996 Z4.991 
G1 X1.974 Y12.994 Z4.991 
G1 X2.169 Y12.994 Z4.991 
G1 X2.169 Y12.991 Z4.991 
G1 X1.974 Y12.991 Z4.991 
G1 X1.974 Y12.989 Z4.991 
G1 X2.169 Y12.989 Z4.991 
G1 X2.169 Y12.986 Z4.991 
G1 X1.974 Y12.986 Z4.991 
G1 X1.974 Y12.984 Z4.991 
G1 X2.169 Y12.984 Z4.991 
G1 X2.169 Y12.981 Z4.991 
G1 X1.974 Y12.981 Z4.991 
G1 X1.974 Y12.979 Z4.991 
G1 X2.169 Y12.979 Z4.991 
G1 X2.169 Y12.976 Z4.991 
G1 X1.974 Y12.976 Z4.991 
G1 X1.974 Y12.974 Z4.991 
G1 X2.169 Y12.974 Z4.991 
G1 X2.169 Y12.971 Z4.991 
G1 X1.974 Y12.971 Z4.991 
G1 X1.974 Y12.969 Z4.991 
G1 X2.169 Y12.969 Z4.991 
G1 X2.169 Y12.966 Z4.991 
G1 X1.974 Y12.966 Z4.991 
G1 X1.974 Y12.964 Z4.991 
G1 X2.169 Y12.964 Z4.991 
G1 X2.169 Y12.961 Z4.991 
G1 X1.974 Y12.961 Z4.991 
G1 X1.974 Y12.959 Z4.991 
G1 X2.169 Y12.959 Z4.991 
G1 X2.169 Y12.956 Z4.991 
G1 X1.974 Y12.956 Z4.991 
G1 X1.974 Y12.954 Z4.991 
G1 X2.169 Y12.954 Z4.991 
G1 X2.169 Y12.951 Z4.991 
G1 X1.974 Y12.951 Z4.991 
G1 X1.974 Y12.949 Z4.991 
G1 X2.169 Y12.949 Z4.991 
G1 X2.169 Y12.946 Z4.991 
G1 X1.974 Y12.946 Z4.991 
G1 X1.974 Y12.944 Z4.991 
G1 X2.169 Y12.944 Z4.991 
G1 X2.169 Y12.941 Z4.991 
G1 X1.974 Y12.941 Z4.991 
G1 X1.974 Y12.939 Z4.991 
G1 X2.169 Y12.939 Z4.991 
G1 X2.169 Y12.936 Z4.991 
G1 X1.974 Y12.936 Z4.991 
G1 X1.974 Y12.934 Z4.991 
G1 X2.169 Y12.934 Z4.991 
G1 X2.169 Y12.931 Z4.991 
G1 X1.974 Y12.931 Z4.991 
G1 X1.974 Y12.929 Z4.991 
G1 X2.169 Y12.929 Z4.991 
G1 X2.169 Y12.926 Z4.991 
G1 X1.974 Y12.926 Z4.991 
G1 X1.974 Y12.924 Z4.991 
G1 X2.169 Y12.924 Z4.991 
G1 X2.169 Y12.921 Z4.991 
G1 X1.974 Y12.921 Z4.991 
G1 X1.974 Y12.919 Z4.991 
G1 X2.169 Y12.919 Z4.991 
G1 X2.169 Y12.916 Z4.991 
G1 X1.974 Y12.916 Z4.991 
G1 X1.974 Y12.914 Z4.991 
G1 X2.169 Y12.914 Z4.991 
G1 X2.169 Y12.911 Z4.991 
G1 X1.974 Y12.911 Z4.991 
G1 X1.974 Y12.909 Z4.991 
G1 X2.169 Y12.909 Z4.991 
G1 X2.169 Y12.906 Z4.991 
G1 X1.974 Y12.906 Z4.991 
G1 X1.974 Y12.904 Z4.991 
G1 X2.169 Y12.904 Z4.991 
G1 X2.169 Y12.901 Z4.991 
G1 X1.974 Y12.901 Z4.991 
G1 X1.974 Y12.899 Z4.991 
G1 X2.169 Y12.899 Z4.991 
G1 X2.169 Y12.896 Z4.991 
G1 X1.974 Y12.896 Z4.991 
G1 X1.974 Y12.894 Z4.991 
G1 X2.169 Y12.894 Z4.991 
G1 X2.169 Y12.891 Z4.991 
G1 X1.974 Y12.891 Z4.991 
G1 X1.974 Y12.889 Z4.991 
G1 X2.169 Y12.889 Z4.991 
G1 X2.169 Y12.886 Z4.991 
G1 X1.974 Y12.886 Z4.991 
G1 X1.974 Y12.884 Z4.991 
G1 X2.169 Y12.884 Z4.991 
G1 X2.169 Y12.881 Z4.991 
G1 X1.974 Y12.881 Z4.991 
G1 X1.974 Y12.879 Z4.991 
G1 X2.169 Y12.879 Z4.991 
G1 X2.169 Y12.876 Z4.991 
G1 X1.974 Y12.876 Z4.991 
G1 X1.974 Y12.874 Z4.991 
G1 X2.169 Y12.874 Z4.991 
G1 X2.169 Y12.871 Z4.991 
G1 X1.974 Y12.871 Z4.991 
G1 X1.974 Y12.869 Z4.991 
G1 X2.169 Y12.869 Z4.991 
G1 X2.169 Y12.866 Z4.991 
G1 X1.974 Y12.866 Z4.991 
G1 X1.974 Y12.864 Z4.991 
G1 X2.169 Y12.864 Z4.991 
G1 X2.169 Y12.861 Z4.991 
G1 X1.974 Y12.861 Z4.991 
G1 X1.974 Y12.859 Z4.991 
G1 X2.169 Y12.859 Z4.991 
G1 X2.169 Y12.856 Z4.991 
G1 X1.974 Y12.856 Z4.991 
G1 X1.974 Y12.854 Z4.991 
G1 X2.169 Y12.854 Z4.991 
G1 X2.169 Y12.851 Z4.991 
G1 X1.974 Y12.851 Z4.991 
G1 X1.974 Y12.849 Z4.991 
G1 X2.169 Y12.849 Z4.991 
G1 X2.169 Y12.846 Z4.991 
G1 X1.974 Y12.846 Z4.991 
G1 X1.974 Y12.844 Z4.991 
G1 X2.169 Y12.844 Z4.991 
G1 X2.169 Y12.841 Z4.991 
G1 X1.974 Y12.841 Z4.991 
G1 X1.974 Y12.839 Z4.991 
G1 X2.169 Y12.839 Z4.991 
G1 X2.169 Y12.836 Z4.991 
G1 X1.974 Y12.836 Z4.991 
G1 X1.974 Y12.834 Z4.991 
G1 X2.169 Y12.834 Z4.991 
G1 X2.169 Y12.831 Z4.991 
G1 X1.974 Y12.831 Z4.991 
G1 X1.974 Y12.831 Z4.990 
G1 X2.169 Y12.831 Z4.990 
G1 X2.169 Y12.834 Z4.990 
G1 X1.974 Y12.834 Z4.990 
G1 X1.974 Y12.836 Z4.990 
G1 X2.169 Y12.836 Z4.990 
G1 X2.169 Y12.839 Z4.990 
G1 X1.974 Y12.839 Z4.990 
G1 X1.974 Y12.841 Z4.990 
G1 X2.169 Y12.841 Z4.990 
G1 X2.169 Y12.844 Z4.990 
G1 X1.974 Y12.844 Z4.990 
G1 X1.974 Y12.846 Z4.990 
G1 X2.169 Y12.846 Z4.990 
G1 X2.169 Y12.849 Z4.990 
G1 X1.974 Y12.849 Z4.990 
G1 X1.974 Y12.851 Z4.990 
G1 X2.169 Y12.851 Z4.990 
G1 X2.169 Y12.854 Z4.990 
G1 X1.974 Y12.854 Z4.990 
G1 X1.974 Y12.856 Z4.990 
G1 X2.169 Y12.856 Z4.990 
G1 X2.169 Y12.859 Z4.990 
G1 X1.974 Y12.859 Z4.990 
G1 X1.974 Y12.861 Z4.990 
G1 X2.169 Y12.861 Z4.990 
G1 X2.169 Y12.864 Z4.990 
G1 X1.974 Y12.864 Z4.990 
G1 X1.974 Y12.866 Z4.990 
G1 X2.169 Y12.866 Z4.990 
G1 X2.169 Y12.869 Z4.990 
G1 X1.974 Y12.869 Z4.990 
G1 X1.974 Y12.871 Z4.990 
G1 X2.169 Y12.871 Z4.990 
G1 X2.169 Y12.874 Z4.990 
G1 X1.974 Y12.874 Z4.990 
G1 X1.974 Y12.876 Z4.990 
G1 X2.169 Y12.876 Z4.990 
G1 X2.169 Y12.879 Z4.990 
G1 X1.974 Y12.879 Z4.990 
G1 X1.974 Y12.881 Z4.990 
G1 X2.169 Y12.881 Z4.990 
G1 X2.169 Y12.884 Z4.990 
G1 X1.974 Y12.884 Z4.990 
G1 X1.974 Y12.886 Z4.990 
G1 X2.169 Y12.886 Z4.990 
G1 X2.169 Y12.889 Z4.990 
G1 X1.974 Y12.889 Z4.990 
G1 X1.974 Y12.891 Z4.990 
G1 X2.169 Y12.891 Z4.990 
G1 X2.169 Y12.894 Z4.990 
G1 X1.974 Y12.894 Z4.990 
G1 X1.974 Y12.896 Z4.990 
G1 X2.169 Y12.896 Z4.990 
G1 X2.169 Y12.899 Z4.990 
G1 X1.974 Y12.899 Z4.990 
G1 X1.974 Y12.901 Z4.990 
G1 X2.169 Y12.901 Z4.990 
G1 X2.169 Y12.904 Z4.990 
G1 X1.974 Y12.904 Z4.990 
G1 X1.974 Y12.906 Z4.990 
G1 X2.169 Y12.906 Z4.990 
G1 X2.169 Y12.909 Z4.990 
G1 X1.974 Y12.909 Z4.990 
G1 X1.974 Y12.911 Z4.990 
G1 X2.169 Y12.911 Z4.990 
G1 X2.169 Y12.914 Z4.990 
G1 X1.974 Y12.914 Z4.990 
G1 X1.974 Y12.916 Z4.990 
G1 X2.169 Y12.916 Z4.990 
G1 X2.169 Y12.919 Z4.990 
G1 X1.974 Y12.919 Z4.990 
G1 X1.974 Y12.921 Z4.990 
G1 X2.169 Y12.921 Z4.990 
G1 X2.169 Y12.924 Z4.990 
G1 X1.974 Y12.924 Z4.990 
G1 X1.974 Y12.926 Z4.990 
G1 X2.169 Y12.926 Z4.990 
G1 X2.169 Y12.929 Z4.990 
G1 X1.974 Y12.929 Z4.990 
G1 X1.974 Y12.931 Z4.990 
G1 X2.169 Y12.931 Z4.990 
G1 X2.169 Y12.934 Z4.990 
G1 X1.974 Y12.934 Z4.990 
G1 X1.974 Y12.936 Z4.990 
G1 X2.169 Y12.936 Z4.990 
G1 X2.169 Y12.939 Z4.990 
G1 X1.974 Y12.939 Z4.990 
G1 X1.974 Y12.941 Z4.990 
G1 X2.169 Y12.941 Z4.990 
G1 X2.169 Y12.944 Z4.990 
G1 X1.974 Y12.944 Z4.990 
G1 X1.974 Y12.946 Z4.990 
G1 X2.169 Y12.946 Z4.990 
G1 X2.169 Y12.949 Z4.990 
G1 X1.974 Y12.949 Z4.990 
G1 X1.974 Y12.951 Z4.990 
G1 X2.169 Y12.951 Z4.990 
G1 X2.169 Y12.954 Z4.990 
G1 X1.974 Y12.954 Z4.990 
G1 X1.974 Y12.956 Z4.990 
G1 X2.169 Y12.956 Z4.990 
G1 X2.169 Y12.959 Z4.990 
G1 X1.974 Y12.959 Z4.990 
G1 X1.974 Y12.961 Z4.990 
G1 X2.169 Y12.961 Z4.990 
G1 X2.169 Y12.964 Z4.990 
G1 X1.974 Y12.964 Z4.990 
G1 X1.974 Y12.966 Z4.990 
G1 X2.169 Y12.966 Z4.990 
G1 X2.169 Y12.969 Z4.990 
G1 X1.974 Y12.969 Z4.990 
G1 X1.974 Y12.971 Z4.990 
G1 X2.169 Y12.971 Z4.990 
G1 X2.169 Y12.974 Z4.990 
G1 X1.974 Y12.974 Z4.990 
G1 X1.974 Y12.976 Z4.990 
G1 X2.169 Y12.976 Z4.990 
G1 X2.169 Y12.979 Z4.990 
G1 X1.974 Y12.979 Z4.990 
G1 X1.974 Y12.981 Z4.990 
G1 X2.169 Y12.981 Z4.990 
G1 X2.169 Y12.984 Z4.990 
G1 X1.974 Y12.984 Z4.990 
G1 X1.974 Y12.986 Z4.990 
G1 X2.169 Y12.986 Z4.990 
G1 X2.169 Y12.989 Z4.990 
G1 X1.974 Y12.989 Z4.990 
G1 X1.974 Y12.991 Z4.990 
G1 X2.169 Y12.991 Z4.990 
G1 X2.169 Y12.994 Z4.990 
G1 X1.974 Y12.994 Z4.990 
G1 X1.974 Y12.996 Z4.990 
G1 X2.169 Y12.996 Z4.990 
G1 X2.169 Y12.999 Z4.990 
G1 X1.974 Y12.999 Z4.990 
G1 X1.974 Y13.001 Z4.990 
G1 X2.169 Y13.001 Z4.990 
G1 X2.169 Y13.004 Z4.990 
G1 X1.974 Y13.004 Z4.990 
G1 X1.974 Y13.006 Z4.990 
G1 X2.169 Y13.006 Z4.990 
G1 X2.169 Y13.009 Z4.990 
G1 X1.974 Y13.009 Z4.990 
G1 X1.974 Y13.011 Z4.990 
G1 X2.169 Y13.011 Z4.990 
G1 X2.169 Y13.014 Z4.990 
G1 X1.974 Y13.014 Z4.990 
G1 X1.974 Y13.016 Z4.990 
G1 X2.169 Y13.016 Z4.990 
G1 X2.169 Y13.019 Z4.990 
G1 X1.974 Y13.019 Z4.990 
G1 X1.974 Y13.021 Z4.990 
G1 X2.169 Y13.021 Z4.990 
G1 X2.169 Y13.024 Z4.990 
G1 X1.974 Y13.024 Z4.990 
G1 X1.974 Y13.026 Z4.990 
G1 X2.169 Y13.026 Z4.990 
G0 Z10.001 
G0 Z10.001 
G0 X2.169 Y13.026 
G0 X4.145 Y12.831 
G0 X4.145 Y12.831 Z8.001 
G1 X4.145 Y12.831 Z4.996 
G1 X4.340 Y12.831 Z4.996 
G1 X4.340 Y12.834 Z4.996 
G1 X4.145 Y12.834 Z4.996 
G1 X4.145 Y12.836 Z4.996 
G1 X4.340 Y12.836 Z4.996 
G1 X4.340 Y12.839 Z4.996 
G1 X4.145 Y12.839 Z4.996 
G1 X4.145 Y12.841 Z4.996 
G1 X4.340 Y12.841 Z4.996 
G1 X4.340 Y12.844 Z4.996 
G1 X4.145 Y12.844 Z4.996 
G1 X4.145 Y12.846 Z4.996 
G1 X4.340 Y12.846 Z4.996 
G1 X4.340 Y12.849 Z4.996 
G1 X4.145 Y12.849 Z4.996 
G1 X4.145 Y12.851 Z4.996 
G1 X4.340 Y12.851 Z4.996 
G1 X4.340 Y12.854 Z4.996 
G1 X4.145 Y12.854 Z4.996 
G1 X4.145 Y12.856 Z4.996 
G1 X4.340 Y12.856 Z4.996 
G1 X4.340 Y12.859 Z4.996 
G1 X4.145 Y12.859 Z4.996 
G1 X4.145 Y12.861 Z4.996 
G1 X4.340 Y12.861 Z4.996 
G1 X4.340 Y12.864 Z4.996 
G1 X4.145 Y12.864 Z4.996 
G1 X4.145 Y12.866 Z4.996 
G1 X4.340 Y12.866 Z4.996 
G1 X4.340 Y12.869 Z4.996 
G1 X4.145 Y12.869 Z4.996 
G1 X4.145 Y12.871 Z4.996 
G1 X4.340 Y12.871 Z4.996 
G1 X4.340 Y12.874 Z4.996 
G1 X4.145 Y12.874 Z4.996 
G1 X4.145 Y12.876 Z4.996 
G1 X4.340 Y12.876 Z4.996 
G1 X4.340 Y12.879 Z4.996 
G1 X4.145 Y12.879 Z4.996 
G1 X4.145 Y12.881 Z4.996 
G1 X4.340 Y12.881 Z4.996 
G1 X4.340 Y12.884 Z4.996 
G1 X4.145 Y12.884 Z4.996 
G1 X4.145 Y12.886 Z4.996 
G1 X4.340 Y12.886 Z4.996 
G1 X4.340 Y12.889 Z4.996 
G1 X4.145 Y12.889 Z4.996 
G1 X4.145 Y12.891 Z4.996 
G1 X4.340 Y12.891 Z4.996 
G1 X4.340 Y12.894 Z4.996 
G1 X4.145 Y12.894 Z4.996 
G1 X4.145 Y12.896 Z4.996 
G1 X4.340 Y12.896 Z4.996 
G1 X4.340 Y12.899 Z4.996 
G1 X4.145 Y12.899 Z4.996 
G1 X4.145 Y12.901 Z4.996 
G1 X4.340 Y12.901 Z4.996 
G1 X4.340 Y12.904 Z4.996 
G1 X4.145 Y12.904 Z4.996 
G1 X4.145 Y12.906 Z4.996 
G1 X4.340 Y12.906 Z4.996 
G1 X4.340 Y12.909 Z4.996 
G1 X4.145 Y12.909 Z4.996 
G1 X4.145 Y12.911 Z4.996 
G1 X4.340 Y12.911 Z4.996 
G1 X4.340 Y12.914 Z4.996 
G1 X4.145 Y12.914 Z4.996 
G1 X4.145 Y12.916 Z4.996 
G1 X4.340 Y12.916 Z4.996 
G1 X4.340 Y12.919 Z4.996 
G1 X4.145 Y12.919 Z4.996 
G1 X4.145 Y12.921 Z4.996 
G1 X4.340 Y12.921 Z4.996 
G1 X4.340 Y12.924 Z4.996 
G1 X4.145 Y12.924 Z4.996 
G1 X4.145 Y12.926 Z4.996 
G1 X4.340 Y12.926 Z4.996 
G1 X4.340 Y12.929 Z4.996 
G1 X4.145 Y12.929 Z4.996 
G1 X4.145 Y12.931 Z4.996 
G1 X4.340 Y12.931 Z4.996 
G1 X4.340 Y12.934 Z4.996 
G1 X4.145 Y12.934 Z4.996 
G1 X4.145 Y12.936 Z4.996 
G1 X4.340 Y12.936 Z4.996 
G1 X4.340 Y12.939 Z4.996 
G1 X4.145 Y12.939 Z4.996 
G1 X4.145 Y12.941 Z4.996 
G1 X4.340 Y12.941 Z4.996 
G1 X4.340 Y12.944 Z4.996 
G1 X4.145 Y12.944 Z4.996 
G1 X4.145 Y12.946 Z4.996 
G1 X4.340 Y12.946 Z4.996 
G1 X4.340 Y12.949 Z4.996 
G1 X4.145 Y12.949 Z4.996 
G1 X4.145 Y12.951 Z4.996 
G1 X4.340 Y12.951 Z4.996 
G1 X4.340 Y12.954 Z4.996 
G1 X4.145 Y12.954 Z4.996 
G1 X4.145 Y12.956 Z4.996 
G1 X4.340 Y12.956 Z4.996 
G1 X4.340 Y12.959 Z4.996 
G1 X4.145 Y12.959 Z4.996 
G1 X4.145 Y12.961 Z4.996 
G1 X4.340 Y12.961 Z4.996 
G1 X4.340 Y12.964 Z4.996 
G1 X4.145 Y12.964 Z4.996 
G1 X4.145 Y12.966 Z4.996 
G1 X4.340 Y12.966 Z4.996 
G1 X4.340 Y12.969 Z4.996 
G1 X4.145 Y12.969 Z4.996 
G1 X4.145 Y12.971 Z4.996 
G1 X4.340 Y12.971 Z4.996 
G1 X4.340 Y12.974 Z4.996 
G1 X4.145 Y12.974 Z4.996 
G1 X4.145 Y12.976 Z4.996 
G1 X4.340 Y12.976 Z4.996 
G1 X4.340 Y12.979 Z4.996 
G1 X4.145 Y12.979 Z4.996 
G1 X4.145 Y12.981 Z4.996 
G1 X4.340 Y12.981 Z4.996 
G1 X4.340 Y12.984 Z4.996 
G1 X4.145 Y12.984 Z4.996 
G1 X4.145 Y12.986 Z4.996 
G1 X4.340 Y12.986 Z4.996 
G1 X4.340 Y12.989 Z4.996 
G1 X4.145 Y12.989 Z4.996 
G1 X4.145 Y12.991 Z4.996 
G1 X4.340 Y12.991 Z4.996 
G1 X4.340 Y12.994 Z4.996 
G1 X4.145 Y12.994 Z4.996 
G1 X4.145 Y12.996 Z4.996 
G1 X4.340 Y12.996 Z4.996 
G1 X4.340 Y12.999 Z4.996 
G1 X4.145 Y12.999 Z4.996 
G1 X4.145 Y13.001 Z4.996 
G1 X4.340 Y13.001 Z4.996 
G1 X4.340 Y13.004 Z4.996 
G1 X4.145 Y13.004 Z4.996 
G1 X4.145 Y13.006 Z4.996 
G1 X4.340 Y13.006 Z4.996 
G1 X4.340 Y13.009 Z4.996 
G1 X4.145 Y13.009 Z4.996 
G1 X4.145 Y13.011 Z4.996 
G1 X4.340 Y13.011 Z4.996 
G1 X4.340 Y13.014 Z4.996 
G1 X4.145 Y13.014 Z4.996 
G1 X4.145 Y13.016 Z4.996 
G1 X4.340 Y13.016 Z4.996 
G1 X4.340 Y13.019 Z4.996 
G1 X4.145 Y13.019 Z4.996 
G1 X4.145 Y13.021 Z4.996 
G1 X4.340 Y13.021 Z4.996 
G1 X4.340 Y13.024 Z4.996 
G1 X4.145 Y13.024 Z4.996 
G1 X4.145 Y13.026 Z4.996 
G1 X4.340 Y13.026 Z4.996 
G1 X4.340 Y13.026 Z4.991 
G1 X4.145 Y13.026 Z4.991 
G1 X4.145 Y13.024 Z4.991 
G1 X4.340 Y13.024 Z4.991 
G1 X4.340 Y13.021 Z4.991 
G1 X4.145 Y13.021 Z4.991 
G1 X4.145 Y13.019 Z4.991 
G1 X4.340 Y13.019 Z4.991 
G1 X4.340 Y13.016 Z4.991 
G1 X4.145 Y13.016 Z4.991 
G1 X4.145 Y13.014 Z4.991 
G1 X4.340 Y13.014 Z4.991 
G1 X4.340 Y13.011 Z4.991 
G1 X4.145 Y13.011 Z4.991 
G1 X4.145 Y13.009 Z4.991 
G1 X4.340 Y13.009 Z4.991 
G1 X4.340 Y13.006 Z4.991 
G1 X4.145 Y13.006 Z4.991 
G1 X4.145 Y13.004 Z4.991 
G1 X4.340 Y13.004 Z4.991 
G1 X4.340 Y13.001 Z4.991 
G1 X4.145 Y13.001 Z4.991 
G1 X4.145 Y12.999 Z4.991 
G1 X4.340 Y12.999 Z4.991 
G1 X4.340 Y12.996 Z4.991 
G1 X4.145 Y12.996 Z4.991 
G1 X4.145 Y12.994 Z4.991 
G1 X4.340 Y12.994 Z4.991 
G1 X4.340 Y12.991 Z4.991 
G1 X4.145 Y12.991 Z4.991 
G1 X4.145 Y12.989 Z4.991 
G1 X4.340 Y12.989 Z4.991 
G1 X4.340 Y12.986 Z4.991 
G1 X4.145 Y12.986 Z4.991 
G1 X4.145 Y12.984 Z4.991 
G1 X4.340 Y12.984 Z4.991 
G1 X4.340 Y12.981 Z4.991 
G1 X4.145 Y12.981 Z4.991 
G1 X4.145 Y12.979 Z4.991 
G1 X4.340 Y12.979 Z4.991 
G1 X4.340 Y12.976 Z4.991 
G1 X4.145 Y12.976 Z4.991 
G1 X4.145 Y12.974 Z4.991 
G1 X4.340 Y12.974 Z4.991 
G1 X4.340 Y12.971 Z4.991 
G1 X4.145 Y12.971 Z4.991 
G1 X4.145 Y12.969 Z4.991 
G1 X4.340 Y12.969 Z4.991 
G1 X4.340 Y12.966 Z4.991 
G1 X4.145 Y12.966 Z4.991 
G1 X4.145 Y12.964 Z4.991 
G1 X4.340 Y12.964 Z4.991 
G1 X4.340 Y12.961 Z4.991 
G1 X4.145 Y12.961 Z4.991 
G1 X4.145 Y12.959 Z4.991 
G1 X4.340 Y12.959 Z4.991 
G1 X4.340 Y12.956 Z4.991 
G1 X4.145 Y12.956 Z4.991 
G1 X4.145 Y12.954 Z4.991 
G1 X4.340 Y12.954 Z4.991 
G1 X4.340 Y12.951 Z4.991 
G1 X4.145 Y12.951 Z4.991 
G1 X4.145 Y12.949 Z4.991 
G1 X4.340 Y12.949 Z4.991 
G1 X4.340 Y12.946 Z4.991 
G1 X4.145 Y12.946 Z4.991 
G1 X4.145 Y12.944 Z4.991 
G1 X4.340 Y12.944 Z4.991 
G1 X4.340 Y12.941 Z4.991 
G1 X4.145 Y12.941 Z4.991 
G1 X4.145 Y12.939 Z4.991 
G1 X4.340 Y12.939 Z4.991 
G1 X4.340 Y12.936 Z4.991 
G1 X4.145 Y12.936 Z4.991 
G1 X4.145 Y12.934 Z4.991 
G1 X4.340 Y12.934 Z4.991 
G1 X4.340 Y12.931 Z4.991 
G1 X4.145 Y12.931 Z4.991 
G1 X4.145 Y12.929 Z4.991 
G1 X4.340 Y12.929 Z4.991 
G1 X4.340 Y12.926 Z4.991 
G1 X4.145 Y12.926 Z4.991 
G1 X4.145 Y12.924 Z4.991 
G1 X4.340 Y12.924 Z4.991 
G1 X4.340 Y12.921 Z4.991 
G1 X4.145 Y12.921 Z4.991 
G1 X4.145 Y12.919 Z4.991 
G1 X4.340 Y12.919 Z4.991 
G1 X4.340 Y12.916 Z4.991 
G1 X4.145 Y12.916 Z4.991 
G1 X4.145 Y12.914 Z4.991 
G1 X4.340 Y12.914 Z4.991 
G1 X4.340 Y12.911 Z4.991 
G1 X4.145 Y12.911 Z4.991 
G1 X4.145 Y12.909 Z4.991 
G1 X4.340 Y12.909 Z4.991 
G1 X4.340 Y12.906 Z4.991 
G1 X4.145 Y12.906 Z4.991 
G1 X4.145 Y12.904 Z4.991 
G1 X4.340 Y12.904 Z4.991 
G1 X4.340 Y12.901 Z4.991 
G1 X4.145 Y12.901 Z4.991 
G1 X4.145 Y12.899 Z4.991 
G1 X4.340 Y12.899 Z4.991 
G1 X4.340 Y12.896 Z4.991 
G1 X4.145 Y12.896 Z4.991 
G1 X4.145 Y12.894 Z4.991 
G1 X4.340 Y12.894 Z4.991 
G1 X4.340 Y12.891 Z4.991 
G1 X4.145 Y12.891 Z4.991 
G1 X4.145 Y12.889 Z4.991 
G1 X4.340 Y12.889 Z4.991 
G1 X4.340 Y12.886 Z4.991 
G1 X4.145 Y12.886 Z4.991 
G1 X4.145 Y12.884 Z4.991 
G1 X4.340 Y12.884 Z4.991 
G1 X4.340 Y12.881 Z4.991 
G1 X4.145 Y12.881 Z4.991 
G1 X4.145 Y12.879 Z4.991 
G1 X4.340 Y12.879 Z4.991 
G1 X4.340 Y12.876 Z4.991 
G1 X4.145 Y12.876 Z4.991 
G1 X4.145 Y12.874 Z4.991 
G1 X4.340 Y12.874 Z4.991 
G1 X4.340 Y12.871 Z4.991 
G1 X4.145 Y12.871 Z4.991 
G1 X4.145 Y12.869 Z4.991 
G1 X4.340 Y12.869 Z4.991 
G1 X4.340 Y12.866 Z4.991 
G1 X4.145 Y12.866 Z4.991 
G1 X4.145 Y12.864 Z4.991 
G1 X4.340 Y12.864 Z4.991 
G1 X4.340 Y12.861 Z4.991 
G1 X4.145 Y12.861 Z4.991 
G1 X4.145 Y12.859 Z4.991 
G1 X4.340 Y12.859 Z4.991 
G1 X4.340 Y12.856 Z4.991 
G1 X4.145 Y12.856 Z4.991 
G1 X4.145 Y12.854 Z4.991 
G1 X4.340 Y12.854 Z4.991 
G1 X4.340 Y12.851 Z4.991 
G1 X4.145 Y12.851 Z4.991 
G1 X4.145 Y12.849 Z4.991 
G1 X4.340 Y12.849 Z4.991 
G1 X4.340 Y12.846 Z4.991 
G1 X4.145 Y12.846 Z4.991 
G1 X4.145 Y12.844 Z4.991 
G1 X4.340 Y12.844 Z4.991 
G1 X4.340 Y12.841 Z4.991 
G1 X4.145 Y12.841 Z4.991 
G1 X4.145 Y12.839 Z4.991 
G1 X4.340 Y12.839 Z4.991 
G1 X4.340 Y12.836 Z4.991 
G1 X4.145 Y12.836 Z4.991 
G1 X4.145 Y12.834 Z4.991 
G1 X4.340 Y12.834 Z4.991 
G1 X4.340 Y12.831 Z4.991 
G1 X4.145 Y12.831 Z4.991 
G1 X4.145 Y12.831 Z4.990 
G1 X4.340 Y12.831 Z4.990 
G1 X4.340 Y12.834 Z4.990 
G1 X4.145 Y12.834 Z4.990 
G1 X4.145 Y12.836 Z4.990 
G1 X4.340 Y12.836 Z4.990 
G1 X4.340 Y12.839 Z4.990 
G1 X4.145 Y12.839 Z4.990 
G1 X4.145 Y12.841 Z4.990 
G1 X4.340 Y12.841 Z4.990 
G1 X4.340 Y12.844 Z4.990 
G1 X4.145 Y12.844 Z4.990 
G1 X4.145 Y12.846 Z4.990 
G1 X4.340 Y12.846 Z4.990 
G1 X4.340 Y12.849 Z4.990 
G1 X4.145 Y12.849 Z4.990 
G1 X4.145 Y12.851 Z4.990 
G1 X4.340 Y12.851 Z4.990 
G1 X4.340 Y12.854 Z4.990 
G1 X4.145 Y12.854 Z4.990 
G1 X4.145 Y12.856 Z4.990 
G1 X4.340 Y12.856 Z4.990 
G1 X4.340 Y12.859 Z4.990 
G1 X4.145 Y12.859 Z4.990 
G1 X4.145 Y12.861 Z4.990 
G1 X4.340 Y12.861 Z4.990 
G1 X4.340 Y12.864 Z4.990 
G1 X4.145 Y12.864 Z4.990 
G1 X4.145 Y12.866 Z4.990 
G1 X4.340 Y12.866 Z4.990 
G1 X4.340 Y12.869 Z4.990 
G1 X4.145 Y12.869 Z4.990 
G1 X4.145 Y12.871 Z4.990 
G1 X4.340 Y12.871 Z4.990 
G1 X4.340 Y12.874 Z4.990 
G1 X4.145 Y12.874 Z4.990 
G1 X4.145 Y12.876 Z4.990 
G1 X4.340 Y12.876 Z4.990 
G1 X4.340 Y12.879 Z4.990 
G1 X4.145 Y12.879 Z4.990 
G1 X4.145 Y12.881 Z4.990 
G1 X4.340 Y12.881 Z4.990 
G1 X4.340 Y12.884 Z4.990 
G1 X4.145 Y12.884 Z4.990 
G1 X4.145 Y12.886 Z4.990 
G1 X4.340 Y12.886 Z4.990 
G1 X4.340 Y12.889 Z4.990 
G1 X4.145 Y12.889 Z4.990 
G1 X4.145 Y12.891 Z4.990 
G1 X4.340 Y12.891 Z4.990 
G1 X4.340 Y12.894 Z4.990 
G1 X4.145 Y12.894 Z4.990 
G1 X4.145 Y12.896 Z4.990 
G1 X4.340 Y12.896 Z4.990 
G1 X4.340 Y12.899 Z4.990 
G1 X4.145 Y12.899 Z4.990 
G1 X4.145 Y12.901 Z4.990 
G1 X4.340 Y12.901 Z4.990 
G1 X4.340 Y12.904 Z4.990 
G1 X4.145 Y12.904 Z4.990 
G1 X4.145 Y12.906 Z4.990 
G1 X4.340 Y12.906 Z4.990 
G1 X4.340 Y12.909 Z4.990 
G1 X4.145 Y12.909 Z4.990 
G1 X4.145 Y12.911 Z4.990 
G1 X4.340 Y12.911 Z4.990 
G1 X4.340 Y12.914 Z4.990 
G1 X4.145 Y12.914 Z4.990 
G1 X4.145 Y12.916 Z4.990 
G1 X4.340 Y12.916 Z4.990 
G1 X4.340 Y12.919 Z4.990 
G1 X4.145 Y12.919 Z4.990 
G1 X4.145 Y12.921 Z4.990 
G1 X4.340 Y12.921 Z4.990 
G1 X4.340 Y12.924 Z4.990 
G1 X4.145 Y12.924 Z4.990 
G1 X4.145 Y12.926 Z4.990 
G1 X4.340 Y12.926 Z4.990 
G1 X4.340 Y12.929 Z4.990 
G1 X4.145 Y12.929 Z4.990 
G1 X4.145 Y12.931 Z4.990 
G1 X4.340 Y12.931 Z4.990 
G1 X4.340 Y12.934 Z4.990 
G1 X4.145 Y12.934 Z4.990 
G1 X4.145 Y12.936 Z4.990 
G1 X4.340 Y12.936 Z4.990 
G1 X4.340 Y12.939 Z4.990 
G1 X4.145 Y12.939 Z4.990 
G1 X4.145 Y12.941 Z4.990 
G1 X4.340 Y12.941 Z4.990 
G1 X4.340 Y12.944 Z4.990 
G1 X4.145 Y12.944 Z4.990 
G1 X4.145 Y12.946 Z4.990 
G1 X4.340 Y12.946 Z4.990 
G1 X4.340 Y12.949 Z4.990 
G1 X4.145 Y12.949 Z4.990 
G1 X4.145 Y12.951 Z4.990 
G1 X4.340 Y12.951 Z4.990 
G1 X4.340 Y12.954 Z4.990 
G1 X4.145 Y12.954 Z4.990 
G1 X4.145 Y12.956 Z4.990 
G1 X4.340 Y12.956 Z4.990 
G1 X4.340 Y12.959 Z4.990 
G1 X4.145 Y12.959 Z4.990 
G1 X4.145 Y12.961 Z4.990 
G1 X4.340 Y12.961 Z4.990 
G1 X4.340 Y12.964 Z4.990 
G1 X4.145 Y12.964 Z4.990 
G1 X4.145 Y12.966 Z4.990 
G1 X4.340 Y12.966 Z4.990 
G1 X4.340 Y12.969 Z4.990 
G1 X4.145 Y12.969 Z4.990 
G1 X4.145 Y12.971 Z4.990 
G1 X4.340 Y12.971 Z4.990 
G1 X4.340 Y12.974 Z4.990 
G1 X4.145 Y12.974 Z4.990 
G1 X4.145 Y12.976 Z4.990 
G1 X4.340 Y12.976 Z4.990 
G1 X4.340 Y12.979 Z4.990 
G1 X4.145 Y12.979 Z4.990 
G1 X4.145 Y12.981 Z4.990 
G1 X4.340 Y12.981 Z4.990 
G1 X4.340 Y12.984 Z4.990 
G1 X4.145 Y12.984 Z4.990 
G1 X4.145 Y12.986 Z4.990 
G1 X4.340 Y12.986 Z4.990 
G1 X4.340 Y12.989 Z4.990 
G1 X4.145 Y12.989 Z4.990 
G1 X4.145 Y12.991 Z4.990 
G1 X4.340 Y12.991 Z4.990 
G1 X4.340 Y12.994 Z4.990 
G1 X4.145 Y12.994 Z4.990 
G1 X4.145 Y12.996 Z4.990 
G1 X4.340 Y12.996 Z4.990 
G1 X4.340 Y12.999 Z4.990 
G1 X4.145 Y12.999 Z4.990 
G1 X4.145 Y13.001 Z4.990 
G1 X4.340 Y13.001 Z4.990 
G1 X4.340 Y13.004 Z4.990 
G1 X4.145 Y13.004 Z4.990 
G1 X4.145 Y13.006 Z4.990 
G1 X4.340 Y13.006 Z4.990 
G1 X4.340 Y13.009 Z4.990 
G1 X4.145 Y13.009 Z4.990 
G1 X4.145 Y13.011 Z4.990 
G1 X4.340 Y13.011 Z4.990 
G1 X4.340 Y13.014 Z4.990 
G1 X4.145 Y13.014 Z4.990 
G1 X4.145 Y13.016 Z4.990 
G1 X4.340 Y13.016 Z4.990 
G1 X4.340 Y13.019 Z4.990 
G1 X4.145 Y13.019 Z4.990 
G1 X4.145 Y13.021 Z4.990 
G1 X4.340 Y13.021 Z4.990 
G1 X4.340 Y13.024 Z4.990 
G1 X4.145 Y13.024 Z4.990 
G1 X4.145 Y13.026 Z4.990 
G1 X4.340 Y13.026 Z4.990 
G0 Z10.001 
G0 Z10.001 
G0 X4.340 Y13.026 
G0 Y10.855 
G0 Y10.855 Z8.001 
G1 X4.340 Y10.855 Z4.996 
G1 X4.145 Y10.855 Z4.996 
G1 X4.145 Y10.852 Z4.996 
G1 X4.340 Y10.852 Z4.996 
G1 X4.340 Y10.850 Z4.996 
G1 X4.145 Y10.850 Z4.996 
G1 X4.145 Y10.847 Z4.996 
G1 X4.340 Y10.847 Z4.996 
G1 X4.340 Y10.845 Z4.996 
G1 X4.145 Y10.845 Z4.996 
G1 X4.145 Y10.842 Z4.996 
G1 X4.340 Y10.842 Z4.996 
G1 X4.340 Y10.840 Z4.996 
G1 X4.145 Y10.840 Z4.996 
G1 X4.145 Y10.837 Z4.996 
G1 X4.340 Y10.837 Z4.996 
G1 X4.340 Y10.835 Z4.996 
G1 X4.145 Y10.835 Z4.996 
G1 X4.145 Y10.832 Z4.996 
G1 X4.340 Y10.832 Z4.996 
G1 X4.340 Y10.830 Z4.996 
G1 X4.145 Y10.830 Z4.996 
G1 X4.145 Y10.827 Z4.996 
G1 X4.340 Y10.827 Z4.996 
G1 X4.340 Y10.825 Z4.996 
G1 X4.145 Y10.825 Z4.996 
G1 X4.145 Y10.822 Z4.996 
G1 X4.340 Y10.822 Z4.996 
G1 X4.340 Y10.820 Z4.996 
G1 X4.145 Y10.820 Z4.996 
G1 X4.145 Y10.817 Z4.996 
G1 X4.340 Y10.817 Z4.996 
G1 X4.340 Y10.815 Z4.996 
G1 X4.145 Y10.815 Z4.996 
G1 X4.145 Y10.812 Z4.996 
G1 X4.340 Y10.812 Z4.996 
G1 X4.340 Y10.810 Z4.996 
G1 X4.145 Y10.810 Z4.996 
G1 X4.145 Y10.807 Z4.996 
G1 X4.340 Y10.807 Z4.996 
G1 X4.340 Y10.805 Z4.996 
G1 X4.145 Y10.805 Z4.996 
G1 X4.145 Y10.802 Z4.996 
G1 X4.340 Y10.802 Z4.996 
G1 X4.340 Y10.800 Z4.996 
G1 X4.145 Y10.800 Z4.996 
G1 X4.145 Y10.797 Z4.996 
G1 X4.340 Y10.797 Z4.996 
G1 X4.340 Y10.795 Z4.996 
G1 X4.145 Y10.795 Z4.996 
G1 X4.145 Y10.792 Z4.996 
G1 X4.340 Y10.792 Z4.996 
G1 X4.340 Y10.790 Z4.996 
G1 X4.145 Y10.790 Z4.996 
G1 X4.145 Y10.787 Z4.996 
G1 X4.340 Y10.787 Z4.996 
G1 X4.340 Y10.785 Z4.996 
G1 X4.145 Y10.785 Z4.996 
G1 X4.145 Y10.782 Z4.996 
G1 X4.340 Y10.782 Z4.996 
G1 X4.340 Y10.780 Z4.996 
G1 X4.145 Y10.780 Z4.996 
G1 X4.145 Y10.777 Z4.996 
G1 X4.340 Y10.777 Z4.996 
G1 X4.340 Y10.775 Z4.996 
G1 X4.145 Y10.775 Z4.996 
G1 X4.145 Y10.772 Z4.996 
G1 X4.340 Y10.772 Z4.996 
G1 X4.340 Y10.770 Z4.996 
G1 X4.145 Y10.770 Z4.996 
G1 X4.145 Y10.767 Z4.996 
G1 X4.340 Y10.767 Z4.996 
G1 X4.340 Y10.765 Z4.996 
G1 X4.145 Y10.765 Z4.996 
G1 X4.145 Y10.762 Z4.996 
G1 X4.340 Y10.762 Z4.996 
G1 X4.340 Y10.760 Z4.996 
G1 X4.145 Y10.760 Z4.996 
G1 X4.145 Y10.757 Z4.996 
G1 X4.340 Y10.757 Z4.996 
G1 X4.340 Y10.755 Z4.996 
G1 X4.145 Y10.755 Z4.996 
G1 X4.145 Y10.752 Z4.996 
G1 X4.340 Y10.752 Z4.996 
G1 X4.340 Y10.750 Z4.996 
G1 X4.145 Y10.750 Z4.996 
G1 X4.145 Y10.747 Z4.996 
G1 X4.340 Y10.747 Z4.996 
G1 X4.340 Y10.745 Z4.996 
G1 X4.145 Y10.745 Z4.996 
G1 X4.145 Y10.742 Z4.996 
G1 X4.340 Y10.742 Z4.996 
G1 X4.340 Y10.740 Z4.996 
G1 X4.145 Y10.740 Z4.996 
G1 X4.145 Y10.737 Z4.996 
G1 X4.340 Y10.737 Z4.996 
G1 X4.340 Y10.735 Z4.996 
G1 X4.145 Y10.735 Z4.996 
G1 X4.145 Y10.732 Z4.996 
G1 X4.340 Y10.732 Z4.996 
G1 X4.340 Y10.730 Z4.996 
G1 X4.145 Y10.730 Z4.996 
G1 X4.145 Y10.727 Z4.996 
G1 X4.340 Y10.727 Z4.996 
G1 X4.340 Y10.725 Z4.996 
G1 X4.145 Y10.725 Z4.996 
G1 X4.145 Y10.722 Z4.996 
G1 X4.340 Y10.722 Z4.996 
G1 X4.340 Y10.720 Z4.996 
G1 X4.145 Y10.720 Z4.996 
G1 X4.145 Y10.717 Z4.996 
G1 X4.340 Y10.717 Z4.996 
G1 X4.340 Y10.715 Z4.996 
G1 X4.145 Y10.715 Z4.996 
G1 X4.145 Y10.712 Z4.996 
G1 X4.340 Y10.712 Z4.996 
G1 X4.340 Y10.710 Z4.996 
G1 X4.145 Y10.710 Z4.996 
G1 X4.145 Y10.707 Z4.996 
G1 X4.340 Y10.707 Z4.996 
G1 X4.340 Y10.705 Z4.996 
G1 X4.145 Y10.705 Z4.996 
G1 X4.145 Y10.702 Z4.996 
G1 X4.340 Y10.702 Z4.996 
G1 X4.340 Y10.700 Z4.996 
G1 X4.145 Y10.700 Z4.996 
G1 X4.145 Y10.697 Z4.996 
G1 X4.340 Y10.697 Z4.996 
G1 X4.340 Y10.695 Z4.996 
G1 X4.145 Y10.695 Z4.996 
G1 X4.145 Y10.692 Z4.996 
G1 X4.340 Y10.692 Z4.996 
G1 X4.340 Y10.690 Z4.996 
G1 X4.145 Y10.690 Z4.996 
G1 X4.145 Y10.687 Z4.996 
G1 X4.340 Y10.687 Z4.996 
G1 X4.340 Y10.685 Z4.996 
G1 X4.145 Y10.685 Z4.996 
G1 X4.145 Y10.682 Z4.996 
G1 X4.340 Y10.682 Z4.996 
G1 X4.340 Y10.680 Z4.996 
G1 X4.145 Y10.680 Z4.996 
G1 X4.145 Y10.677 Z4.996 
G1 X4.340 Y10.677 Z4.996 
G1 X4.340 Y10.675 Z4.996 
G1 X4.145 Y10.675 Z4.996 
G1 X4.145 Y10.672 Z4.996 
G1 X4.340 Y10.672 Z4.996 
G1 X4.340 Y10.670 Z4.996 
G1 X4.145 Y10.670 Z4.996 
G1 X4.145 Y10.667 Z4.996 
G1 X4.340 Y10.667 Z4.996 
G1 X4.340 Y10.665 Z4.996 
G1 X4.145 Y10.665 Z4.996 
G1 X4.145 Y10.662 Z4.996 
G1 X4.340 Y10.662 Z4.996 
G1 X4.340 Y10.660 Z4.996 
G1 X4.145 Y10.660 Z4.996 
G1 X4.145 Y10.660 Z4.991 
G1 X4.340 Y10.660 Z4.991 
G1 X4.340 Y10.662 Z4.991 
G1 X4.145 Y10.662 Z4.991 
G1 X4.145 Y10.665 Z4.991 
G1 X4.340 Y10.665 Z4.991 
G1 X4.340 Y10.667 Z4.991 
G1 X4.145 Y10.667 Z4.991 
G1 X4.145 Y10.670 Z4.991 
G1 X4.340 Y10.670 Z4.991 
G1 X4.340 Y10.672 Z4.991 
G1 X4.145 Y10.672 Z4.991 
G1 X4.145 Y10.675 Z4.991 
G1 X4.340 Y10.675 Z4.991 
G1 X4.340 Y10.677 Z4.991 
G1 X4.145 Y10.677 Z4.991 
G1 X4.145 Y10.680 Z4.991 
G1 X4.340 Y10.680 Z4.991 
G1 X4.340 Y10.682 Z4.991 
G1 X4.145 Y10.682 Z4.991 
G1 X4.145 Y10.685 Z4.991 
G1 X4.340 Y10.685 Z4.991 
G1 X4.340 Y10.687 Z4.991 
G1 X4.145 Y10.687 Z4.991 
G1 X4.145 Y10.690 Z4.991 
G1 X4.340 Y10.690 Z4.991 
G1 X4.340 Y10.692 Z4.991 
G1 X4.145 Y10.692 Z4.991 
G1 X4.145 Y10.695 Z4.991 
G1 X4.340 Y10.695 Z4.991 
G1 X4.340 Y10.697 Z4.991 
G1 X4.145 Y10.697 Z4.991 
G1 X4.145 Y10.700 Z4.991 
G1 X4.340 Y10.700 Z4.991 
G1 X4.340 Y10.702 Z4.991 
G1 X4.145 Y10.702 Z4.991 
G1 X4.145 Y10.705 Z4.991 
G1 X4.340 Y10.705 Z4.991 
G1 X4.340 Y10.707 Z4.991 
G1 X4.145 Y10.707 Z4.991 
G1 X4.145 Y10.710 Z4.991 
G1 X4.340 Y10.710 Z4.991 
G1 X4.340 Y10.712 Z4.991 
G1 X4.145 Y10.712 Z4.991 
G1 X4.145 Y10.715 Z4.991 
G1 X4.340 Y10.715 Z4.991 
G1 X4.340 Y10.717 Z4.991 
G1 X4.145 Y10.717 Z4.991 
G1 X4.145 Y10.720 Z4.991 
G1 X4.340 Y10.720 Z4.991 
G1 X4.340 Y10.722 Z4.991 
G1 X4.145 Y10.722 Z4.991 
G1 X4.145 Y10.725 Z4.991 
G1 X4.340 Y10.725 Z4.991 
G1 X4.340 Y10.727 Z4.991 
G1 X4.145 Y10.727 Z4.991 
G1 X4.145 Y10.730 Z4.991 
G1 X4.340 Y10.730 Z4.991 
G1 X4.340 Y10.732 Z4.991 
G1 X4.145 Y10.732 Z4.991 
G1 X4.145 Y10.735 Z4.991 
G1 X4.340 Y10.735 Z4.991 
G1 X4.340 Y10.737 Z4.991 
G1 X4.145 Y10.737 Z4.991 
G1 X4.145 Y10.740 Z4.991 
G1 X4.340 Y10.740 Z4.991 
G1 X4.340 Y10.742 Z4.991 
G1 X4.145 Y10.742 Z4.991 
G1 X4.145 Y10.745 Z4.991 
G1 X4.340 Y10.745 Z4.991 
G1 X4.340 Y10.747 Z4.991 
G1 X4.145 Y10.747 Z4.991 
G1 X4.145 Y10.750 Z4.991 
G1 X4.340 Y10.750 Z4.991 
G1 X4.340 Y10.752 Z4.991 
G1 X4.145 Y10.752 Z4.991 
G1 X4.145 Y10.755 Z4.991 
G1 X4.340 Y10.755 Z4.991 
G1 X4.340 Y10.757 Z4.991 
G1 X4.145 Y10.757 Z4.991 
G1 X4.145 Y10.760 Z4.991 
G1 X4.340 Y10.760 Z4.991 
G1 X4.340 Y10.762 Z4.991 
G1 X4.145 Y10.762 Z4.991 
G1 X4.145 Y10.765 Z4.991 
G1 X4.340 Y10.765 Z4.991 
G1 X4.340 Y10.767 Z4.991 
G1 X4.145 Y10.767 Z4.991 
G1 X4.145 Y10.770 Z4.991 
G1 X4.340 Y10.770 Z4.991 
G1 X4.340 Y10.772 Z4.991 
G1 X4.145 Y10.772 Z4.991 
G1 X4.145 Y10.775 Z4.991 
G1 X4.340 Y10.775 Z4.991 
G1 X4.340 Y10.777 Z4.991 
G1 X4.145 Y10.777 Z4.991 
G1 X4.145 Y10.780 Z4.991 
G1 X4.340 Y10.780 Z4.991 
G1 X4.340 Y10.782 Z4.991 
G1 X4.145 Y10.782 Z4.991 
G1 X4.145 Y10.785 Z4.991 
G1 X4.340 Y10.785 Z4.991 
G1 X4.340 Y10.787 Z4.991 
G1 X4.145 Y10.787 Z4.991 
G1 X4.145 Y10.790 Z4.991 
G1 X4.340 Y10.790 Z4.991 
G1 X4.340 Y10.792 Z4.991 
G1 X4.145 Y10.792 Z4.991 
G1 X4.145 Y10.795 Z4.991 
G1 X4.340 Y10.795 Z4.991 
G1 X4.340 Y10.797 Z4.991 
G1 X4.145 Y10.797 Z4.991 
G1 X4.145 Y10.800 Z4.991 
G1 X4.340 Y10.800 Z4.991 
G1 X4.340 Y10.802 Z4.991 
G1 X4.145 Y10.802 Z4.991 
G1 X4.145 Y10.805 Z4.991 
G1 X4.340 Y10.805 Z4.991 
G1 X4.340 Y10.807 Z4.991 
G1 X4.145 Y10.807 Z4.991 
G1 X4.145 Y10.810 Z4.991 
G1 X4.340 Y10.810 Z4.991 
G1 X4.340 Y10.812 Z4.991 
G1 X4.145 Y10.812 Z4.991 
G1 X4.145 Y10.815 Z4.991 
G1 X4.340 Y10.815 Z4.991 
G1 X4.340 Y10.817 Z4.991 
G1 X4.145 Y10.817 Z4.991 
G1 X4.145 Y10.820 Z4.991 
G1 X4.340 Y10.820 Z4.991 
G1 X4.340 Y10.822 Z4.991 
G1 X4.145 Y10.822 Z4.991 
G1 X4.145 Y10.825 Z4.991 
G1 X4.340 Y10.825 Z4.991 
G1 X4.340 Y10.827 Z4.991 
G1 X4.145 Y10.827 Z4.991 
G1 X4.145 Y10.830 Z4.991 
G1 X4.340 Y10.830 Z4.991 
G1 X4.340 Y10.832 Z4.991 
G1 X4.145 Y10.832 Z4.991 
G1 X4.145 Y10.835 Z4.991 
G1 X4.340 Y10.835 Z4.991 
G1 X4.340 Y10.837 Z4.991 
G1 X4.145 Y10.837 Z4.991 
G1 X4.145 Y10.840 Z4.991 
G1 X4.340 Y10.840 Z4.991 
G1 X4.340 Y10.842 Z4.991 
G1 X4.145 Y10.842 Z4.991 
G1 X4.145 Y10.845 Z4.991 
G1 X4.340 Y10.845 Z4.991 
G1 X4.340 Y10.847 Z4.991 
G1 X4.145 Y10.847 Z4.991 
G1 X4.145 Y10.850 Z4.991 
G1 X4.340 Y10.850 Z4.991 
G1 X4.340 Y10.852 Z4.991 
G1 X4.145 Y10.852 Z4.991 
G1 X4.145 Y10.855 Z4.991 
G1 X4.340 Y10.855 Z4.991 
G1 X4.340 Y10.855 Z4.990 
G1 X4.145 Y10.855 Z4.990 
G1 X4.145 Y10.852 Z4.990 
G1 X4.340 Y10.852 Z4.990 
G1 X4.340 Y10.850 Z4.990 
G1 X4.145 Y10.850 Z4.990 
G1 X4.145 Y10.847 Z4.990 
G1 X4.340 Y10.847 Z4.990 
G1 X4.340 Y10.845 Z4.990 
G1 X4.145 Y10.845 Z4.990 
G1 X4.145 Y10.842 Z4.990 
G1 X4.340 Y10.842 Z4.990 
G1 X4.340 Y10.840 Z4.990 
G1 X4.145 Y10.840 Z4.990 
G1 X4.145 Y10.837 Z4.990 
G1 X4.340 Y10.837 Z4.990 
G1 X4.340 Y10.835 Z4.990 
G1 X4.145 Y10.835 Z4.990 
G1 X4.145 Y10.832 Z4.990 
G1 X4.340 Y10.832 Z4.990 
G1 X4.340 Y10.830 Z4.990 
G1 X4.145 Y10.830 Z4.990 
G1 X4.145 Y10.827 Z4.990 
G1 X4.340 Y10.827 Z4.990 
G1 X4.340 Y10.825 Z4.990 
G1 X4.145 Y10.825 Z4.990 
G1 X4.145 Y10.822 Z4.990 
G1 X4.340 Y10.822 Z4.990 
G1 X4.340 Y10.820 Z4.990 
G1 X4.145 Y10.820 Z4.990 
G1 X4.145 Y10.817 Z4.990 
G1 X4.340 Y10.817 Z4.990 
G1 X4.340 Y10.815 Z4.990 
G1 X4.145 Y10.815 Z4.990 
G1 X4.145 Y10.812 Z4.990 
G1 X4.340 Y10.812 Z4.990 
G1 X4.340 Y10.810 Z4.990 
G1 X4.145 Y10.810 Z4.990 
G1 X4.145 Y10.807 Z4.990 
G1 X4.340 Y10.807 Z4.990 
G1 X4.340 Y10.805 Z4.990 
G1 X4.145 Y10.805 Z4.990 
G1 X4.145 Y10.802 Z4.990 
G1 X4.340 Y10.802 Z4.990 
G1 X4.340 Y10.800 Z4.990 
G1 X4.145 Y10.800 Z4.990 
G1 X4.145 Y10.797 Z4.990 
G1 X4.340 Y10.797 Z4.990 
G1 X4.340 Y10.795 Z4.990 
G1 X4.145 Y10.795 Z4.990 
G1 X4.145 Y10.792 Z4.990 
G1 X4.340 Y10.792 Z4.990 
G1 X4.340 Y10.790 Z4.990 
G1 X4.145 Y10.790 Z4.990 
G1 X4.145 Y10.787 Z4.990 
G1 X4.340 Y10.787 Z4.990 
G1 X4.340 Y10.785 Z4.990 
G1 X4.145 Y10.785 Z4.990 
G1 X4.145 Y10.782 Z4.990 
G1 X4.340 Y10.782 Z4.990 
G1 X4.340 Y10.780 Z4.990 
G1 X4.145 Y10.780 Z4.990 
G1 X4.145 Y10.777 Z4.990 
G1 X4.340 Y10.777 Z4.990 
G1 X4.340 Y10.775 Z4.990 
G1 X4.145 Y10.775 Z4.990 
G1 X4.145 Y10.772 Z4.990 
G1 X4.340 Y10.772 Z4.990 
G1 X4.340 Y10.770 Z4.990 
G1 X4.145 Y10.770 Z4.990 
G1 X4.145 Y10.767 Z4.990 
G1 X4.340 Y10.767 Z4.990 
G1 X4.340 Y10.765 Z4.990 
G1 X4.145 Y10.765 Z4.990 
G1 X4.145 Y10.762 Z4.990 
G1 X4.340 Y10.762 Z4.990 
G1 X4.340 Y10.760 Z4.990 
G1 X4.145 Y10.760 Z4.990 
G1 X4.145 Y10.757 Z4.990 
G1 X4.340 Y10.757 Z4.990 
G1 X4.340 Y10.755 Z4.990 
G1 X4.145 Y10.755 Z4.990 
G1 X4.145 Y10.752 Z4.990 
G1 X4.340 Y10.752 Z4.990 
G1 X4.340 Y10.750 Z4.990 
G1 X4.145 Y10.750 Z4.990 
G1 X4.145 Y10.747 Z4.990 
G1 X4.340 Y10.747 Z4.990 
G1 X4.340 Y10.745 Z4.990 
G1 X4.145 Y10.745 Z4.990 
G1 X4.145 Y10.742 Z4.990 
G1 X4.340 Y10.742 Z4.990 
G1 X4.340 Y10.740 Z4.990 
G1 X4.145 Y10.740 Z4.990 
G1 X4.145 Y10.737 Z4.990 
G1 X4.340 Y10.737 Z4.990 
G1 X4.340 Y10.735 Z4.990 
G1 X4.145 Y10.735 Z4.990 
G1 X4.145 Y10.732 Z4.990 
G1 X4.340 Y10.732 Z4.990 
G1 X4.340 Y10.730 Z4.990 
G1 X4.145 Y10.730 Z4.990 
G1 X4.145 Y10.727 Z4.990 
G1 X4.340 Y10.727 Z4.990 
G1 X4.340 Y10.725 Z4.990 
G1 X4.145 Y10.725 Z4.990 
G1 X4.145 Y10.722 Z4.990 
G1 X4.340 Y10.722 Z4.990 
G1 X4.340 Y10.720 Z4.990 
G1 X4.145 Y10.720 Z4.990 
G1 X4.145 Y10.717 Z4.990 
G1 X4.340 Y10.717 Z4.990 
G1 X4.340 Y10.715 Z4.990 
G1 X4.145 Y10.715 Z4.990 
G1 X4.145 Y10.712 Z4.990 
G1 X4.340 Y10.712 Z4.990 
G1 X4.340 Y10.710 Z4.990 
G1 X4.145 Y10.710 Z4.990 
G1 X4.145 Y10.707 Z4.990 
G1 X4.340 Y10.707 Z4.990 
G1 X4.340 Y10.705 Z4.990 
G1 X4.145 Y10.705 Z4.990 
G1 X4.145 Y10.702 Z4.990 
G1 X4.340 Y10.702 Z4.990 
G1 X4.340 Y10.700 Z4.990 
G1 X4.145 Y10.700 Z4.990 
G1 X4.145 Y10.697 Z4.990 
G1 X4.340 Y10.697 Z4.990 
G1 X4.340 Y10.695 Z4.990 
G1 X4.145 Y10.695 Z4.990 
G1 X4.145 Y10.692 Z4.990 
G1 X4.340 Y10.692 Z4.990 
G1 X4.340 Y10.690 Z4.990 
G1 X4.145 Y10.690 Z4.990 
G1 X4.145 Y10.687 Z4.990 
G1 X4.340 Y10.687 Z4.990 
G1 X4.340 Y10.685 Z4.990 
G1 X4.145 Y10.685 Z4.990 
G1 X4.145 Y10.682 Z4.990 
G1 X4.340 Y10.682 Z4.990 
G1 X4.340 Y10.680 Z4.990 
G1 X4.145 Y10.680 Z4.990 
G1 X4.145 Y10.677 Z4.990 
G1 X4.340 Y10.677 Z4.990 
G1 X4.340 Y10.675 Z4.990 
G1 X4.145 Y10.675 Z4.990 
G1 X4.145 Y10.672 Z4.990 
G1 X4.340 Y10.672 Z4.990 
G1 X4.340 Y10.670 Z4.990 
G1 X4.145 Y10.670 Z4.990 
G1 X4.145 Y10.667 Z4.990 
G1 X4.340 Y10.667 Z4.990 
G1 X4.340 Y10.665 Z4.990 
G1 X4.145 Y10.665 Z4.990 
G1 X4.145 Y10.662 Z4.990 
G1 X4.340 Y10.662 Z4.990 
G1 X4.340 Y10.660 Z4.990 
G1 X4.145 Y10.660 Z4.990 
G0 Z10.001 
G0 Z10.001 
G0 X4.145 Y10.660 
G0 X4.340 Y8.683 
G0 X4.340 Y8.683 Z8.001 
G1 X4.340 Y8.683 Z4.996 
G1 X4.145 Y8.683 Z4.996 
G1 X4.145 Y8.681 Z4.996 
G1 X4.340 Y8.681 Z4.996 
G1 X4.340 Y8.678 Z4.996 
G1 X4.145 Y8.678 Z4.996 
G1 X4.145 Y8.676 Z4.996 
G1 X4.340 Y8.676 Z4.996 
G1 X4.340 Y8.673 Z4.996 
G1 X4.145 Y8.673 Z4.996 
G1 X4.145 Y8.671 Z4.996 
G1 X4.340 Y8.671 Z4.996 
G1 X4.340 Y8.668 Z4.996 
G1 X4.145 Y8.668 Z4.996 
G1 X4.145 Y8.666 Z4.996 
G1 X4.340 Y8.666 Z4.996 
G1 X4.340 Y8.663 Z4.996 
G1 X4.145 Y8.663 Z4.996 
G1 X4.145 Y8.661 Z4.996 
G1 X4.340 Y8.661 Z4.996 
G1 X4.340 Y8.658 Z4.996 
G1 X4.145 Y8.658 Z4.996 
G1 X4.145 Y8.656 Z4.996 
G1 X4.340 Y8.656 Z4.996 
G1 X4.340 Y8.653 Z4.996 
G1 X4.145 Y8.653 Z4.996 
G1 X4.145 Y8.651 Z4.996 
G1 X4.340 Y8.651 Z4.996 
G1 X4.340 Y8.648 Z4.996 
G1 X4.145 Y8.648 Z4.996 
G1 X4.145 Y8.646 Z4.996 
G1 X4.340 Y8.646 Z4.996 
G1 X4.340 Y8.643 Z4.996 
G1 X4.145 Y8.643 Z4.996 
G1 X4.145 Y8.641 Z4.996 
G1 X4.340 Y8.641 Z4.996 
G1 X4.340 Y8.638 Z4.996 
G1 X4.145 Y8.638 Z4.996 
G1 X4.145 Y8.636 Z4.996 
G1 X4.340 Y8.636 Z4.996 
G1 X4.340 Y8.633 Z4.996 
G1 X4.145 Y8.633 Z4.996 
G1 X4.145 Y8.631 Z4.996 
G1 X4.340 Y8.631 Z4.996 
G1 X4.340 Y8.628 Z4.996 
G1 X4.145 Y8.628 Z4.996 
G1 X4.145 Y8.626 Z4.996 
G1 X4.340 Y8.626 Z4.996 
G1 X4.340 Y8.623 Z4.996 
G1 X4.145 Y8.623 Z4.996 
G1 X4.145 Y8.621 Z4.996 
G1 X4.340 Y8.621 Z4.996 
G1 X4.340 Y8.618 Z4.996 
G1 X4.145 Y8.618 Z4.996 
G1 X4.145 Y8.616 Z4.996 
G1 X4.340 Y8.616 Z4.996 
G1 X4.340 Y8.613 Z4.996 
G1 X4.145 Y8.613 Z4.996 
G1 X4.145 Y8.611 Z4.996 
G1 X4.340 Y8.611 Z4.996 
G1 X4.340 Y8.608 Z4.996 
G1 X4.145 Y8.608 Z4.996 
G1 X4.145 Y8.606 Z4.996 
G1 X4.340 Y8.606 Z4.996 
G1 X4.340 Y8.603 Z4.996 
G1 X4.145 Y8.603 Z4.996 
G1 X4.145 Y8.601 Z4.996 
G1 X4.340 Y8.601 Z4.996 
G1 X4.340 Y8.598 Z4.996 
G1 X4.145 Y8.598 Z4.996 
G1 X4.145 Y8.596 Z4.996 
G1 X4.340 Y8.596 Z4.996 
G1 X4.340 Y8.593 Z4.996 
G1 X4.145 Y8.593 Z4.996 
G1 X4.145 Y8.591 Z4.996 
G1 X4.340 Y8.591 Z4.996 
G1 X4.340 Y8.588 Z4.996 
G1 X4.145 Y8.588 Z4.996 
G1 X4.145 Y8.586 Z4.996 
G1 X4.340 Y8.586 Z4.996 
G1 X4.340 Y8.583 Z4.996 
G1 X4.145 Y8.583 Z4.996 
G1 X4.145 Y8.581 Z4.996 
G1 X4.340 Y8.581 Z4.996 
G1 X4.340 Y8.578 Z4.996 
G1 X4.145 Y8.578 Z4.996 
