(Exported by FreeCAD)
(Post Processor: script_module)
(Output Time:2025-06-23 12:30:03.917507)
(begin preamble)
G17 G54 G40 G49 G80 G90
G21
(begin operation: Fixture)
(machine units: mm/min)
G54 
(finish operation: Fixture)
(begin operation: TC: Default Tool)
(machine units: mm/min)
(TC: Default Tool) 
M5
M6 T1 
G43 H1 
(finish operation: TC: Default Tool)
(begin operation: Pocket_Shape)
(machine units: mm/min)
(Pocket_Shape) 
G0 Z10.001 
G0 X0.000 Y0.000 
G0 X3.003 Y10.003 
G0 X3.003 Y10.003 Z8.001 
G1 X3.003 Y10.003 Z4.999 
G1 X12.997 Y10.003 Z4.999 
G1 X12.997 Y10.005 Z4.999 
G1 X3.003 Y10.005 Z4.999 
G1 X3.003 Y10.008 Z4.999 
G1 X12.997 Y10.008 Z4.999 
G1 X12.997 Y10.010 Z4.999 
G1 X3.003 Y10.010 Z4.999 
G1 X3.003 Y10.013 Z4.999 
G1 X12.997 Y10.013 Z4.999 
G1 X12.997 Y10.015 Z4.999 
G1 X3.003 Y10.015 Z4.999 
G1 X3.003 Y10.018 Z4.999 
G1 X12.997 Y10.018 Z4.999 
G1 X12.997 Y10.020 Z4.999 
G1 X3.003 Y10.020 Z4.999 
G1 X3.003 Y10.023 Z4.999 
G1 X12.997 Y10.023 Z4.999 
G1 X12.997 Y10.025 Z4.999 
G1 X3.003 Y10.025 Z4.999 
G1 X3.003 Y10.028 Z4.999 
G1 X12.997 Y10.028 Z4.999 
G1 X12.997 Y10.030 Z4.999 
G1 X3.003 Y10.030 Z4.999 
G1 X3.003 Y10.033 Z4.999 
G1 X12.997 Y10.033 Z4.999 
G1 X12.997 Y10.035 Z4.999 
G1 X3.003 Y10.035 Z4.999 
G1 X3.003 Y10.038 Z4.999 
G1 X12.997 Y10.038 Z4.999 
G1 X12.997 Y10.040 Z4.999 
G1 X3.003 Y10.040 Z4.999 
G1 X3.003 Y10.043 Z4.999 
G1 X12.997 Y10.043 Z4.999 
G1 X12.997 Y10.045 Z4.999 
G1 X3.003 Y10.045 Z4.999 
G1 X3.003 Y10.048 Z4.999 
G1 X12.997 Y10.048 Z4.999 
G1 X12.997 Y10.050 Z4.999 
G1 X3.003 Y10.050 Z4.999 
G1 X3.003 Y10.053 Z4.999 
G1 X12.997 Y10.053 Z4.999 
G1 X12.997 Y10.055 Z4.999 
G1 X3.003 Y10.055 Z4.999 
G1 X3.003 Y10.058 Z4.999 
G1 X12.997 Y10.058 Z4.999 
G1 X12.997 Y10.060 Z4.999 
G1 X3.003 Y10.060 Z4.999 
G1 X3.003 Y10.063 Z4.999 
G1 X12.997 Y10.063 Z4.999 
G1 X12.997 Y10.065 Z4.999 
G1 X3.003 Y10.065 Z4.999 
G1 X3.003 Y10.068 Z4.999 
G1 X12.997 Y10.068 Z4.999 
G1 X12.997 Y10.070 Z4.999 
G1 X3.003 Y10.070 Z4.999 
G1 X3.003 Y10.073 Z4.999 
G1 X12.997 Y10.073 Z4.999 
G1 X12.997 Y10.075 Z4.999 
G1 X3.003 Y10.075 Z4.999 
G1 X3.003 Y10.078 Z4.999 
G1 X12.997 Y10.078 Z4.999 
G1 X12.997 Y10.080 Z4.999 
G1 X3.003 Y10.080 Z4.999 
G1 X3.003 Y10.083 Z4.999 
G1 X12.997 Y10.083 Z4.999 
G1 X12.997 Y10.085 Z4.999 
G1 X3.003 Y10.085 Z4.999 
G1 X3.003 Y10.088 Z4.999 
G1 X12.997 Y10.088 Z4.999 
G1 X12.997 Y10.090 Z4.999 
G1 X3.003 Y10.090 Z4.999 
G1 X3.003 Y10.093 Z4.999 
G1 X12.997 Y10.093 Z4.999 
G1 X12.997 Y10.095 Z4.999 
G1 X3.003 Y10.095 Z4.999 
G1 X3.003 Y10.098 Z4.999 
G1 X12.997 Y10.098 Z4.999 
G1 X12.997 Y10.100 Z4.999 
G1 X3.003 Y10.100 Z4.999 
G1 X3.003 Y10.103 Z4.999 
G1 X12.997 Y10.103 Z4.999 
G1 X12.997 Y10.105 Z4.999 
G1 X3.003 Y10.105 Z4.999 
G1 X3.003 Y10.108 Z4.999 
G1 X12.997 Y10.108 Z4.999 
G1 X12.997 Y10.110 Z4.999 
G1 X3.003 Y10.110 Z4.999 
G1 X3.003 Y10.113 Z4.999 
G1 X12.997 Y10.113 Z4.999 
G1 X12.997 Y10.115 Z4.999 
G1 X3.003 Y10.115 Z4.999 
G1 X3.003 Y10.118 Z4.999 
G1 X12.997 Y10.118 Z4.999 
G1 X12.997 Y10.120 Z4.999 
G1 X3.003 Y10.120 Z4.999 
G1 X3.003 Y10.123 Z4.999 
G1 X12.997 Y10.123 Z4.999 
G1 X12.997 Y10.125 Z4.999 
G1 X3.003 Y10.125 Z4.999 
G1 X3.003 Y10.128 Z4.999 
G1 X12.997 Y10.128 Z4.999 
G1 X12.997 Y10.130 Z4.999 
G1 X3.003 Y10.130 Z4.999 
G1 X3.003 Y10.133 Z4.999 
G1 X12.997 Y10.133 Z4.999 
G1 X12.997 Y10.135 Z4.999 
G1 X3.003 Y10.135 Z4.999 
G1 X3.003 Y10.138 Z4.999 
G1 X12.997 Y10.138 Z4.999 
G1 X12.997 Y10.140 Z4.999 
G1 X3.003 Y10.140 Z4.999 
G1 X3.003 Y10.143 Z4.999 
G1 X12.997 Y10.143 Z4.999 
G1 X12.997 Y10.145 Z4.999 
G1 X3.003 Y10.145 Z4.999 
G1 X3.003 Y10.148 Z4.999 
G1 X12.997 Y10.148 Z4.999 
G1 X12.997 Y10.150 Z4.999 
G1 X3.003 Y10.150 Z4.999 
G1 X3.003 Y10.153 Z4.999 
G1 X12.997 Y10.153 Z4.999 
G1 X12.997 Y10.155 Z4.999 
G1 X3.003 Y10.155 Z4.999 
G1 X3.003 Y10.158 Z4.999 
G1 X12.997 Y10.158 Z4.999 
G1 X12.997 Y10.160 Z4.999 
G1 X3.003 Y10.160 Z4.999 
G1 X3.003 Y10.163 Z4.999 
G1 X12.997 Y10.163 Z4.999 
G1 X12.997 Y10.165 Z4.999 
G1 X3.003 Y10.165 Z4.999 
G1 X3.003 Y10.168 Z4.999 
G1 X12.997 Y10.168 Z4.999 
G1 X12.997 Y10.170 Z4.999 
G1 X3.003 Y10.170 Z4.999 
G1 X3.003 Y10.173 Z4.999 
G1 X12.997 Y10.173 Z4.999 
G1 X12.997 Y10.175 Z4.999 
G1 X3.003 Y10.175 Z4.999 
G1 X3.003 Y10.178 Z4.999 
G1 X12.997 Y10.178 Z4.999 
G1 X12.997 Y10.180 Z4.999 
G1 X3.003 Y10.180 Z4.999 
G1 X3.003 Y10.183 Z4.999 
G1 X12.997 Y10.183 Z4.999 
G1 X12.997 Y10.185 Z4.999 
G1 X3.003 Y10.185 Z4.999 
G1 X3.003 Y10.188 Z4.999 
G1 X12.997 Y10.188 Z4.999 
G1 X12.997 Y10.190 Z4.999 
G1 X3.003 Y10.190 Z4.999 
G1 X3.003 Y10.193 Z4.999 
G1 X12.997 Y10.193 Z4.999 
G1 X12.997 Y10.195 Z4.999 
G1 X3.003 Y10.195 Z4.999 
G1 X3.003 Y10.198 Z4.999 
G1 X12.997 Y10.198 Z4.999 
G1 X12.997 Y10.200 Z4.999 
G1 X3.003 Y10.200 Z4.999 
G1 X3.003 Y10.203 Z4.999 
G1 X12.997 Y10.203 Z4.999 
G1 X12.997 Y10.205 Z4.999 
G1 X3.003 Y10.205 Z4.999 
G1 X3.003 Y10.208 Z4.999 
G1 X12.997 Y10.208 Z4.999 
G1 X12.997 Y10.210 Z4.999 
G1 X3.003 Y10.210 Z4.999 
G1 X3.003 Y10.213 Z4.999 
G1 X12.997 Y10.213 Z4.999 
G1 X12.997 Y10.215 Z4.999 
G1 X3.003 Y10.215 Z4.999 
G1 X3.003 Y10.218 Z4.999 
G1 X12.997 Y10.218 Z4.999 
G1 X12.997 Y10.220 Z4.999 
G1 X3.003 Y10.220 Z4.999 
G1 X3.003 Y10.223 Z4.999 
G1 X12.997 Y10.223 Z4.999 
G1 X12.997 Y10.225 Z4.999 
G1 X3.003 Y10.225 Z4.999 
G1 X3.003 Y10.228 Z4.999 
G1 X12.997 Y10.228 Z4.999 
G1 X12.997 Y10.230 Z4.999 
G1 X3.003 Y10.230 Z4.999 
G1 X3.003 Y10.233 Z4.999 
G1 X12.997 Y10.233 Z4.999 
G1 X12.997 Y10.235 Z4.999 
G1 X3.003 Y10.235 Z4.999 
G1 X3.003 Y10.238 Z4.999 
G1 X12.997 Y10.238 Z4.999 
G1 X12.997 Y10.240 Z4.999 
G1 X3.003 Y10.240 Z4.999 
G1 X3.003 Y10.243 Z4.999 
G1 X12.997 Y10.243 Z4.999 
G1 X12.997 Y10.245 Z4.999 
G1 X3.003 Y10.245 Z4.999 
G1 X3.003 Y10.248 Z4.999 
G1 X12.997 Y10.248 Z4.999 
G1 X12.997 Y10.250 Z4.999 
G1 X3.003 Y10.250 Z4.999 
G1 X3.003 Y10.253 Z4.999 
G1 X12.997 Y10.253 Z4.999 
G1 X12.997 Y10.255 Z4.999 
G1 X3.003 Y10.255 Z4.999 
G1 X3.003 Y10.258 Z4.999 
G1 X12.997 Y10.258 Z4.999 
G1 X12.997 Y10.260 Z4.999 
G1 X3.003 Y10.260 Z4.999 
G1 X3.003 Y10.263 Z4.999 
G1 X12.997 Y10.263 Z4.999 
G1 X12.997 Y10.265 Z4.999 
G1 X3.003 Y10.265 Z4.999 
G1 X3.003 Y10.268 Z4.999 
G1 X12.997 Y10.268 Z4.999 
G1 X12.997 Y10.270 Z4.999 
G1 X3.003 Y10.270 Z4.999 
G1 X3.003 Y10.273 Z4.999 
G1 X12.997 Y10.273 Z4.999 
G1 X12.997 Y10.275 Z4.999 
G1 X3.003 Y10.275 Z4.999 
G1 X3.003 Y10.278 Z4.999 
G1 X12.997 Y10.278 Z4.999 
G1 X12.997 Y10.280 Z4.999 
G1 X3.003 Y10.280 Z4.999 
G1 X3.003 Y10.283 Z4.999 
G1 X12.997 Y10.283 Z4.999 
G1 X12.997 Y10.285 Z4.999 
G1 X3.003 Y10.285 Z4.999 
G1 X3.003 Y10.288 Z4.999 
G1 X12.997 Y10.288 Z4.999 
G1 X12.997 Y10.290 Z4.999 
G1 X3.003 Y10.290 Z4.999 
G1 X3.003 Y10.293 Z4.999 
G1 X12.997 Y10.293 Z4.999 
G1 X12.997 Y10.295 Z4.999 
G1 X3.003 Y10.295 Z4.999 
G1 X3.003 Y10.298 Z4.999 
G1 X12.997 Y10.298 Z4.999 
G1 X12.997 Y10.300 Z4.999 
G1 X3.003 Y10.300 Z4.999 
G1 X3.003 Y10.303 Z4.999 
G1 X12.997 Y10.303 Z4.999 
G1 X12.997 Y10.305 Z4.999 
G1 X3.003 Y10.305 Z4.999 
G1 X3.003 Y10.308 Z4.999 
G1 X12.997 Y10.308 Z4.999 
G1 X12.997 Y10.310 Z4.999 
G1 X3.003 Y10.310 Z4.999 
G1 X3.003 Y10.313 Z4.999 
G1 X12.997 Y10.313 Z4.999 
G1 X12.997 Y10.315 Z4.999 
G1 X3.003 Y10.315 Z4.999 
G1 X3.003 Y10.318 Z4.999 
G1 X12.997 Y10.318 Z4.999 
G1 X12.997 Y10.320 Z4.999 
G1 X3.003 Y10.320 Z4.999 
G1 X3.003 Y10.323 Z4.999 
G1 X12.997 Y10.323 Z4.999 
G1 X12.997 Y10.325 Z4.999 
G1 X3.003 Y10.325 Z4.999 
G1 X3.003 Y10.328 Z4.999 
G1 X12.997 Y10.328 Z4.999 
G1 X12.997 Y10.330 Z4.999 
G1 X3.003 Y10.330 Z4.999 
G1 X3.003 Y10.333 Z4.999 
G1 X12.997 Y10.333 Z4.999 
G1 X12.997 Y10.335 Z4.999 
G1 X3.003 Y10.335 Z4.999 
G1 X3.003 Y10.338 Z4.999 
G1 X12.997 Y10.338 Z4.999 
G1 X12.997 Y10.340 Z4.999 
G1 X3.003 Y10.340 Z4.999 
G1 X3.003 Y10.343 Z4.999 
G1 X12.997 Y10.343 Z4.999 
G1 X12.997 Y10.345 Z4.999 
G1 X3.003 Y10.345 Z4.999 
G1 X3.003 Y10.348 Z4.999 
G1 X12.997 Y10.348 Z4.999 
G1 X12.997 Y10.350 Z4.999 
G1 X3.003 Y10.350 Z4.999 
G1 X3.003 Y10.353 Z4.999 
G1 X12.997 Y10.353 Z4.999 
G1 X12.997 Y10.355 Z4.999 
G1 X3.003 Y10.355 Z4.999 
G1 X3.003 Y10.358 Z4.999 
G1 X12.997 Y10.358 Z4.999 
G1 X12.997 Y10.360 Z4.999 
G1 X3.003 Y10.360 Z4.999 
G1 X3.003 Y10.363 Z4.999 
G1 X12.997 Y10.363 Z4.999 
G1 X12.997 Y10.365 Z4.999 
G1 X3.003 Y10.365 Z4.999 
G1 X3.003 Y10.368 Z4.999 
G1 X12.997 Y10.368 Z4.999 
G1 X12.997 Y10.370 Z4.999 
G1 X3.003 Y10.370 Z4.999 
G1 X3.003 Y10.373 Z4.999 
G1 X12.997 Y10.373 Z4.999 
G1 X12.997 Y10.375 Z4.999 
G1 X3.003 Y10.375 Z4.999 
G1 X3.003 Y10.378 Z4.999 
G1 X12.997 Y10.378 Z4.999 
G1 X12.997 Y10.380 Z4.999 
G1 X3.003 Y10.380 Z4.999 
G1 X3.003 Y10.383 Z4.999 
G1 X12.997 Y10.383 Z4.999 
G1 X12.997 Y10.385 Z4.999 
G1 X3.003 Y10.385 Z4.999 
G1 X3.003 Y10.388 Z4.999 
G1 X12.997 Y10.388 Z4.999 
G1 X12.997 Y10.390 Z4.999 
G1 X3.003 Y10.390 Z4.999 
G1 X3.003 Y10.393 Z4.999 
G1 X12.997 Y10.393 Z4.999 
G1 X12.997 Y10.395 Z4.999 
G1 X3.003 Y10.395 Z4.999 
G1 X3.003 Y10.398 Z4.999 
G1 X12.997 Y10.398 Z4.999 
G1 X12.997 Y10.400 Z4.999 
G1 X3.003 Y10.400 Z4.999 
G1 X3.003 Y10.403 Z4.999 
G1 X12.997 Y10.403 Z4.999 
G1 X12.997 Y10.405 Z4.999 
G1 X3.003 Y10.405 Z4.999 
G1 X3.003 Y10.408 Z4.999 
G1 X12.997 Y10.408 Z4.999 
G1 X12.997 Y10.410 Z4.999 
G1 X3.003 Y10.410 Z4.999 
G1 X3.003 Y10.413 Z4.999 
G1 X12.997 Y10.413 Z4.999 
G1 X12.997 Y10.415 Z4.999 
G1 X3.003 Y10.415 Z4.999 
G1 X3.003 Y10.418 Z4.999 
G1 X12.997 Y10.418 Z4.999 
G1 X12.997 Y10.420 Z4.999 
G1 X3.003 Y10.420 Z4.999 
G1 X3.003 Y10.423 Z4.999 
G1 X12.997 Y10.423 Z4.999 
G1 X12.997 Y10.425 Z4.999 
G1 X3.003 Y10.425 Z4.999 
G1 X3.003 Y10.428 Z4.999 
G1 X12.997 Y10.428 Z4.999 
G1 X12.997 Y10.430 Z4.999 
G1 X3.003 Y10.430 Z4.999 
G1 X3.003 Y10.433 Z4.999 
G1 X12.997 Y10.433 Z4.999 
G1 X12.997 Y10.435 Z4.999 
G1 X3.003 Y10.435 Z4.999 
G1 X3.003 Y10.438 Z4.999 
G1 X12.997 Y10.438 Z4.999 
G1 X12.997 Y10.440 Z4.999 
G1 X3.003 Y10.440 Z4.999 
G1 X3.003 Y10.443 Z4.999 
G1 X12.997 Y10.443 Z4.999 
G1 X12.997 Y10.445 Z4.999 
G1 X3.003 Y10.445 Z4.999 
G1 X3.003 Y10.448 Z4.999 
G1 X12.997 Y10.448 Z4.999 
G1 X12.997 Y10.450 Z4.999 
G1 X3.003 Y10.450 Z4.999 
G1 X3.003 Y10.453 Z4.999 
G1 X12.997 Y10.453 Z4.999 
G1 X12.997 Y10.455 Z4.999 
G1 X3.003 Y10.455 Z4.999 
G1 X3.003 Y10.458 Z4.999 
G1 X12.997 Y10.458 Z4.999 
G1 X12.997 Y10.460 Z4.999 
G1 X3.003 Y10.460 Z4.999 
G1 X3.003 Y10.463 Z4.999 
G1 X12.997 Y10.463 Z4.999 
G1 X12.997 Y10.465 Z4.999 
G1 X3.003 Y10.465 Z4.999 
G1 X3.003 Y10.468 Z4.999 
G1 X12.997 Y10.468 Z4.999 
G1 X12.997 Y10.470 Z4.999 
G1 X3.003 Y10.470 Z4.999 
G1 X3.003 Y10.473 Z4.999 
G1 X12.997 Y10.473 Z4.999 
G1 X12.997 Y10.475 Z4.999 
G1 X3.003 Y10.475 Z4.999 
G1 X3.003 Y10.478 Z4.999 
G1 X12.997 Y10.478 Z4.999 
G1 X12.997 Y10.480 Z4.999 
G1 X3.003 Y10.480 Z4.999 
G1 X3.003 Y10.483 Z4.999 
G1 X12.997 Y10.483 Z4.999 
G1 X12.997 Y10.485 Z4.999 
G1 X3.003 Y10.485 Z4.999 
G1 X3.003 Y10.488 Z4.999 
G1 X12.997 Y10.488 Z4.999 
G1 X12.997 Y10.490 Z4.999 
G1 X3.003 Y10.490 Z4.999 
G1 X3.003 Y10.493 Z4.999 
G1 X12.997 Y10.493 Z4.999 
G1 X12.997 Y10.495 Z4.999 
G1 X3.003 Y10.495 Z4.999 
G1 X3.003 Y10.498 Z4.999 
G1 X12.997 Y10.498 Z4.999 
G1 X12.997 Y10.500 Z4.999 
G1 X3.003 Y10.500 Z4.999 
G1 X3.003 Y10.503 Z4.999 
G1 X12.997 Y10.503 Z4.999 
G1 X12.997 Y10.505 Z4.999 
G1 X3.003 Y10.505 Z4.999 
G1 X3.003 Y10.508 Z4.999 
G1 X12.997 Y10.508 Z4.999 
G1 X12.997 Y10.510 Z4.999 
G1 X3.003 Y10.510 Z4.999 
G1 X3.003 Y10.513 Z4.999 
G1 X12.997 Y10.513 Z4.999 
G1 X12.997 Y10.515 Z4.999 
G1 X3.003 Y10.515 Z4.999 
G1 X3.003 Y10.518 Z4.999 
G1 X12.997 Y10.518 Z4.999 
G1 X12.997 Y10.520 Z4.999 
G1 X3.003 Y10.520 Z4.999 
G1 X3.003 Y10.523 Z4.999 
G1 X12.997 Y10.523 Z4.999 
G1 X12.997 Y10.525 Z4.999 
G1 X3.003 Y10.525 Z4.999 
G1 X3.003 Y10.528 Z4.999 
G1 X12.997 Y10.528 Z4.999 
G1 X12.997 Y10.530 Z4.999 
G1 X3.003 Y10.530 Z4.999 
G1 X3.003 Y10.533 Z4.999 
G1 X12.997 Y10.533 Z4.999 
G1 X12.997 Y10.535 Z4.999 
G1 X3.003 Y10.535 Z4.999 
G1 X3.003 Y10.538 Z4.999 
G1 X12.997 Y10.538 Z4.999 
G1 X12.997 Y10.540 Z4.999 
G1 X3.003 Y10.540 Z4.999 
G1 X3.003 Y10.543 Z4.999 
G1 X12.997 Y10.543 Z4.999 
G1 X12.997 Y10.545 Z4.999 
G1 X3.003 Y10.545 Z4.999 
G1 X3.003 Y10.548 Z4.999 
G1 X12.997 Y10.548 Z4.999 
G1 X12.997 Y10.550 Z4.999 
G1 X3.003 Y10.550 Z4.999 
G1 X3.003 Y10.553 Z4.999 
G1 X12.997 Y10.553 Z4.999 
G1 X12.997 Y10.555 Z4.999 
G1 X3.003 Y10.555 Z4.999 
G1 X3.003 Y10.558 Z4.999 
G1 X12.997 Y10.558 Z4.999 
G1 X12.997 Y10.560 Z4.999 
G1 X3.003 Y10.560 Z4.999 
G1 X3.003 Y10.563 Z4.999 
G1 X12.997 Y10.563 Z4.999 
G1 X12.997 Y10.565 Z4.999 
G1 X3.003 Y10.565 Z4.999 
G1 X3.003 Y10.568 Z4.999 
G1 X12.997 Y10.568 Z4.999 
G1 X12.997 Y10.570 Z4.999 
G1 X3.003 Y10.570 Z4.999 
G1 X3.003 Y10.573 Z4.999 
G1 X12.997 Y10.573 Z4.999 
G1 X12.997 Y10.575 Z4.999 
G1 X3.003 Y10.575 Z4.999 
G1 X3.003 Y10.578 Z4.999 
G1 X12.997 Y10.578 Z4.999 
G1 X12.997 Y10.580 Z4.999 
G1 X3.003 Y10.580 Z4.999 
G1 X3.003 Y10.583 Z4.999 
G1 X12.997 Y10.583 Z4.999 
G1 X12.997 Y10.585 Z4.999 
G1 X3.003 Y10.585 Z4.999 
G1 X3.003 Y10.588 Z4.999 
G1 X12.997 Y10.588 Z4.999 
G1 X12.997 Y10.590 Z4.999 
G1 X3.003 Y10.590 Z4.999 
G1 X3.003 Y10.593 Z4.999 
G1 X12.997 Y10.593 Z4.999 
G1 X12.997 Y10.595 Z4.999 
G1 X3.003 Y10.595 Z4.999 
G1 X3.003 Y10.598 Z4.999 
G1 X12.997 Y10.598 Z4.999 
G1 X12.997 Y10.600 Z4.999 
G1 X3.003 Y10.600 Z4.999 
G1 X3.003 Y10.603 Z4.999 
G1 X12.997 Y10.603 Z4.999 
G1 X12.997 Y10.605 Z4.999 
G1 X3.003 Y10.605 Z4.999 
G1 X3.003 Y10.608 Z4.999 
G1 X12.997 Y10.608 Z4.999 
G1 X12.997 Y10.610 Z4.999 
G1 X3.003 Y10.610 Z4.999 
G1 X3.003 Y10.613 Z4.999 
G1 X12.997 Y10.613 Z4.999 
G1 X12.997 Y10.615 Z4.999 
G1 X3.003 Y10.615 Z4.999 
G1 X3.003 Y10.618 Z4.999 
G1 X12.997 Y10.618 Z4.999 
G1 X12.997 Y10.620 Z4.999 
G1 X3.003 Y10.620 Z4.999 
G1 X3.003 Y10.623 Z4.999 
G1 X12.997 Y10.623 Z4.999 
G1 X12.997 Y10.625 Z4.999 
G1 X3.003 Y10.625 Z4.999 
G1 X3.003 Y10.628 Z4.999 
G1 X12.997 Y10.628 Z4.999 
G1 X12.997 Y10.630 Z4.999 
G1 X3.003 Y10.630 Z4.999 
G1 X3.003 Y10.633 Z4.999 
G1 X12.997 Y10.633 Z4.999 
G1 X12.997 Y10.635 Z4.999 
G1 X3.003 Y10.635 Z4.999 
G1 X3.003 Y10.638 Z4.999 
G1 X12.997 Y10.638 Z4.999 
G1 X12.997 Y10.640 Z4.999 
G1 X3.003 Y10.640 Z4.999 
G1 X3.003 Y10.643 Z4.999 
G1 X12.997 Y10.643 Z4.999 
G1 X12.997 Y10.645 Z4.999 
G1 X3.003 Y10.645 Z4.999 
G1 X3.003 Y10.648 Z4.999 
G1 X12.997 Y10.648 Z4.999 
G1 X12.997 Y10.650 Z4.999 
G1 X3.003 Y10.650 Z4.999 
G1 X3.003 Y10.653 Z4.999 
G1 X12.997 Y10.653 Z4.999 
G1 X12.997 Y10.655 Z4.999 
G1 X3.003 Y10.655 Z4.999 
G1 X3.003 Y10.658 Z4.999 
G1 X12.997 Y10.658 Z4.999 
G1 X12.997 Y10.660 Z4.999 
G1 X3.003 Y10.660 Z4.999 
G1 X3.003 Y10.663 Z4.999 
G1 X12.997 Y10.663 Z4.999 
G1 X12.997 Y10.665 Z4.999 
G1 X3.003 Y10.665 Z4.999 
G1 X3.003 Y10.668 Z4.999 
G1 X12.997 Y10.668 Z4.999 
G1 X12.997 Y10.670 Z4.999 
G1 X3.003 Y10.670 Z4.999 
G1 X3.003 Y10.673 Z4.999 
G1 X12.997 Y10.673 Z4.999 
G1 X12.997 Y10.675 Z4.999 
G1 X3.003 Y10.675 Z4.999 
G1 X3.003 Y10.678 Z4.999 
G1 X12.997 Y10.678 Z4.999 
G1 X12.997 Y10.680 Z4.999 
G1 X3.003 Y10.680 Z4.999 
G1 X3.003 Y10.683 Z4.999 
G1 X12.997 Y10.683 Z4.999 
G1 X12.997 Y10.685 Z4.999 
G1 X3.003 Y10.685 Z4.999 
G1 X3.003 Y10.688 Z4.999 
G1 X12.997 Y10.688 Z4.999 
G1 X12.997 Y10.690 Z4.999 
G1 X3.003 Y10.690 Z4.999 
G1 X3.003 Y10.693 Z4.999 
G1 X12.997 Y10.693 Z4.999 
G1 X12.997 Y10.695 Z4.999 
G1 X3.003 Y10.695 Z4.999 
G1 X3.003 Y10.698 Z4.999 
G1 X12.997 Y10.698 Z4.999 
G1 X12.997 Y10.700 Z4.999 
G1 X3.003 Y10.700 Z4.999 
G1 X3.003 Y10.703 Z4.999 
G1 X12.997 Y10.703 Z4.999 
G1 X12.997 Y10.705 Z4.999 
G1 X3.003 Y10.705 Z4.999 
G1 X3.003 Y10.708 Z4.999 
G1 X12.997 Y10.708 Z4.999 
G1 X12.997 Y10.710 Z4.999 
G1 X3.003 Y10.710 Z4.999 
G1 X3.003 Y10.713 Z4.999 
G1 X12.997 Y10.713 Z4.999 
G1 X12.997 Y10.715 Z4.999 
G1 X3.003 Y10.715 Z4.999 
G1 X3.003 Y10.718 Z4.999 
G1 X12.997 Y10.718 Z4.999 
G1 X12.997 Y10.720 Z4.999 
G1 X3.003 Y10.720 Z4.999 
G1 X3.003 Y10.723 Z4.999 
G1 X12.997 Y10.723 Z4.999 
G1 X12.997 Y10.725 Z4.999 
G1 X3.003 Y10.725 Z4.999 
G1 X3.003 Y10.728 Z4.999 
G1 X12.997 Y10.728 Z4.999 
G1 X12.997 Y10.730 Z4.999 
G1 X3.003 Y10.730 Z4.999 
G1 X3.003 Y10.733 Z4.999 
G1 X12.997 Y10.733 Z4.999 
G1 X12.997 Y10.735 Z4.999 
G1 X3.003 Y10.735 Z4.999 
G1 X3.003 Y10.738 Z4.999 
G1 X12.997 Y10.738 Z4.999 
G1 X12.997 Y10.740 Z4.999 
G1 X3.003 Y10.740 Z4.999 
G1 X3.003 Y10.743 Z4.999 
G1 X12.997 Y10.743 Z4.999 
G1 X12.997 Y10.745 Z4.999 
G1 X3.003 Y10.745 Z4.999 
G1 X3.003 Y10.748 Z4.999 
G1 X12.997 Y10.748 Z4.999 
G1 X12.997 Y10.750 Z4.999 
G1 X3.003 Y10.750 Z4.999 
G1 X3.003 Y10.753 Z4.999 
G1 X12.997 Y10.753 Z4.999 
G1 X12.997 Y10.755 Z4.999 
G1 X3.003 Y10.755 Z4.999 
G1 X3.003 Y10.758 Z4.999 
G1 X12.997 Y10.758 Z4.999 
G1 X12.997 Y10.760 Z4.999 
G1 X3.003 Y10.760 Z4.999 
G1 X3.003 Y10.763 Z4.999 
G1 X12.997 Y10.763 Z4.999 
G1 X12.997 Y10.765 Z4.999 
G1 X3.003 Y10.765 Z4.999 
G1 X3.003 Y10.768 Z4.999 
G1 X12.997 Y10.768 Z4.999 
G1 X12.997 Y10.770 Z4.999 
G1 X3.003 Y10.770 Z4.999 
G1 X3.003 Y10.773 Z4.999 
G1 X12.997 Y10.773 Z4.999 
G1 X12.997 Y10.775 Z4.999 
G1 X3.003 Y10.775 Z4.999 
G1 X3.003 Y10.778 Z4.999 
G1 X12.997 Y10.778 Z4.999 
G1 X12.997 Y10.780 Z4.999 
G1 X3.003 Y10.780 Z4.999 
G1 X3.003 Y10.783 Z4.999 
G1 X12.997 Y10.783 Z4.999 
G1 X12.997 Y10.785 Z4.999 
G1 X3.003 Y10.785 Z4.999 
G1 X3.003 Y10.788 Z4.999 
G1 X12.997 Y10.788 Z4.999 
G1 X12.997 Y10.790 Z4.999 
G1 X3.003 Y10.790 Z4.999 
G1 X3.003 Y10.793 Z4.999 
G1 X12.997 Y10.793 Z4.999 
G1 X12.997 Y10.795 Z4.999 
G1 X3.003 Y10.795 Z4.999 
G1 X3.003 Y10.798 Z4.999 
G1 X12.997 Y10.798 Z4.999 
G1 X12.997 Y10.800 Z4.999 
G1 X3.003 Y10.800 Z4.999 
G1 X3.003 Y10.803 Z4.999 
G1 X12.997 Y10.803 Z4.999 
G1 X12.997 Y10.805 Z4.999 
G1 X3.003 Y10.805 Z4.999 
G1 X3.003 Y10.808 Z4.999 
G1 X12.997 Y10.808 Z4.999 
G1 X12.997 Y10.810 Z4.999 
G1 X3.003 Y10.810 Z4.999 
G1 X3.003 Y10.813 Z4.999 
G1 X12.997 Y10.813 Z4.999 
G1 X12.997 Y10.815 Z4.999 
G1 X3.003 Y10.815 Z4.999 
G1 X3.003 Y10.818 Z4.999 
G1 X12.997 Y10.818 Z4.999 
G1 X12.997 Y10.820 Z4.999 
G1 X3.003 Y10.820 Z4.999 
G1 X3.003 Y10.823 Z4.999 
G1 X12.997 Y10.823 Z4.999 
G1 X12.997 Y10.825 Z4.999 
G1 X3.003 Y10.825 Z4.999 
G1 X3.003 Y10.828 Z4.999 
G1 X12.997 Y10.828 Z4.999 
G1 X12.997 Y10.830 Z4.999 
G1 X3.003 Y10.830 Z4.999 
G1 X3.003 Y10.833 Z4.999 
G1 X12.997 Y10.833 Z4.999 
G1 X12.997 Y10.835 Z4.999 
G1 X3.003 Y10.835 Z4.999 
G1 X3.003 Y10.838 Z4.999 
G1 X12.997 Y10.838 Z4.999 
G1 X12.997 Y10.840 Z4.999 
G1 X3.003 Y10.840 Z4.999 
G1 X3.003 Y10.843 Z4.999 
G1 X12.997 Y10.843 Z4.999 
G1 X12.997 Y10.845 Z4.999 
G1 X3.003 Y10.845 Z4.999 
G1 X3.003 Y10.848 Z4.999 
G1 X12.997 Y10.848 Z4.999 
G1 X12.997 Y10.850 Z4.999 
G1 X3.003 Y10.850 Z4.999 
G1 X3.003 Y10.853 Z4.999 
G1 X12.997 Y10.853 Z4.999 
G1 X12.997 Y10.855 Z4.999 
G1 X3.003 Y10.855 Z4.999 
G1 X3.003 Y10.858 Z4.999 
G1 X12.997 Y10.858 Z4.999 
G1 X12.997 Y10.860 Z4.999 
G1 X3.003 Y10.860 Z4.999 
G1 X3.003 Y10.863 Z4.999 
G1 X12.997 Y10.863 Z4.999 
G1 X12.997 Y10.865 Z4.999 
G1 X3.003 Y10.865 Z4.999 
G1 X3.003 Y10.868 Z4.999 
G1 X12.997 Y10.868 Z4.999 
G1 X12.997 Y10.870 Z4.999 
G1 X3.003 Y10.870 Z4.999 
G1 X3.003 Y10.873 Z4.999 
G1 X12.997 Y10.873 Z4.999 
G1 X12.997 Y10.875 Z4.999 
G1 X3.003 Y10.875 Z4.999 
G1 X3.003 Y10.878 Z4.999 
G1 X12.997 Y10.878 Z4.999 
G1 X12.997 Y10.880 Z4.999 
G1 X3.003 Y10.880 Z4.999 
G1 X3.003 Y10.883 Z4.999 
G1 X12.997 Y10.883 Z4.999 
G1 X12.997 Y10.885 Z4.999 
G1 X3.003 Y10.885 Z4.999 
G1 X3.003 Y10.888 Z4.999 
G1 X12.997 Y10.888 Z4.999 
G1 X12.997 Y10.890 Z4.999 
G1 X3.003 Y10.890 Z4.999 
G1 X3.003 Y10.893 Z4.999 
G1 X12.997 Y10.893 Z4.999 
G1 X12.997 Y10.895 Z4.999 
G1 X3.003 Y10.895 Z4.999 
G1 X3.003 Y10.898 Z4.999 
G1 X12.997 Y10.898 Z4.999 
G1 X12.997 Y10.900 Z4.999 
G1 X3.003 Y10.900 Z4.999 
G1 X3.003 Y10.903 Z4.999 
G1 X12.997 Y10.903 Z4.999 
G1 X12.997 Y10.905 Z4.999 
G1 X3.003 Y10.905 Z4.999 
G1 X3.003 Y10.908 Z4.999 
G1 X12.997 Y10.908 Z4.999 
G1 X12.997 Y10.910 Z4.999 
G1 X3.003 Y10.910 Z4.999 
G1 X3.003 Y10.913 Z4.999 
G1 X12.997 Y10.913 Z4.999 
G1 X12.997 Y10.915 Z4.999 
G1 X3.003 Y10.915 Z4.999 
G1 X3.003 Y10.918 Z4.999 
G1 X12.997 Y10.918 Z4.999 
G1 X12.997 Y10.920 Z4.999 
G1 X3.003 Y10.920 Z4.999 
G1 X3.003 Y10.923 Z4.999 
G1 X12.997 Y10.923 Z4.999 
G1 X12.997 Y10.925 Z4.999 
G1 X3.003 Y10.925 Z4.999 
G1 X3.003 Y10.928 Z4.999 
G1 X12.997 Y10.928 Z4.999 
G1 X12.997 Y10.930 Z4.999 
G1 X3.003 Y10.930 Z4.999 
G1 X3.003 Y10.933 Z4.999 
G1 X12.997 Y10.933 Z4.999 
G1 X12.997 Y10.935 Z4.999 
G1 X3.003 Y10.935 Z4.999 
G1 X3.003 Y10.938 Z4.999 
G1 X12.997 Y10.938 Z4.999 
G1 X12.997 Y10.940 Z4.999 
G1 X3.003 Y10.940 Z4.999 
G1 X3.003 Y10.943 Z4.999 
G1 X12.997 Y10.943 Z4.999 
G1 X12.997 Y10.945 Z4.999 
G1 X3.003 Y10.945 Z4.999 
G1 X3.003 Y10.948 Z4.999 
G1 X12.997 Y10.948 Z4.999 
G1 X12.997 Y10.950 Z4.999 
G1 X3.003 Y10.950 Z4.999 
G1 X3.003 Y10.953 Z4.999 
G1 X12.997 Y10.953 Z4.999 
G1 X12.997 Y10.955 Z4.999 
G1 X3.003 Y10.955 Z4.999 
G1 X3.003 Y10.958 Z4.999 
G1 X12.997 Y10.958 Z4.999 
G1 X12.997 Y10.960 Z4.999 
G1 X3.003 Y10.960 Z4.999 
G1 X3.003 Y10.963 Z4.999 
G1 X12.997 Y10.963 Z4.999 
G1 X12.997 Y10.965 Z4.999 
G1 X3.003 Y10.965 Z4.999 
G1 X3.003 Y10.968 Z4.999 
G1 X12.997 Y10.968 Z4.999 
G1 X12.997 Y10.970 Z4.999 
G1 X3.003 Y10.970 Z4.999 
G1 X3.003 Y10.973 Z4.999 
G1 X12.997 Y10.973 Z4.999 
G1 X12.997 Y10.975 Z4.999 
G1 X3.003 Y10.975 Z4.999 
G1 X3.003 Y10.978 Z4.999 
G1 X12.997 Y10.978 Z4.999 
G1 X12.997 Y10.980 Z4.999 
G1 X3.003 Y10.980 Z4.999 
G1 X3.003 Y10.983 Z4.999 
G1 X12.997 Y10.983 Z4.999 
G1 X12.997 Y10.985 Z4.999 
G1 X3.003 Y10.985 Z4.999 
G1 X3.003 Y10.988 Z4.999 
G1 X12.997 Y10.988 Z4.999 
G1 X12.997 Y10.990 Z4.999 
G1 X3.003 Y10.990 Z4.999 
G1 X3.003 Y10.993 Z4.999 
G1 X12.997 Y10.993 Z4.999 
G1 X12.997 Y10.995 Z4.999 
G1 X3.003 Y10.995 Z4.999 
G1 X3.003 Y10.998 Z4.999 
G1 X12.997 Y10.998 Z4.999 
G1 X12.997 Y11.000 Z4.999 
G1 X3.003 Y11.000 Z4.999 
G1 X3.003 Y11.003 Z4.999 
G1 X12.997 Y11.003 Z4.999 
G1 X12.997 Y11.005 Z4.999 
G1 X3.003 Y11.005 Z4.999 
G1 X3.003 Y11.008 Z4.999 
G1 X12.997 Y11.008 Z4.999 
G1 X12.997 Y11.010 Z4.999 
G1 X3.003 Y11.010 Z4.999 
G1 X3.003 Y11.013 Z4.999 
G1 X12.997 Y11.013 Z4.999 
G1 X12.997 Y11.015 Z4.999 
G1 X3.003 Y11.015 Z4.999 
G1 X3.003 Y11.018 Z4.999 
G1 X12.997 Y11.018 Z4.999 
G1 X12.997 Y11.020 Z4.999 
G1 X3.003 Y11.020 Z4.999 
G1 X3.003 Y11.023 Z4.999 
G1 X12.997 Y11.023 Z4.999 
G1 X12.997 Y11.025 Z4.999 
G1 X3.003 Y11.025 Z4.999 
G1 X3.003 Y11.028 Z4.999 
G1 X12.997 Y11.028 Z4.999 
G1 X12.997 Y11.030 Z4.999 
G1 X3.003 Y11.030 Z4.999 
G1 X3.003 Y11.033 Z4.999 
G1 X12.997 Y11.033 Z4.999 
G1 X12.997 Y11.035 Z4.999 
G1 X3.003 Y11.035 Z4.999 
G1 X3.003 Y11.038 Z4.999 
G1 X12.997 Y11.038 Z4.999 
G1 X12.997 Y11.040 Z4.999 
G1 X3.003 Y11.040 Z4.999 
G1 X3.003 Y11.043 Z4.999 
G1 X12.997 Y11.043 Z4.999 
G1 X12.997 Y11.045 Z4.999 
G1 X3.003 Y11.045 Z4.999 
G1 X3.003 Y11.048 Z4.999 
G1 X12.997 Y11.048 Z4.999 
G1 X12.997 Y11.050 Z4.999 
G1 X3.003 Y11.050 Z4.999 
G1 X3.003 Y11.053 Z4.999 
G1 X12.997 Y11.053 Z4.999 
G1 X12.997 Y11.055 Z4.999 
G1 X3.003 Y11.055 Z4.999 
G1 X3.003 Y11.058 Z4.999 
G1 X12.997 Y11.058 Z4.999 
G1 X12.997 Y11.060 Z4.999 
G1 X3.003 Y11.060 Z4.999 
G1 X3.003 Y11.063 Z4.999 
G1 X12.997 Y11.063 Z4.999 
G1 X12.997 Y11.065 Z4.999 
G1 X3.003 Y11.065 Z4.999 
G1 X3.003 Y11.068 Z4.999 
G1 X12.997 Y11.068 Z4.999 
G1 X12.997 Y11.070 Z4.999 
G1 X3.003 Y11.070 Z4.999 
G1 X3.003 Y11.073 Z4.999 
G1 X12.997 Y11.073 Z4.999 
G1 X12.997 Y11.075 Z4.999 
G1 X3.003 Y11.075 Z4.999 
G1 X3.003 Y11.078 Z4.999 
G1 X12.997 Y11.078 Z4.999 
G1 X12.997 Y11.080 Z4.999 
G1 X3.003 Y11.080 Z4.999 
G1 X3.003 Y11.083 Z4.999 
G1 X12.997 Y11.083 Z4.999 
G1 X12.997 Y11.085 Z4.999 
G1 X3.003 Y11.085 Z4.999 
G1 X3.003 Y11.088 Z4.999 
G1 X12.997 Y11.088 Z4.999 
G1 X12.997 Y11.090 Z4.999 
G1 X3.003 Y11.090 Z4.999 
G1 X3.003 Y11.093 Z4.999 
G1 X12.997 Y11.093 Z4.999 
G1 X12.997 Y11.095 Z4.999 
G1 X3.003 Y11.095 Z4.999 
G1 X3.003 Y11.098 Z4.999 
G1 X12.997 Y11.098 Z4.999 
G1 X12.997 Y11.100 Z4.999 
G1 X3.003 Y11.100 Z4.999 
G1 X3.003 Y11.103 Z4.999 
G1 X12.997 Y11.103 Z4.999 
G1 X12.997 Y11.105 Z4.999 
G1 X3.003 Y11.105 Z4.999 
G1 X3.003 Y11.108 Z4.999 
G1 X12.997 Y11.108 Z4.999 
G1 X12.997 Y11.110 Z4.999 
G1 X3.003 Y11.110 Z4.999 
G1 X3.003 Y11.113 Z4.999 
G1 X12.997 Y11.113 Z4.999 
G1 X12.997 Y11.115 Z4.999 
G1 X3.003 Y11.115 Z4.999 
G1 X3.003 Y11.118 Z4.999 
G1 X12.997 Y11.118 Z4.999 
G1 X12.997 Y11.120 Z4.999 
G1 X3.003 Y11.120 Z4.999 
G1 X3.003 Y11.123 Z4.999 
G1 X12.997 Y11.123 Z4.999 
G1 X12.997 Y11.125 Z4.999 
G1 X3.003 Y11.125 Z4.999 
G1 X3.003 Y11.128 Z4.999 
G1 X12.997 Y11.128 Z4.999 
G1 X12.997 Y11.130 Z4.999 
G1 X3.003 Y11.130 Z4.999 
G1 X3.003 Y11.133 Z4.999 
G1 X12.997 Y11.133 Z4.999 
G1 X12.997 Y11.135 Z4.999 
G1 X3.003 Y11.135 Z4.999 
G1 X3.003 Y11.138 Z4.999 
G1 X12.997 Y11.138 Z4.999 
G1 X12.997 Y11.140 Z4.999 
G1 X3.003 Y11.140 Z4.999 
G1 X3.003 Y11.143 Z4.999 
G1 X12.997 Y11.143 Z4.999 
G1 X12.997 Y11.145 Z4.999 
G1 X3.003 Y11.145 Z4.999 
G1 X3.003 Y11.148 Z4.999 
G1 X12.997 Y11.148 Z4.999 
G1 X12.997 Y11.150 Z4.999 
G1 X3.003 Y11.150 Z4.999 
G1 X3.003 Y11.153 Z4.999 
G1 X12.997 Y11.153 Z4.999 
G1 X12.997 Y11.155 Z4.999 
G1 X3.003 Y11.155 Z4.999 
G1 X3.003 Y11.158 Z4.999 
G1 X12.997 Y11.158 Z4.999 
G1 X12.997 Y11.160 Z4.999 
G1 X3.003 Y11.160 Z4.999 
G1 X3.003 Y11.163 Z4.999 
G1 X12.997 Y11.163 Z4.999 
G1 X12.997 Y11.165 Z4.999 
G1 X3.003 Y11.165 Z4.999 
G1 X3.003 Y11.168 Z4.999 
G1 X12.997 Y11.168 Z4.999 
G1 X12.997 Y11.170 Z4.999 
G1 X3.003 Y11.170 Z4.999 
G1 X3.003 Y11.173 Z4.999 
G1 X12.997 Y11.173 Z4.999 
G1 X12.997 Y11.175 Z4.999 
G1 X3.003 Y11.175 Z4.999 
G1 X3.003 Y11.178 Z4.999 
G1 X12.997 Y11.178 Z4.999 
G1 X12.997 Y11.180 Z4.999 
G1 X3.003 Y11.180 Z4.999 
G1 X3.003 Y11.183 Z4.999 
G1 X12.997 Y11.183 Z4.999 
G1 X12.997 Y11.185 Z4.999 
G1 X3.003 Y11.185 Z4.999 
G1 X3.003 Y11.188 Z4.999 
G1 X12.997 Y11.188 Z4.999 
G1 X12.997 Y11.190 Z4.999 
G1 X3.003 Y11.190 Z4.999 
G1 X3.003 Y11.193 Z4.999 
G1 X12.997 Y11.193 Z4.999 
G1 X12.997 Y11.195 Z4.999 
G1 X3.003 Y11.195 Z4.999 
G1 X3.003 Y11.198 Z4.999 
G1 X12.997 Y11.198 Z4.999 
G1 X12.997 Y11.200 Z4.999 
G1 X3.003 Y11.200 Z4.999 
G1 X3.003 Y11.203 Z4.999 
G1 X12.997 Y11.203 Z4.999 
G1 X12.997 Y11.205 Z4.999 
G1 X3.003 Y11.205 Z4.999 
G1 X3.003 Y11.208 Z4.999 
G1 X12.997 Y11.208 Z4.999 
G1 X12.997 Y11.210 Z4.999 
G1 X3.003 Y11.210 Z4.999 
G1 X3.003 Y11.213 Z4.999 
G1 X12.997 Y11.213 Z4.999 
G1 X12.997 Y11.215 Z4.999 
G1 X3.003 Y11.215 Z4.999 
G1 X3.003 Y11.218 Z4.999 
G1 X12.997 Y11.218 Z4.999 
G1 X12.997 Y11.220 Z4.999 
G1 X3.003 Y11.220 Z4.999 
G1 X3.003 Y11.223 Z4.999 
G1 X12.997 Y11.223 Z4.999 
G1 X12.997 Y11.225 Z4.999 
G1 X3.003 Y11.225 Z4.999 
G1 X3.003 Y11.228 Z4.999 
G1 X12.997 Y11.228 Z4.999 
G1 X12.997 Y11.230 Z4.999 
G1 X3.003 Y11.230 Z4.999 
G1 X3.003 Y11.233 Z4.999 
G1 X12.997 Y11.233 Z4.999 
G1 X12.997 Y11.235 Z4.999 
G1 X3.003 Y11.235 Z4.999 
G1 X3.003 Y11.238 Z4.999 
G1 X12.997 Y11.238 Z4.999 
G1 X12.997 Y11.240 Z4.999 
G1 X3.003 Y11.240 Z4.999 
G1 X3.003 Y11.243 Z4.999 
G1 X12.997 Y11.243 Z4.999 
G1 X12.997 Y11.245 Z4.999 
G1 X3.003 Y11.245 Z4.999 
G1 X3.003 Y11.248 Z4.999 
G1 X12.997 Y11.248 Z4.999 
G1 X12.997 Y11.250 Z4.999 
G1 X3.003 Y11.250 Z4.999 
G1 X3.003 Y11.253 Z4.999 
G1 X12.997 Y11.253 Z4.999 
G1 X12.997 Y11.255 Z4.999 
G1 X3.003 Y11.255 Z4.999 
G1 X3.003 Y11.258 Z4.999 
G1 X12.997 Y11.258 Z4.999 
G1 X12.997 Y11.260 Z4.999 
G1 X3.003 Y11.260 Z4.999 
G1 X3.003 Y11.263 Z4.999 
G1 X12.997 Y11.263 Z4.999 
G1 X12.997 Y11.265 Z4.999 
G1 X3.003 Y11.265 Z4.999 
G1 X3.003 Y11.268 Z4.999 
G1 X12.997 Y11.268 Z4.999 
G1 X12.997 Y11.270 Z4.999 
G1 X3.003 Y11.270 Z4.999 
G1 X3.003 Y11.273 Z4.999 
G1 X12.997 Y11.273 Z4.999 
G1 X12.997 Y11.275 Z4.999 
G1 X3.003 Y11.275 Z4.999 
G1 X3.003 Y11.278 Z4.999 
G1 X12.997 Y11.278 Z4.999 
G1 X12.997 Y11.280 Z4.999 
G1 X3.003 Y11.280 Z4.999 
G1 X3.003 Y11.283 Z4.999 
G1 X12.997 Y11.283 Z4.999 
G1 X12.997 Y11.285 Z4.999 
G1 X3.003 Y11.285 Z4.999 
G1 X3.003 Y11.288 Z4.999 
G1 X12.997 Y11.288 Z4.999 
G1 X12.997 Y11.290 Z4.999 
G1 X3.003 Y11.290 Z4.999 
G1 X3.003 Y11.293 Z4.999 
G1 X12.997 Y11.293 Z4.999 
G1 X12.997 Y11.295 Z4.999 
G1 X3.003 Y11.295 Z4.999 
G1 X3.003 Y11.298 Z4.999 
G1 X12.997 Y11.298 Z4.999 
G1 X12.997 Y11.300 Z4.999 
G1 X3.003 Y11.300 Z4.999 
G1 X3.003 Y11.303 Z4.999 
G1 X12.997 Y11.303 Z4.999 
G1 X12.997 Y11.305 Z4.999 
G1 X3.003 Y11.305 Z4.999 
G1 X3.003 Y11.308 Z4.999 
G1 X12.997 Y11.308 Z4.999 
G1 X12.997 Y11.310 Z4.999 
G1 X3.003 Y11.310 Z4.999 
G1 X3.003 Y11.313 Z4.999 
G1 X12.997 Y11.313 Z4.999 
G1 X12.997 Y11.315 Z4.999 
G1 X3.003 Y11.315 Z4.999 
G1 X3.003 Y11.318 Z4.999 
G1 X12.997 Y11.318 Z4.999 
G1 X12.997 Y11.320 Z4.999 
G1 X3.003 Y11.320 Z4.999 
G1 X3.003 Y11.323 Z4.999 
G1 X12.997 Y11.323 Z4.999 
G1 X12.997 Y11.325 Z4.999 
G1 X3.003 Y11.325 Z4.999 
G1 X3.003 Y11.328 Z4.999 
G1 X12.997 Y11.328 Z4.999 
G1 X12.997 Y11.330 Z4.999 
G1 X3.003 Y11.330 Z4.999 
G1 X3.003 Y11.333 Z4.999 
G1 X12.997 Y11.333 Z4.999 
G1 X12.997 Y11.335 Z4.999 
G1 X3.003 Y11.335 Z4.999 
G1 X3.003 Y11.338 Z4.999 
G1 X12.997 Y11.338 Z4.999 
G1 X12.997 Y11.340 Z4.999 
G1 X3.003 Y11.340 Z4.999 
G1 X3.003 Y11.343 Z4.999 
G1 X12.997 Y11.343 Z4.999 
G1 X12.997 Y11.345 Z4.999 
G1 X3.003 Y11.345 Z4.999 
G1 X3.003 Y11.348 Z4.999 
G1 X12.997 Y11.348 Z4.999 
G1 X12.997 Y11.350 Z4.999 
G1 X3.003 Y11.350 Z4.999 
G1 X3.003 Y11.353 Z4.999 
G1 X12.997 Y11.353 Z4.999 
G1 X12.997 Y11.355 Z4.999 
G1 X3.003 Y11.355 Z4.999 
G1 X3.003 Y11.358 Z4.999 
G1 X12.997 Y11.358 Z4.999 
G1 X12.997 Y11.360 Z4.999 
G1 X3.003 Y11.360 Z4.999 
G1 X3.003 Y11.363 Z4.999 
G1 X12.997 Y11.363 Z4.999 
G1 X12.997 Y11.365 Z4.999 
G1 X3.003 Y11.365 Z4.999 
G1 X3.003 Y11.368 Z4.999 
G1 X12.997 Y11.368 Z4.999 
G1 X12.997 Y11.370 Z4.999 
G1 X3.003 Y11.370 Z4.999 
G1 X3.003 Y11.373 Z4.999 
G1 X12.997 Y11.373 Z4.999 
G1 X12.997 Y11.375 Z4.999 
G1 X3.003 Y11.375 Z4.999 
G1 X3.003 Y11.378 Z4.999 
G1 X12.997 Y11.378 Z4.999 
G1 X12.997 Y11.380 Z4.999 
G1 X3.003 Y11.380 Z4.999 
G1 X3.003 Y11.383 Z4.999 
G1 X12.997 Y11.383 Z4.999 
G1 X12.997 Y11.385 Z4.999 
G1 X3.003 Y11.385 Z4.999 
G1 X3.003 Y11.388 Z4.999 
G1 X12.997 Y11.388 Z4.999 
G1 X12.997 Y11.390 Z4.999 
G1 X3.003 Y11.390 Z4.999 
G1 X3.003 Y11.393 Z4.999 
G1 X12.997 Y11.393 Z4.999 
G1 X12.997 Y11.395 Z4.999 
G1 X3.003 Y11.395 Z4.999 
G1 X3.003 Y11.398 Z4.999 
G1 X12.997 Y11.398 Z4.999 
G1 X12.997 Y11.400 Z4.999 
G1 X3.003 Y11.400 Z4.999 
G1 X3.003 Y11.403 Z4.999 
G1 X12.997 Y11.403 Z4.999 
G1 X12.997 Y11.405 Z4.999 
G1 X3.003 Y11.405 Z4.999 
G1 X3.003 Y11.408 Z4.999 
G1 X12.997 Y11.408 Z4.999 
G1 X12.997 Y11.410 Z4.999 
G1 X3.003 Y11.410 Z4.999 
G1 X3.003 Y11.413 Z4.999 
G1 X12.997 Y11.413 Z4.999 
G1 X12.997 Y11.415 Z4.999 
G1 X3.003 Y11.415 Z4.999 
G1 X3.003 Y11.418 Z4.999 
G1 X12.997 Y11.418 Z4.999 
G1 X12.997 Y11.420 Z4.999 
G1 X3.003 Y11.420 Z4.999 
G1 X3.003 Y11.423 Z4.999 
G1 X12.997 Y11.423 Z4.999 
G1 X12.997 Y11.425 Z4.999 
G1 X3.003 Y11.425 Z4.999 
G1 X3.003 Y11.428 Z4.999 
G1 X12.997 Y11.428 Z4.999 
G1 X12.997 Y11.430 Z4.999 
G1 X3.003 Y11.430 Z4.999 
G1 X3.003 Y11.433 Z4.999 
G1 X12.997 Y11.433 Z4.999 
G1 X12.997 Y11.435 Z4.999 
G1 X3.003 Y11.435 Z4.999 
G1 X3.003 Y11.438 Z4.999 
G1 X12.997 Y11.438 Z4.999 
G1 X12.997 Y11.440 Z4.999 
G1 X3.003 Y11.440 Z4.999 
G1 X3.003 Y11.443 Z4.999 
G1 X12.997 Y11.443 Z4.999 
G1 X12.997 Y11.445 Z4.999 
G1 X3.003 Y11.445 Z4.999 
G1 X3.003 Y11.448 Z4.999 
G1 X12.997 Y11.448 Z4.999 
G1 X12.997 Y11.450 Z4.999 
G1 X3.003 Y11.450 Z4.999 
G1 X3.003 Y11.453 Z4.999 
G1 X12.997 Y11.453 Z4.999 
G1 X12.997 Y11.455 Z4.999 
G1 X3.003 Y11.455 Z4.999 
G1 X3.003 Y11.458 Z4.999 
G1 X12.997 Y11.458 Z4.999 
G1 X12.997 Y11.460 Z4.999 
G1 X3.003 Y11.460 Z4.999 
G1 X3.003 Y11.463 Z4.999 
G1 X12.997 Y11.463 Z4.999 
G1 X12.997 Y11.465 Z4.999 
G1 X3.003 Y11.465 Z4.999 
G1 X3.003 Y11.468 Z4.999 
G1 X12.997 Y11.468 Z4.999 
G1 X12.997 Y11.470 Z4.999 
G1 X3.003 Y11.470 Z4.999 
G1 X3.003 Y11.473 Z4.999 
G1 X12.997 Y11.473 Z4.999 
G1 X12.997 Y11.475 Z4.999 
G1 X3.003 Y11.475 Z4.999 
G1 X3.003 Y11.478 Z4.999 
G1 X12.997 Y11.478 Z4.999 
G1 X12.997 Y11.480 Z4.999 
G1 X3.003 Y11.480 Z4.999 
G1 X3.003 Y11.483 Z4.999 
G1 X12.997 Y11.483 Z4.999 
G1 X12.997 Y11.485 Z4.999 
G1 X3.003 Y11.485 Z4.999 
G1 X3.003 Y11.488 Z4.999 
G1 X12.997 Y11.488 Z4.999 
G1 X12.997 Y11.490 Z4.999 
G1 X3.003 Y11.490 Z4.999 
G1 X3.003 Y11.493 Z4.999 
G1 X12.997 Y11.493 Z4.999 
G1 X12.997 Y11.495 Z4.999 
G1 X3.003 Y11.495 Z4.999 
G1 X3.003 Y11.498 Z4.999 
G1 X12.997 Y11.498 Z4.999 
G1 X12.997 Y11.500 Z4.999 
G1 X3.003 Y11.500 Z4.999 
G1 X3.003 Y11.503 Z4.999 
G1 X12.997 Y11.503 Z4.999 
G1 X12.997 Y11.505 Z4.999 
G1 X3.003 Y11.505 Z4.999 
G1 X3.003 Y11.508 Z4.999 
G1 X12.997 Y11.508 Z4.999 
G1 X12.997 Y11.510 Z4.999 
G1 X3.003 Y11.510 Z4.999 
G1 X3.003 Y11.513 Z4.999 
G1 X12.997 Y11.513 Z4.999 
G1 X12.997 Y11.515 Z4.999 
G1 X3.003 Y11.515 Z4.999 
G1 X3.003 Y11.518 Z4.999 
G1 X12.997 Y11.518 Z4.999 
G1 X12.997 Y11.520 Z4.999 
G1 X3.003 Y11.520 Z4.999 
G1 X3.003 Y11.523 Z4.999 
G1 X12.997 Y11.523 Z4.999 
G1 X12.997 Y11.525 Z4.999 
G1 X3.003 Y11.525 Z4.999 
G1 X3.003 Y11.528 Z4.999 
G1 X12.997 Y11.528 Z4.999 
G1 X12.997 Y11.530 Z4.999 
G1 X3.003 Y11.530 Z4.999 
G1 X3.003 Y11.533 Z4.999 
G1 X12.997 Y11.533 Z4.999 
G1 X12.997 Y11.535 Z4.999 
G1 X3.003 Y11.535 Z4.999 
G1 X3.003 Y11.538 Z4.999 
G1 X12.997 Y11.538 Z4.999 
G1 X12.997 Y11.540 Z4.999 
G1 X3.003 Y11.540 Z4.999 
G1 X3.003 Y11.543 Z4.999 
G1 X12.997 Y11.543 Z4.999 
G1 X12.997 Y11.545 Z4.999 
G1 X3.003 Y11.545 Z4.999 
G1 X3.003 Y11.548 Z4.999 
G1 X12.997 Y11.548 Z4.999 
G1 X12.997 Y11.550 Z4.999 
G1 X3.003 Y11.550 Z4.999 
G1 X3.003 Y11.553 Z4.999 
G1 X12.997 Y11.553 Z4.999 
G1 X12.997 Y11.555 Z4.999 
G1 X3.003 Y11.555 Z4.999 
G1 X3.003 Y11.558 Z4.999 
G1 X12.997 Y11.558 Z4.999 
G1 X12.997 Y11.560 Z4.999 
G1 X3.003 Y11.560 Z4.999 
G1 X3.003 Y11.563 Z4.999 
G1 X12.997 Y11.563 Z4.999 
G1 X12.997 Y11.565 Z4.999 
G1 X3.003 Y11.565 Z4.999 
G1 X3.003 Y11.568 Z4.999 
G1 X12.997 Y11.568 Z4.999 
G1 X12.997 Y11.570 Z4.999 
G1 X3.003 Y11.570 Z4.999 
G1 X3.003 Y11.573 Z4.999 
G1 X12.997 Y11.573 Z4.999 
G1 X12.997 Y11.575 Z4.999 
G1 X3.003 Y11.575 Z4.999 
G1 X3.003 Y11.578 Z4.999 
G1 X12.997 Y11.578 Z4.999 
G1 X12.997 Y11.580 Z4.999 
G1 X3.003 Y11.580 Z4.999 
G1 X3.003 Y11.583 Z4.999 
G1 X12.997 Y11.583 Z4.999 
G1 X12.997 Y11.585 Z4.999 
G1 X3.003 Y11.585 Z4.999 
G1 X3.003 Y11.588 Z4.999 
G1 X12.997 Y11.588 Z4.999 
G1 X12.997 Y11.590 Z4.999 
G1 X3.003 Y11.590 Z4.999 
G1 X3.003 Y11.593 Z4.999 
G1 X12.997 Y11.593 Z4.999 
G1 X12.997 Y11.595 Z4.999 
G1 X3.003 Y11.595 Z4.999 
G1 X3.003 Y11.598 Z4.999 
G1 X12.997 Y11.598 Z4.999 
G1 X12.997 Y11.600 Z4.999 
G1 X3.003 Y11.600 Z4.999 
G1 X3.003 Y11.603 Z4.999 
G1 X12.997 Y11.603 Z4.999 
G1 X12.997 Y11.605 Z4.999 
G1 X3.003 Y11.605 Z4.999 
G1 X3.003 Y11.608 Z4.999 
G1 X12.997 Y11.608 Z4.999 
G1 X12.997 Y11.610 Z4.999 
G1 X3.003 Y11.610 Z4.999 
G1 X3.003 Y11.613 Z4.999 
G1 X12.997 Y11.613 Z4.999 
G1 X12.997 Y11.615 Z4.999 
G1 X3.003 Y11.615 Z4.999 
G1 X3.003 Y11.618 Z4.999 
G1 X12.997 Y11.618 Z4.999 
G1 X12.997 Y11.620 Z4.999 
G1 X3.003 Y11.620 Z4.999 
G1 X3.003 Y11.623 Z4.999 
G1 X12.997 Y11.623 Z4.999 
G1 X12.997 Y11.625 Z4.999 
G1 X3.003 Y11.625 Z4.999 
G1 X3.003 Y11.628 Z4.999 
G1 X12.997 Y11.628 Z4.999 
G1 X12.997 Y11.630 Z4.999 
G1 X3.003 Y11.630 Z4.999 
G1 X3.003 Y11.633 Z4.999 
G1 X12.997 Y11.633 Z4.999 
G1 X12.997 Y11.635 Z4.999 
G1 X3.003 Y11.635 Z4.999 
G1 X3.003 Y11.638 Z4.999 
G1 X12.997 Y11.638 Z4.999 
G1 X12.997 Y11.640 Z4.999 
G1 X3.003 Y11.640 Z4.999 
G1 X3.003 Y11.643 Z4.999 
G1 X12.997 Y11.643 Z4.999 
G1 X12.997 Y11.645 Z4.999 
G1 X3.003 Y11.645 Z4.999 
G1 X3.003 Y11.648 Z4.999 
G1 X12.997 Y11.648 Z4.999 
G1 X12.997 Y11.650 Z4.999 
G1 X3.003 Y11.650 Z4.999 
G1 X3.003 Y11.653 Z4.999 
G1 X12.997 Y11.653 Z4.999 
G1 X12.997 Y11.655 Z4.999 
G1 X3.003 Y11.655 Z4.999 
G1 X3.003 Y11.658 Z4.999 
G1 X12.997 Y11.658 Z4.999 
G1 X12.997 Y11.660 Z4.999 
G1 X3.003 Y11.660 Z4.999 
G1 X3.003 Y11.663 Z4.999 
G1 X12.997 Y11.663 Z4.999 
G1 X12.997 Y11.665 Z4.999 
G1 X3.003 Y11.665 Z4.999 
G1 X3.003 Y11.668 Z4.999 
G1 X12.997 Y11.668 Z4.999 
G1 X12.997 Y11.670 Z4.999 
G1 X3.003 Y11.670 Z4.999 
G1 X3.003 Y11.673 Z4.999 
G1 X12.997 Y11.673 Z4.999 
G1 X12.997 Y11.675 Z4.999 
G1 X3.003 Y11.675 Z4.999 
G1 X3.003 Y11.678 Z4.999 
G1 X12.997 Y11.678 Z4.999 
G1 X12.997 Y11.680 Z4.999 
G1 X3.003 Y11.680 Z4.999 
G1 X3.003 Y11.683 Z4.999 
G1 X12.997 Y11.683 Z4.999 
G1 X12.997 Y11.685 Z4.999 
G1 X3.003 Y11.685 Z4.999 
G1 X3.003 Y11.688 Z4.999 
G1 X12.997 Y11.688 Z4.999 
G1 X12.997 Y11.690 Z4.999 
G1 X3.003 Y11.690 Z4.999 
G1 X3.003 Y11.693 Z4.999 
G1 X12.997 Y11.693 Z4.999 
G1 X12.997 Y11.695 Z4.999 
G1 X3.003 Y11.695 Z4.999 
G1 X3.003 Y11.698 Z4.999 
G1 X12.997 Y11.698 Z4.999 
G1 X12.997 Y11.700 Z4.999 
G1 X3.003 Y11.700 Z4.999 
G1 X3.003 Y11.703 Z4.999 
G1 X12.997 Y11.703 Z4.999 
G1 X12.997 Y11.705 Z4.999 
G1 X3.003 Y11.705 Z4.999 
G1 X3.003 Y11.708 Z4.999 
G1 X12.997 Y11.708 Z4.999 
G1 X12.997 Y11.710 Z4.999 
G1 X3.003 Y11.710 Z4.999 
G1 X3.003 Y11.713 Z4.999 
G1 X12.997 Y11.713 Z4.999 
G1 X12.997 Y11.715 Z4.999 
G1 X3.003 Y11.715 Z4.999 
G1 X3.003 Y11.718 Z4.999 
G1 X12.997 Y11.718 Z4.999 
G1 X12.997 Y11.720 Z4.999 
G1 X3.003 Y11.720 Z4.999 
G1 X3.003 Y11.723 Z4.999 
G1 X12.997 Y11.723 Z4.999 
G1 X12.997 Y11.725 Z4.999 
G1 X3.003 Y11.725 Z4.999 
G1 X3.003 Y11.728 Z4.999 
G1 X12.997 Y11.728 Z4.999 
G1 X12.997 Y11.730 Z4.999 
G1 X3.003 Y11.730 Z4.999 
G1 X3.003 Y11.733 Z4.999 
G1 X12.997 Y11.733 Z4.999 
G1 X12.997 Y11.735 Z4.999 
G1 X3.003 Y11.735 Z4.999 
G1 X3.003 Y11.738 Z4.999 
G1 X12.997 Y11.738 Z4.999 
G1 X12.997 Y11.740 Z4.999 
G1 X3.003 Y11.740 Z4.999 
G1 X3.003 Y11.743 Z4.999 
G1 X12.997 Y11.743 Z4.999 
G1 X12.997 Y11.745 Z4.999 
G1 X3.003 Y11.745 Z4.999 
G1 X3.003 Y11.748 Z4.999 
G1 X12.997 Y11.748 Z4.999 
G1 X12.997 Y11.750 Z4.999 
G1 X3.003 Y11.750 Z4.999 
G1 X3.003 Y11.753 Z4.999 
G1 X12.997 Y11.753 Z4.999 
G1 X12.997 Y11.755 Z4.999 
G1 X3.003 Y11.755 Z4.999 
G1 X3.003 Y11.758 Z4.999 
G1 X12.997 Y11.758 Z4.999 
G1 X12.997 Y11.760 Z4.999 
G1 X3.003 Y11.760 Z4.999 
G1 X3.003 Y11.763 Z4.999 
G1 X12.997 Y11.763 Z4.999 
G1 X12.997 Y11.765 Z4.999 
G1 X3.003 Y11.765 Z4.999 
G1 X3.003 Y11.768 Z4.999 
G1 X12.997 Y11.768 Z4.999 
G1 X12.997 Y11.770 Z4.999 
G1 X3.003 Y11.770 Z4.999 
G1 X3.003 Y11.773 Z4.999 
G1 X12.997 Y11.773 Z4.999 
G1 X12.997 Y11.775 Z4.999 
G1 X3.003 Y11.775 Z4.999 
G1 X3.003 Y11.778 Z4.999 
G1 X12.997 Y11.778 Z4.999 
G1 X12.997 Y11.780 Z4.999 
G1 X3.003 Y11.780 Z4.999 
G1 X3.003 Y11.783 Z4.999 
G1 X12.997 Y11.783 Z4.999 
G1 X12.997 Y11.785 Z4.999 
G1 X3.003 Y11.785 Z4.999 
G1 X3.003 Y11.788 Z4.999 
G1 X12.997 Y11.788 Z4.999 
G1 X12.997 Y11.790 Z4.999 
G1 X3.003 Y11.790 Z4.999 
G1 X3.003 Y11.793 Z4.999 
G1 X12.997 Y11.793 Z4.999 
G1 X12.997 Y11.795 Z4.999 
G1 X3.003 Y11.795 Z4.999 
G1 X3.003 Y11.798 Z4.999 
G1 X12.997 Y11.798 Z4.999 
G1 X12.997 Y11.800 Z4.999 
G1 X3.003 Y11.800 Z4.999 
G1 X3.003 Y11.803 Z4.999 
G1 X12.997 Y11.803 Z4.999 
G1 X12.997 Y11.805 Z4.999 
G1 X3.003 Y11.805 Z4.999 
G1 X3.003 Y11.808 Z4.999 
G1 X12.997 Y11.808 Z4.999 
G1 X12.997 Y11.810 Z4.999 
G1 X3.003 Y11.810 Z4.999 
G1 X3.003 Y11.813 Z4.999 
G1 X12.997 Y11.813 Z4.999 
G1 X12.997 Y11.815 Z4.999 
G1 X3.003 Y11.815 Z4.999 
G1 X3.003 Y11.818 Z4.999 
G1 X12.997 Y11.818 Z4.999 
G1 X12.997 Y11.820 Z4.999 
G1 X3.003 Y11.820 Z4.999 
G1 X3.003 Y11.823 Z4.999 
G1 X12.997 Y11.823 Z4.999 
G1 X12.997 Y11.825 Z4.999 
G1 X3.003 Y11.825 Z4.999 
G1 X3.003 Y11.828 Z4.999 
G1 X12.997 Y11.828 Z4.999 
G1 X12.997 Y11.830 Z4.999 
G1 X3.003 Y11.830 Z4.999 
G1 X3.003 Y11.833 Z4.999 
G1 X12.997 Y11.833 Z4.999 
G1 X12.997 Y11.835 Z4.999 
G1 X3.003 Y11.835 Z4.999 
G1 X3.003 Y11.838 Z4.999 
G1 X12.997 Y11.838 Z4.999 
G1 X12.997 Y11.840 Z4.999 
G1 X3.003 Y11.840 Z4.999 
G1 X3.003 Y11.843 Z4.999 
G1 X12.997 Y11.843 Z4.999 
G1 X12.997 Y11.845 Z4.999 
G1 X3.003 Y11.845 Z4.999 
G1 X3.003 Y11.848 Z4.999 
G1 X12.997 Y11.848 Z4.999 
G1 X12.997 Y11.850 Z4.999 
G1 X3.003 Y11.850 Z4.999 
G1 X3.003 Y11.853 Z4.999 
G1 X12.997 Y11.853 Z4.999 
G1 X12.997 Y11.855 Z4.999 
G1 X3.003 Y11.855 Z4.999 
G1 X3.003 Y11.858 Z4.999 
G1 X12.997 Y11.858 Z4.999 
G1 X12.997 Y11.860 Z4.999 
G1 X3.003 Y11.860 Z4.999 
G1 X3.003 Y11.863 Z4.999 
G1 X12.997 Y11.863 Z4.999 
G1 X12.997 Y11.865 Z4.999 
G1 X3.003 Y11.865 Z4.999 
G1 X3.003 Y11.868 Z4.999 
G1 X12.997 Y11.868 Z4.999 
G1 X12.997 Y11.870 Z4.999 
G1 X3.003 Y11.870 Z4.999 
G1 X3.003 Y11.873 Z4.999 
G1 X12.997 Y11.873 Z4.999 
G1 X12.997 Y11.875 Z4.999 
G1 X3.003 Y11.875 Z4.999 
G1 X3.003 Y11.878 Z4.999 
G1 X12.997 Y11.878 Z4.999 
G1 X12.997 Y11.880 Z4.999 
G1 X3.003 Y11.880 Z4.999 
G1 X3.003 Y11.883 Z4.999 
G1 X12.997 Y11.883 Z4.999 
G1 X12.997 Y11.885 Z4.999 
G1 X3.003 Y11.885 Z4.999 
G1 X3.003 Y11.888 Z4.999 
G1 X12.997 Y11.888 Z4.999 
G1 X12.997 Y11.890 Z4.999 
G1 X3.003 Y11.890 Z4.999 
G1 X3.003 Y11.893 Z4.999 
G1 X12.997 Y11.893 Z4.999 
G1 X12.997 Y11.895 Z4.999 
G1 X3.003 Y11.895 Z4.999 
G1 X3.003 Y11.898 Z4.999 
G1 X12.997 Y11.898 Z4.999 
G1 X12.997 Y11.900 Z4.999 
G1 X3.003 Y11.900 Z4.999 
G1 X3.003 Y11.903 Z4.999 
G1 X12.997 Y11.903 Z4.999 
G1 X12.997 Y11.905 Z4.999 
G1 X3.003 Y11.905 Z4.999 
G1 X3.003 Y11.908 Z4.999 
G1 X12.997 Y11.908 Z4.999 
G1 X12.997 Y11.910 Z4.999 
G1 X3.003 Y11.910 Z4.999 
G1 X3.003 Y11.913 Z4.999 
G1 X12.997 Y11.913 Z4.999 
G1 X12.997 Y11.915 Z4.999 
G1 X3.003 Y11.915 Z4.999 
G1 X3.003 Y11.918 Z4.999 
G1 X12.997 Y11.918 Z4.999 
G1 X12.997 Y11.920 Z4.999 
G1 X3.003 Y11.920 Z4.999 
G1 X3.003 Y11.923 Z4.999 
G1 X12.997 Y11.923 Z4.999 
G1 X12.997 Y11.925 Z4.999 
G1 X3.003 Y11.925 Z4.999 
G1 X3.003 Y11.928 Z4.999 
G1 X12.997 Y11.928 Z4.999 
G1 X12.997 Y11.930 Z4.999 
G1 X3.003 Y11.930 Z4.999 
G1 X3.003 Y11.933 Z4.999 
G1 X12.997 Y11.933 Z4.999 
G1 X12.997 Y11.935 Z4.999 
G1 X3.003 Y11.935 Z4.999 
G1 X3.003 Y11.938 Z4.999 
G1 X12.997 Y11.938 Z4.999 
G1 X12.997 Y11.940 Z4.999 
G1 X3.003 Y11.940 Z4.999 
G1 X3.003 Y11.943 Z4.999 
G1 X12.997 Y11.943 Z4.999 
G1 X12.997 Y11.945 Z4.999 
G1 X3.003 Y11.945 Z4.999 
G1 X3.003 Y11.948 Z4.999 
G1 X12.997 Y11.948 Z4.999 
G1 X12.997 Y11.950 Z4.999 
G1 X3.003 Y11.950 Z4.999 
G1 X3.003 Y11.953 Z4.999 
G1 X12.997 Y11.953 Z4.999 
G1 X12.997 Y11.955 Z4.999 
G1 X3.003 Y11.955 Z4.999 
G1 X3.003 Y11.958 Z4.999 
G1 X12.997 Y11.958 Z4.999 
G1 X12.997 Y11.960 Z4.999 
G1 X3.003 Y11.960 Z4.999 
G1 X3.003 Y11.963 Z4.999 
G1 X12.997 Y11.963 Z4.999 
G1 X12.997 Y11.965 Z4.999 
G1 X3.003 Y11.965 Z4.999 
G1 X3.003 Y11.968 Z4.999 
G1 X12.997 Y11.968 Z4.999 
G1 X12.997 Y11.970 Z4.999 
G1 X3.003 Y11.970 Z4.999 
G1 X3.003 Y11.973 Z4.999 
G1 X12.997 Y11.973 Z4.999 
G1 X12.997 Y11.975 Z4.999 
G1 X3.003 Y11.975 Z4.999 
G1 X3.003 Y11.978 Z4.999 
G1 X12.997 Y11.978 Z4.999 
G1 X12.997 Y11.980 Z4.999 
G1 X3.003 Y11.980 Z4.999 
G1 X3.003 Y11.983 Z4.999 
G1 X12.997 Y11.983 Z4.999 
G1 X12.997 Y11.985 Z4.999 
G1 X3.003 Y11.985 Z4.999 
G1 X3.003 Y11.988 Z4.999 
G1 X12.997 Y11.988 Z4.999 
G1 X12.997 Y11.990 Z4.999 
G1 X3.003 Y11.990 Z4.999 
G1 X3.003 Y11.993 Z4.999 
G1 X12.997 Y11.993 Z4.999 
G1 X12.997 Y11.995 Z4.999 
G1 X3.003 Y11.995 Z4.999 
G1 X3.003 Y11.998 Z4.999 
G1 X12.997 Y11.998 Z4.999 
G1 X12.997 Y12.000 Z4.999 
G1 X3.003 Y12.000 Z4.999 
G1 X3.003 Y12.003 Z4.999 
G1 X12.997 Y12.003 Z4.999 
G1 X12.997 Y12.005 Z4.999 
G1 X3.003 Y12.005 Z4.999 
G1 X3.003 Y12.008 Z4.999 
G1 X12.997 Y12.008 Z4.999 
G1 X12.997 Y12.010 Z4.999 
G1 X3.003 Y12.010 Z4.999 
G1 X3.003 Y12.013 Z4.999 
G1 X12.997 Y12.013 Z4.999 
G1 X12.997 Y12.015 Z4.999 
G1 X3.003 Y12.015 Z4.999 
G1 X3.003 Y12.018 Z4.999 
G1 X12.997 Y12.018 Z4.999 
G1 X12.997 Y12.020 Z4.999 
G1 X3.003 Y12.020 Z4.999 
G1 X3.003 Y12.023 Z4.999 
G1 X12.997 Y12.023 Z4.999 
G1 X12.997 Y12.025 Z4.999 
G1 X3.003 Y12.025 Z4.999 
G1 X3.003 Y12.028 Z4.999 
G1 X12.997 Y12.028 Z4.999 
G1 X12.997 Y12.030 Z4.999 
G1 X3.003 Y12.030 Z4.999 
G1 X3.003 Y12.033 Z4.999 
G1 X12.997 Y12.033 Z4.999 
G1 X12.997 Y12.035 Z4.999 
G1 X3.003 Y12.035 Z4.999 
G1 X3.003 Y12.038 Z4.999 
G1 X12.997 Y12.038 Z4.999 
G1 X12.997 Y12.040 Z4.999 
G1 X3.003 Y12.040 Z4.999 
G1 X3.003 Y12.043 Z4.999 
G1 X12.997 Y12.043 Z4.999 
G1 X12.997 Y12.045 Z4.999 
G1 X3.003 Y12.045 Z4.999 
G1 X3.003 Y12.048 Z4.999 
G1 X12.997 Y12.048 Z4.999 
G1 X12.997 Y12.050 Z4.999 
G1 X3.003 Y12.050 Z4.999 
G1 X3.003 Y12.053 Z4.999 
G1 X12.997 Y12.053 Z4.999 
G1 X12.997 Y12.055 Z4.999 
G1 X3.003 Y12.055 Z4.999 
G1 X3.003 Y12.058 Z4.999 
G1 X12.997 Y12.058 Z4.999 
G1 X12.997 Y12.060 Z4.999 
G1 X3.003 Y12.060 Z4.999 
G1 X3.003 Y12.063 Z4.999 
G1 X12.997 Y12.063 Z4.999 
G1 X12.997 Y12.065 Z4.999 
G1 X3.003 Y12.065 Z4.999 
G1 X3.003 Y12.068 Z4.999 
G1 X12.997 Y12.068 Z4.999 
G1 X12.997 Y12.070 Z4.999 
G1 X3.003 Y12.070 Z4.999 
G1 X3.003 Y12.073 Z4.999 
G1 X12.997 Y12.073 Z4.999 
G1 X12.997 Y12.075 Z4.999 
G1 X3.003 Y12.075 Z4.999 
G1 X3.003 Y12.078 Z4.999 
G1 X12.997 Y12.078 Z4.999 
G1 X12.997 Y12.080 Z4.999 
G1 X3.003 Y12.080 Z4.999 
G1 X3.003 Y12.083 Z4.999 
G1 X12.997 Y12.083 Z4.999 
G1 X12.997 Y12.085 Z4.999 
G1 X3.003 Y12.085 Z4.999 
G1 X3.003 Y12.088 Z4.999 
G1 X12.997 Y12.088 Z4.999 
G1 X12.997 Y12.090 Z4.999 
G1 X3.003 Y12.090 Z4.999 
G1 X3.003 Y12.093 Z4.999 
G1 X12.997 Y12.093 Z4.999 
G1 X12.997 Y12.095 Z4.999 
G1 X3.003 Y12.095 Z4.999 
G1 X3.003 Y12.098 Z4.999 
G1 X12.997 Y12.098 Z4.999 
G1 X12.997 Y12.100 Z4.999 
G1 X3.003 Y12.100 Z4.999 
G1 X3.003 Y12.103 Z4.999 
G1 X12.997 Y12.103 Z4.999 
G1 X12.997 Y12.105 Z4.999 
G1 X3.003 Y12.105 Z4.999 
G1 X3.003 Y12.108 Z4.999 
G1 X12.997 Y12.108 Z4.999 
G1 X12.997 Y12.110 Z4.999 
G1 X3.003 Y12.110 Z4.999 
G1 X3.003 Y12.113 Z4.999 
G1 X12.997 Y12.113 Z4.999 
G1 X12.997 Y12.115 Z4.999 
G1 X3.003 Y12.115 Z4.999 
G1 X3.003 Y12.118 Z4.999 
G1 X12.997 Y12.118 Z4.999 
G1 X12.997 Y12.120 Z4.999 
G1 X3.003 Y12.120 Z4.999 
G1 X3.003 Y12.123 Z4.999 
G1 X12.997 Y12.123 Z4.999 
G1 X12.997 Y12.125 Z4.999 
G1 X3.003 Y12.125 Z4.999 
G1 X3.003 Y12.128 Z4.999 
G1 X12.997 Y12.128 Z4.999 
G1 X12.997 Y12.130 Z4.999 
G1 X3.003 Y12.130 Z4.999 
G1 X3.003 Y12.133 Z4.999 
G1 X12.997 Y12.133 Z4.999 
G1 X12.997 Y12.135 Z4.999 
G1 X3.003 Y12.135 Z4.999 
G1 X3.003 Y12.138 Z4.999 
G1 X12.997 Y12.138 Z4.999 
G1 X12.997 Y12.140 Z4.999 
G1 X3.003 Y12.140 Z4.999 
G1 X3.003 Y12.143 Z4.999 
G1 X12.997 Y12.143 Z4.999 
G1 X12.997 Y12.145 Z4.999 
G1 X3.003 Y12.145 Z4.999 
G1 X3.003 Y12.148 Z4.999 
G1 X12.997 Y12.148 Z4.999 
G1 X12.997 Y12.150 Z4.999 
G1 X3.003 Y12.150 Z4.999 
G1 X3.003 Y12.153 Z4.999 
G1 X12.997 Y12.153 Z4.999 
G1 X12.997 Y12.155 Z4.999 
G1 X3.003 Y12.155 Z4.999 
G1 X3.003 Y12.158 Z4.999 
G1 X12.997 Y12.158 Z4.999 
G1 X12.997 Y12.160 Z4.999 
G1 X3.003 Y12.160 Z4.999 
G1 X3.003 Y12.163 Z4.999 
G1 X12.997 Y12.163 Z4.999 
G1 X12.997 Y12.165 Z4.999 
G1 X3.003 Y12.165 Z4.999 
G1 X3.003 Y12.168 Z4.999 
G1 X12.997 Y12.168 Z4.999 
G1 X12.997 Y12.170 Z4.999 
G1 X3.003 Y12.170 Z4.999 
G1 X3.003 Y12.173 Z4.999 
G1 X12.997 Y12.173 Z4.999 
G1 X12.997 Y12.175 Z4.999 
G1 X3.003 Y12.175 Z4.999 
G1 X3.003 Y12.178 Z4.999 
G1 X12.997 Y12.178 Z4.999 
G1 X12.997 Y12.180 Z4.999 
G1 X3.003 Y12.180 Z4.999 
G1 X3.003 Y12.183 Z4.999 
G1 X12.997 Y12.183 Z4.999 
G1 X12.997 Y12.185 Z4.999 
G1 X3.003 Y12.185 Z4.999 
G1 X3.003 Y12.188 Z4.999 
G1 X12.997 Y12.188 Z4.999 
G1 X12.997 Y12.190 Z4.999 
G1 X3.003 Y12.190 Z4.999 
G1 X3.003 Y12.193 Z4.999 
G1 X12.997 Y12.193 Z4.999 
G1 X12.997 Y12.195 Z4.999 
G1 X3.003 Y12.195 Z4.999 
G1 X3.003 Y12.198 Z4.999 
G1 X12.997 Y12.198 Z4.999 
G1 X12.997 Y12.200 Z4.999 
G1 X3.003 Y12.200 Z4.999 
G1 X3.003 Y12.203 Z4.999 
G1 X12.997 Y12.203 Z4.999 
G1 X12.997 Y12.205 Z4.999 
G1 X3.003 Y12.205 Z4.999 
G1 X3.003 Y12.208 Z4.999 
G1 X12.997 Y12.208 Z4.999 
G1 X12.997 Y12.210 Z4.999 
G1 X3.003 Y12.210 Z4.999 
G1 X3.003 Y12.213 Z4.999 
G1 X12.997 Y12.213 Z4.999 
G1 X12.997 Y12.215 Z4.999 
G1 X3.003 Y12.215 Z4.999 
G1 X3.003 Y12.218 Z4.999 
G1 X12.997 Y12.218 Z4.999 
G1 X12.997 Y12.220 Z4.999 
G1 X3.003 Y12.220 Z4.999 
G1 X3.003 Y12.223 Z4.999 
G1 X12.997 Y12.223 Z4.999 
G1 X12.997 Y12.225 Z4.999 
G1 X3.003 Y12.225 Z4.999 
G1 X3.003 Y12.228 Z4.999 
G1 X12.997 Y12.228 Z4.999 
G1 X12.997 Y12.230 Z4.999 
G1 X3.003 Y12.230 Z4.999 
G1 X3.003 Y12.233 Z4.999 
G1 X12.997 Y12.233 Z4.999 
G1 X12.997 Y12.235 Z4.999 
G1 X3.003 Y12.235 Z4.999 
G1 X3.003 Y12.238 Z4.999 
G1 X12.997 Y12.238 Z4.999 
G1 X12.997 Y12.240 Z4.999 
G1 X3.003 Y12.240 Z4.999 
G1 X3.003 Y12.243 Z4.999 
G1 X12.997 Y12.243 Z4.999 
G1 X12.997 Y12.245 Z4.999 
G1 X3.003 Y12.245 Z4.999 
G1 X3.003 Y12.248 Z4.999 
G1 X12.997 Y12.248 Z4.999 
G1 X12.997 Y12.250 Z4.999 
G1 X3.003 Y12.250 Z4.999 
G1 X3.003 Y12.253 Z4.999 
G1 X12.997 Y12.253 Z4.999 
G1 X12.997 Y12.255 Z4.999 
G1 X3.003 Y12.255 Z4.999 
G1 X3.003 Y12.258 Z4.999 
G1 X12.997 Y12.258 Z4.999 
G1 X12.997 Y12.260 Z4.999 
G1 X3.003 Y12.260 Z4.999 
G1 X3.003 Y12.263 Z4.999 
G1 X12.997 Y12.263 Z4.999 
G1 X12.997 Y12.265 Z4.999 
G1 X3.003 Y12.265 Z4.999 
G1 X3.003 Y12.268 Z4.999 
G1 X12.997 Y12.268 Z4.999 
G1 X12.997 Y12.270 Z4.999 
G1 X3.003 Y12.270 Z4.999 
G1 X3.003 Y12.273 Z4.999 
G1 X12.997 Y12.273 Z4.999 
G1 X12.997 Y12.275 Z4.999 
G1 X3.003 Y12.275 Z4.999 
G1 X3.003 Y12.278 Z4.999 
G1 X12.997 Y12.278 Z4.999 
G1 X12.997 Y12.280 Z4.999 
G1 X3.003 Y12.280 Z4.999 
G1 X3.003 Y12.283 Z4.999 
G1 X12.997 Y12.283 Z4.999 
G1 X12.997 Y12.285 Z4.999 
G1 X3.003 Y12.285 Z4.999 
G1 X3.003 Y12.288 Z4.999 
G1 X12.997 Y12.288 Z4.999 
G1 X12.997 Y12.290 Z4.999 
G1 X3.003 Y12.290 Z4.999 
G1 X3.003 Y12.293 Z4.999 
G1 X12.997 Y12.293 Z4.999 
G1 X12.997 Y12.295 Z4.999 
G1 X3.003 Y12.295 Z4.999 
G1 X3.003 Y12.298 Z4.999 
G1 X12.997 Y12.298 Z4.999 
G1 X12.997 Y12.300 Z4.999 
G1 X3.003 Y12.300 Z4.999 
G1 X3.003 Y12.303 Z4.999 
G1 X12.997 Y12.303 Z4.999 
G1 X12.997 Y12.305 Z4.999 
G1 X3.003 Y12.305 Z4.999 
G1 X3.003 Y12.308 Z4.999 
G1 X12.997 Y12.308 Z4.999 
G1 X12.997 Y12.310 Z4.999 
G1 X3.003 Y12.310 Z4.999 
G1 X3.003 Y12.313 Z4.999 
G1 X12.997 Y12.313 Z4.999 
G1 X12.997 Y12.315 Z4.999 
G1 X3.003 Y12.315 Z4.999 
G1 X3.003 Y12.318 Z4.999 
G1 X12.997 Y12.318 Z4.999 
G1 X12.997 Y12.320 Z4.999 
G1 X3.003 Y12.320 Z4.999 
G1 X3.003 Y12.323 Z4.999 
G1 X12.997 Y12.323 Z4.999 
G1 X12.997 Y12.325 Z4.999 
G1 X3.003 Y12.325 Z4.999 
G1 X3.003 Y12.328 Z4.999 
G1 X12.997 Y12.328 Z4.999 
G1 X12.997 Y12.330 Z4.999 
G1 X3.003 Y12.330 Z4.999 
G1 X3.003 Y12.333 Z4.999 
G1 X12.997 Y12.333 Z4.999 
G1 X12.997 Y12.335 Z4.999 
G1 X3.003 Y12.335 Z4.999 
G1 X3.003 Y12.338 Z4.999 
G1 X12.997 Y12.338 Z4.999 
G1 X12.997 Y12.340 Z4.999 
G1 X3.003 Y12.340 Z4.999 
G1 X3.003 Y12.343 Z4.999 
G1 X12.997 Y12.343 Z4.999 
G1 X12.997 Y12.345 Z4.999 
G1 X3.003 Y12.345 Z4.999 
G1 X3.003 Y12.348 Z4.999 
G1 X12.997 Y12.348 Z4.999 
G1 X12.997 Y12.350 Z4.999 
G1 X3.003 Y12.350 Z4.999 
G1 X3.003 Y12.353 Z4.999 
G1 X12.997 Y12.353 Z4.999 
G1 X12.997 Y12.355 Z4.999 
G1 X3.003 Y12.355 Z4.999 
G1 X3.003 Y12.358 Z4.999 
G1 X12.997 Y12.358 Z4.999 
G1 X12.997 Y12.360 Z4.999 
G1 X3.003 Y12.360 Z4.999 
G1 X3.003 Y12.363 Z4.999 
G1 X12.997 Y12.363 Z4.999 
G1 X12.997 Y12.365 Z4.999 
G1 X3.003 Y12.365 Z4.999 
G1 X3.003 Y12.368 Z4.999 
G1 X12.997 Y12.368 Z4.999 
G1 X12.997 Y12.370 Z4.999 
G1 X3.003 Y12.370 Z4.999 
G1 X3.003 Y12.373 Z4.999 
G1 X12.997 Y12.373 Z4.999 
G1 X12.997 Y12.375 Z4.999 
G1 X3.003 Y12.375 Z4.999 
G1 X3.003 Y12.378 Z4.999 
G1 X12.997 Y12.378 Z4.999 
G1 X12.997 Y12.380 Z4.999 
G1 X3.003 Y12.380 Z4.999 
G1 X3.003 Y12.383 Z4.999 
G1 X12.997 Y12.383 Z4.999 
G1 X12.997 Y12.385 Z4.999 
G1 X3.003 Y12.385 Z4.999 
G1 X3.003 Y12.388 Z4.999 
G1 X12.997 Y12.388 Z4.999 
G1 X12.997 Y12.390 Z4.999 
G1 X3.003 Y12.390 Z4.999 
G1 X3.003 Y12.393 Z4.999 
G1 X12.997 Y12.393 Z4.999 
G1 X12.997 Y12.395 Z4.999 
G1 X3.003 Y12.395 Z4.999 
G1 X3.003 Y12.398 Z4.999 
G1 X12.997 Y12.398 Z4.999 
G1 X12.997 Y12.400 Z4.999 
G1 X3.003 Y12.400 Z4.999 
G1 X3.003 Y12.403 Z4.999 
G1 X12.997 Y12.403 Z4.999 
G1 X12.997 Y12.405 Z4.999 
G1 X3.003 Y12.405 Z4.999 
G1 X3.003 Y12.408 Z4.999 
G1 X12.997 Y12.408 Z4.999 
G1 X12.997 Y12.410 Z4.999 
G1 X3.003 Y12.410 Z4.999 
G1 X3.003 Y12.413 Z4.999 
G1 X12.997 Y12.413 Z4.999 
G1 X12.997 Y12.415 Z4.999 
G1 X3.003 Y12.415 Z4.999 
G1 X3.003 Y12.418 Z4.999 
G1 X12.997 Y12.418 Z4.999 
G1 X12.997 Y12.420 Z4.999 
G1 X3.003 Y12.420 Z4.999 
G1 X3.003 Y12.423 Z4.999 
G1 X12.997 Y12.423 Z4.999 
G1 X12.997 Y12.425 Z4.999 
G1 X3.003 Y12.425 Z4.999 
G1 X3.003 Y12.428 Z4.999 
G1 X12.997 Y12.428 Z4.999 
G1 X12.997 Y12.430 Z4.999 
G1 X3.003 Y12.430 Z4.999 
G1 X3.003 Y12.433 Z4.999 
G1 X12.997 Y12.433 Z4.999 
G1 X12.997 Y12.435 Z4.999 
G1 X3.003 Y12.435 Z4.999 
G1 X3.003 Y12.438 Z4.999 
G1 X12.997 Y12.438 Z4.999 
G1 X12.997 Y12.440 Z4.999 
G1 X3.003 Y12.440 Z4.999 
G1 X3.003 Y12.443 Z4.999 
G1 X12.997 Y12.443 Z4.999 
G1 X12.997 Y12.445 Z4.999 
G1 X3.003 Y12.445 Z4.999 
G1 X3.003 Y12.448 Z4.999 
G1 X12.997 Y12.448 Z4.999 
G1 X12.997 Y12.450 Z4.999 
G1 X3.003 Y12.450 Z4.999 
G1 X3.003 Y12.453 Z4.999 
G1 X12.997 Y12.453 Z4.999 
G1 X12.997 Y12.455 Z4.999 
G1 X3.003 Y12.455 Z4.999 
G1 X3.003 Y12.458 Z4.999 
G1 X12.997 Y12.458 Z4.999 
G1 X12.997 Y12.460 Z4.999 
G1 X3.003 Y12.460 Z4.999 
G1 X3.003 Y12.463 Z4.999 
G1 X12.997 Y12.463 Z4.999 
G1 X12.997 Y12.465 Z4.999 
G1 X3.003 Y12.465 Z4.999 
G1 X3.003 Y12.468 Z4.999 
G1 X12.997 Y12.468 Z4.999 
G1 X12.997 Y12.470 Z4.999 
G1 X3.003 Y12.470 Z4.999 
G1 X3.003 Y12.473 Z4.999 
G1 X12.997 Y12.473 Z4.999 
G1 X12.997 Y12.475 Z4.999 
G1 X3.003 Y12.475 Z4.999 
G1 X3.003 Y12.478 Z4.999 
G1 X12.997 Y12.478 Z4.999 
G1 X12.997 Y12.480 Z4.999 
G1 X3.003 Y12.480 Z4.999 
G1 X3.003 Y12.483 Z4.999 
G1 X12.997 Y12.483 Z4.999 
G1 X12.997 Y12.485 Z4.999 
G1 X3.003 Y12.485 Z4.999 
G1 X3.003 Y12.488 Z4.999 
G1 X12.997 Y12.488 Z4.999 
G1 X12.997 Y12.490 Z4.999 
G1 X3.003 Y12.490 Z4.999 
G1 X3.003 Y12.493 Z4.999 
G1 X12.997 Y12.493 Z4.999 
G1 X12.997 Y12.495 Z4.999 
G1 X3.003 Y12.495 Z4.999 
G1 X3.003 Y12.498 Z4.999 
G1 X12.997 Y12.498 Z4.999 
G1 X12.997 Y12.500 Z4.999 
G1 X3.003 Y12.500 Z4.999 
G1 X3.003 Y12.503 Z4.999 
G1 X12.997 Y12.503 Z4.999 
G1 X12.997 Y12.505 Z4.999 
G1 X3.003 Y12.505 Z4.999 
G1 X3.003 Y12.508 Z4.999 
G1 X12.997 Y12.508 Z4.999 
G1 X12.997 Y12.510 Z4.999 
G1 X3.003 Y12.510 Z4.999 
G1 X3.003 Y12.513 Z4.999 
G1 X12.997 Y12.513 Z4.999 
G1 X12.997 Y12.515 Z4.999 
G1 X3.003 Y12.515 Z4.999 
G1 X3.003 Y12.518 Z4.999 
G1 X12.997 Y12.518 Z4.999 
G1 X12.997 Y12.520 Z4.999 
G1 X3.003 Y12.520 Z4.999 
G1 X3.003 Y12.523 Z4.999 
G1 X12.997 Y12.523 Z4.999 
G1 X12.997 Y12.525 Z4.999 
G1 X3.003 Y12.525 Z4.999 
G1 X3.003 Y12.528 Z4.999 
G1 X12.997 Y12.528 Z4.999 
G1 X12.997 Y12.530 Z4.999 
G1 X3.003 Y12.530 Z4.999 
G1 X3.003 Y12.533 Z4.999 
G1 X12.997 Y12.533 Z4.999 
G1 X12.997 Y12.535 Z4.999 
G1 X3.003 Y12.535 Z4.999 
G1 X3.003 Y12.538 Z4.999 
G1 X12.997 Y12.538 Z4.999 
G1 X12.997 Y12.540 Z4.999 
G1 X3.003 Y12.540 Z4.999 
G1 X3.003 Y12.543 Z4.999 
G1 X12.997 Y12.543 Z4.999 
G1 X12.997 Y12.545 Z4.999 
G1 X3.003 Y12.545 Z4.999 
G1 X3.003 Y12.548 Z4.999 
G1 X12.997 Y12.548 Z4.999 
G1 X12.997 Y12.550 Z4.999 
G1 X3.003 Y12.550 Z4.999 
G1 X3.003 Y12.553 Z4.999 
G1 X12.997 Y12.553 Z4.999 
G1 X12.997 Y12.555 Z4.999 
G1 X3.003 Y12.555 Z4.999 
G1 X3.003 Y12.558 Z4.999 
G1 X12.997 Y12.558 Z4.999 
G1 X12.997 Y12.560 Z4.999 
G1 X3.003 Y12.560 Z4.999 
G1 X3.003 Y12.563 Z4.999 
G1 X12.997 Y12.563 Z4.999 
G1 X12.997 Y12.565 Z4.999 
G1 X3.003 Y12.565 Z4.999 
G1 X3.003 Y12.568 Z4.999 
G1 X12.997 Y12.568 Z4.999 
G1 X12.997 Y12.570 Z4.999 
G1 X3.003 Y12.570 Z4.999 
G1 X3.003 Y12.573 Z4.999 
G1 X12.997 Y12.573 Z4.999 
G1 X12.997 Y12.575 Z4.999 
G1 X3.003 Y12.575 Z4.999 
G1 X3.003 Y12.578 Z4.999 
G1 X12.997 Y12.578 Z4.999 
G1 X12.997 Y12.580 Z4.999 
G1 X3.003 Y12.580 Z4.999 
G1 X3.003 Y12.583 Z4.999 
G1 X12.997 Y12.583 Z4.999 
G1 X12.997 Y12.585 Z4.999 
G1 X3.003 Y12.585 Z4.999 
G1 X3.003 Y12.588 Z4.999 
G1 X12.997 Y12.588 Z4.999 
G1 X12.997 Y12.590 Z4.999 
G1 X3.003 Y12.590 Z4.999 
G1 X3.003 Y12.593 Z4.999 
G1 X12.997 Y12.593 Z4.999 
G1 X12.997 Y12.595 Z4.999 
G1 X3.003 Y12.595 Z4.999 
G1 X3.003 Y12.598 Z4.999 
G1 X12.997 Y12.598 Z4.999 
G1 X12.997 Y12.600 Z4.999 
G1 X3.003 Y12.600 Z4.999 
G1 X3.003 Y12.603 Z4.999 
G1 X12.997 Y12.603 Z4.999 
G1 X12.997 Y12.605 Z4.999 
G1 X3.003 Y12.605 Z4.999 
G1 X3.003 Y12.608 Z4.999 
G1 X12.997 Y12.608 Z4.999 
G1 X12.997 Y12.610 Z4.999 
G1 X3.003 Y12.610 Z4.999 
G1 X3.003 Y12.613 Z4.999 
G1 X12.997 Y12.613 Z4.999 
G1 X12.997 Y12.615 Z4.999 
G1 X3.003 Y12.615 Z4.999 
G1 X3.003 Y12.618 Z4.999 
G1 X12.997 Y12.618 Z4.999 
G1 X12.997 Y12.620 Z4.999 
G1 X3.003 Y12.620 Z4.999 
G1 X3.003 Y12.623 Z4.999 
G1 X12.997 Y12.623 Z4.999 
G1 X12.997 Y12.625 Z4.999 
G1 X3.003 Y12.625 Z4.999 
G1 X3.003 Y12.628 Z4.999 
G1 X12.997 Y12.628 Z4.999 
G1 X12.997 Y12.630 Z4.999 
G1 X3.003 Y12.630 Z4.999 
G1 X3.003 Y12.633 Z4.999 
G1 X12.997 Y12.633 Z4.999 
G1 X12.997 Y12.635 Z4.999 
G1 X3.003 Y12.635 Z4.999 
G1 X3.003 Y12.638 Z4.999 
G1 X12.997 Y12.638 Z4.999 
G1 X12.997 Y12.640 Z4.999 
G1 X3.003 Y12.640 Z4.999 
G1 X3.003 Y12.643 Z4.999 
G1 X12.997 Y12.643 Z4.999 
G1 X12.997 Y12.645 Z4.999 
G1 X3.003 Y12.645 Z4.999 
G1 X3.003 Y12.648 Z4.999 
G1 X12.997 Y12.648 Z4.999 
G1 X12.997 Y12.650 Z4.999 
G1 X3.003 Y12.650 Z4.999 
G1 X3.003 Y12.653 Z4.999 
G1 X12.997 Y12.653 Z4.999 
G1 X12.997 Y12.655 Z4.999 
G1 X3.003 Y12.655 Z4.999 
G1 X3.003 Y12.658 Z4.999 
G1 X12.997 Y12.658 Z4.999 
G1 X12.997 Y12.660 Z4.999 
G1 X3.003 Y12.660 Z4.999 
G1 X3.003 Y12.663 Z4.999 
G1 X12.997 Y12.663 Z4.999 
G1 X12.997 Y12.665 Z4.999 
G1 X3.003 Y12.665 Z4.999 
G1 X3.003 Y12.668 Z4.999 
G1 X12.997 Y12.668 Z4.999 
G1 X12.997 Y12.670 Z4.999 
G1 X3.003 Y12.670 Z4.999 
G1 X3.003 Y12.673 Z4.999 
G1 X12.997 Y12.673 Z4.999 
G1 X12.997 Y12.675 Z4.999 
G1 X3.003 Y12.675 Z4.999 
G1 X3.003 Y12.678 Z4.999 
G1 X12.997 Y12.678 Z4.999 
G1 X12.997 Y12.680 Z4.999 
G1 X3.003 Y12.680 Z4.999 
G1 X3.003 Y12.683 Z4.999 
G1 X12.997 Y12.683 Z4.999 
G1 X12.997 Y12.685 Z4.999 
G1 X3.003 Y12.685 Z4.999 
G1 X3.003 Y12.688 Z4.999 
G1 X12.997 Y12.688 Z4.999 
G1 X12.997 Y12.690 Z4.999 
G1 X3.003 Y12.690 Z4.999 
G1 X3.003 Y12.693 Z4.999 
G1 X12.997 Y12.693 Z4.999 
G1 X12.997 Y12.695 Z4.999 
G1 X3.003 Y12.695 Z4.999 
G1 X3.003 Y12.698 Z4.999 
G1 X12.997 Y12.698 Z4.999 
G1 X12.997 Y12.700 Z4.999 
G1 X3.003 Y12.700 Z4.999 
G1 X3.003 Y12.703 Z4.999 
G1 X12.997 Y12.703 Z4.999 
G1 X12.997 Y12.705 Z4.999 
G1 X3.003 Y12.705 Z4.999 
G1 X3.003 Y12.708 Z4.999 
G1 X12.997 Y12.708 Z4.999 
G1 X12.997 Y12.710 Z4.999 
G1 X3.003 Y12.710 Z4.999 
G1 X3.003 Y12.713 Z4.999 
G1 X12.997 Y12.713 Z4.999 
G1 X12.997 Y12.715 Z4.999 
G1 X3.003 Y12.715 Z4.999 
G1 X3.003 Y12.718 Z4.999 
G1 X12.997 Y12.718 Z4.999 
G1 X12.997 Y12.720 Z4.999 
G1 X3.003 Y12.720 Z4.999 
G1 X3.003 Y12.723 Z4.999 
G1 X12.997 Y12.723 Z4.999 
G1 X12.997 Y12.725 Z4.999 
G1 X3.003 Y12.725 Z4.999 
G1 X3.003 Y12.728 Z4.999 
G1 X12.997 Y12.728 Z4.999 
G1 X12.997 Y12.730 Z4.999 
G1 X3.003 Y12.730 Z4.999 
G1 X3.003 Y12.733 Z4.999 
G1 X12.997 Y12.733 Z4.999 
G1 X12.997 Y12.735 Z4.999 
G1 X3.003 Y12.735 Z4.999 
G1 X3.003 Y12.738 Z4.999 
G1 X12.997 Y12.738 Z4.999 
G1 X12.997 Y12.740 Z4.999 
G1 X3.003 Y12.740 Z4.999 
G1 X3.003 Y12.743 Z4.999 
G1 X12.997 Y12.743 Z4.999 
G1 X12.997 Y12.745 Z4.999 
G1 X3.003 Y12.745 Z4.999 
G1 X3.003 Y12.748 Z4.999 
G1 X12.997 Y12.748 Z4.999 
G1 X12.997 Y12.750 Z4.999 
G1 X3.003 Y12.750 Z4.999 
G1 X3.003 Y12.753 Z4.999 
G1 X12.997 Y12.753 Z4.999 
G1 X12.997 Y12.755 Z4.999 
G1 X3.003 Y12.755 Z4.999 
G1 X3.003 Y12.758 Z4.999 
G1 X12.997 Y12.758 Z4.999 
G1 X12.997 Y12.760 Z4.999 
G1 X3.003 Y12.760 Z4.999 
G1 X3.003 Y12.763 Z4.999 
G1 X12.997 Y12.763 Z4.999 
G1 X12.997 Y12.765 Z4.999 
G1 X3.003 Y12.765 Z4.999 
G1 X3.003 Y12.768 Z4.999 
G1 X12.997 Y12.768 Z4.999 
G1 X12.997 Y12.770 Z4.999 
G1 X3.003 Y12.770 Z4.999 
G1 X3.003 Y12.773 Z4.999 
G1 X12.997 Y12.773 Z4.999 
G1 X12.997 Y12.775 Z4.999 
G1 X3.003 Y12.775 Z4.999 
G1 X3.003 Y12.778 Z4.999 
G1 X12.997 Y12.778 Z4.999 
G1 X12.997 Y12.780 Z4.999 
G1 X3.003 Y12.780 Z4.999 
G1 X3.003 Y12.783 Z4.999 
G1 X12.997 Y12.783 Z4.999 
G1 X12.997 Y12.785 Z4.999 
G1 X3.003 Y12.785 Z4.999 
G1 X3.003 Y12.788 Z4.999 
G1 X12.997 Y12.788 Z4.999 
G1 X12.997 Y12.790 Z4.999 
G1 X3.003 Y12.790 Z4.999 
G1 X3.003 Y12.793 Z4.999 
G1 X12.997 Y12.793 Z4.999 
G1 X12.997 Y12.795 Z4.999 
G1 X3.003 Y12.795 Z4.999 
G1 X3.003 Y12.798 Z4.999 
G1 X12.997 Y12.798 Z4.999 
G1 X12.997 Y12.800 Z4.999 
G1 X3.003 Y12.800 Z4.999 
G1 X3.003 Y12.803 Z4.999 
G1 X12.997 Y12.803 Z4.999 
G1 X12.997 Y12.805 Z4.999 
G1 X3.003 Y12.805 Z4.999 
G1 X3.003 Y12.808 Z4.999 
G1 X12.997 Y12.808 Z4.999 
G1 X12.997 Y12.810 Z4.999 
G1 X3.003 Y12.810 Z4.999 
G1 X3.003 Y12.813 Z4.999 
G1 X12.997 Y12.813 Z4.999 
G1 X12.997 Y12.815 Z4.999 
G1 X3.003 Y12.815 Z4.999 
G1 X3.003 Y12.818 Z4.999 
G1 X12.997 Y12.818 Z4.999 
G1 X12.997 Y12.820 Z4.999 
G1 X3.003 Y12.820 Z4.999 
G1 X3.003 Y12.823 Z4.999 
G1 X12.997 Y12.823 Z4.999 
G1 X12.997 Y12.825 Z4.999 
G1 X3.003 Y12.825 Z4.999 
G1 X3.003 Y12.828 Z4.999 
G1 X12.997 Y12.828 Z4.999 
G1 X12.997 Y12.830 Z4.999 
G1 X3.003 Y12.830 Z4.999 
G1 X3.003 Y12.833 Z4.999 
G1 X12.997 Y12.833 Z4.999 
G1 X12.997 Y12.835 Z4.999 
G1 X3.003 Y12.835 Z4.999 
G1 X3.003 Y12.838 Z4.999 
G1 X12.997 Y12.838 Z4.999 
G1 X12.997 Y12.840 Z4.999 
G1 X3.003 Y12.840 Z4.999 
G1 X3.003 Y12.843 Z4.999 
G1 X12.997 Y12.843 Z4.999 
G1 X12.997 Y12.845 Z4.999 
G1 X3.003 Y12.845 Z4.999 
G1 X3.003 Y12.848 Z4.999 
G1 X12.997 Y12.848 Z4.999 
G1 X12.997 Y12.850 Z4.999 
G1 X3.003 Y12.850 Z4.999 
G1 X3.003 Y12.853 Z4.999 
G1 X12.997 Y12.853 Z4.999 
G1 X12.997 Y12.855 Z4.999 
G1 X3.003 Y12.855 Z4.999 
G1 X3.003 Y12.858 Z4.999 
G1 X12.997 Y12.858 Z4.999 
G1 X12.997 Y12.860 Z4.999 
G1 X3.003 Y12.860 Z4.999 
G1 X3.003 Y12.863 Z4.999 
G1 X12.997 Y12.863 Z4.999 
G1 X12.997 Y12.865 Z4.999 
G1 X3.003 Y12.865 Z4.999 
G1 X3.003 Y12.868 Z4.999 
G1 X12.997 Y12.868 Z4.999 
G1 X12.997 Y12.870 Z4.999 
G1 X3.003 Y12.870 Z4.999 
G1 X3.003 Y12.873 Z4.999 
G1 X12.997 Y12.873 Z4.999 
G1 X12.997 Y12.875 Z4.999 
G1 X3.003 Y12.875 Z4.999 
G1 X3.003 Y12.878 Z4.999 
G1 X12.997 Y12.878 Z4.999 
G1 X12.997 Y12.880 Z4.999 
G1 X3.003 Y12.880 Z4.999 
G1 X3.003 Y12.883 Z4.999 
G1 X12.997 Y12.883 Z4.999 
G1 X12.997 Y12.885 Z4.999 
G1 X3.003 Y12.885 Z4.999 
G1 X3.003 Y12.888 Z4.999 
G1 X12.997 Y12.888 Z4.999 
G1 X12.997 Y12.890 Z4.999 
G1 X3.003 Y12.890 Z4.999 
G1 X3.003 Y12.893 Z4.999 
G1 X12.997 Y12.893 Z4.999 
G1 X12.997 Y12.895 Z4.999 
G1 X3.003 Y12.895 Z4.999 
G1 X3.003 Y12.898 Z4.999 
G1 X12.997 Y12.898 Z4.999 
G1 X12.997 Y12.900 Z4.999 
G1 X3.003 Y12.900 Z4.999 
G1 X3.003 Y12.903 Z4.999 
G1 X12.997 Y12.903 Z4.999 
G1 X12.997 Y12.905 Z4.999 
G1 X3.003 Y12.905 Z4.999 
G1 X3.003 Y12.908 Z4.999 
G1 X12.997 Y12.908 Z4.999 
G1 X12.997 Y12.910 Z4.999 
G1 X3.003 Y12.910 Z4.999 
G1 X3.003 Y12.913 Z4.999 
G1 X12.997 Y12.913 Z4.999 
G1 X12.997 Y12.915 Z4.999 
G1 X3.003 Y12.915 Z4.999 
G1 X3.003 Y12.918 Z4.999 
G1 X12.997 Y12.918 Z4.999 
G1 X12.997 Y12.920 Z4.999 
G1 X3.003 Y12.920 Z4.999 
G1 X3.003 Y12.923 Z4.999 
G1 X12.997 Y12.923 Z4.999 
G1 X12.997 Y12.925 Z4.999 
G1 X3.003 Y12.925 Z4.999 
G1 X3.003 Y12.928 Z4.999 
G1 X12.997 Y12.928 Z4.999 
G1 X12.997 Y12.930 Z4.999 
G1 X3.003 Y12.930 Z4.999 
G1 X3.003 Y12.933 Z4.999 
G1 X12.997 Y12.933 Z4.999 
G1 X12.997 Y12.935 Z4.999 
G1 X3.003 Y12.935 Z4.999 
G1 X3.003 Y12.938 Z4.999 
G1 X12.997 Y12.938 Z4.999 
G1 X12.997 Y12.940 Z4.999 
G1 X3.003 Y12.940 Z4.999 
G1 X3.003 Y12.943 Z4.999 
G1 X12.997 Y12.943 Z4.999 
G1 X12.997 Y12.945 Z4.999 
G1 X3.003 Y12.945 Z4.999 
G1 X3.003 Y12.948 Z4.999 
G1 X12.997 Y12.948 Z4.999 
G1 X12.997 Y12.950 Z4.999 
G1 X3.003 Y12.950 Z4.999 
G1 X3.003 Y12.953 Z4.999 
G1 X12.997 Y12.953 Z4.999 
G1 X12.997 Y12.955 Z4.999 
G1 X3.003 Y12.955 Z4.999 
G1 X3.003 Y12.958 Z4.999 
G1 X12.997 Y12.958 Z4.999 
G1 X12.997 Y12.960 Z4.999 
G1 X3.003 Y12.960 Z4.999 
G1 X3.003 Y12.963 Z4.999 
G1 X12.997 Y12.963 Z4.999 
G1 X12.997 Y12.965 Z4.999 
G1 X3.003 Y12.965 Z4.999 
G1 X3.003 Y12.968 Z4.999 
G1 X12.997 Y12.968 Z4.999 
G1 X12.997 Y12.970 Z4.999 
G1 X3.003 Y12.970 Z4.999 
G1 X3.003 Y12.973 Z4.999 
G1 X12.997 Y12.973 Z4.999 
G1 X12.997 Y12.975 Z4.999 
G1 X3.003 Y12.975 Z4.999 
G1 X3.003 Y12.978 Z4.999 
G1 X12.997 Y12.978 Z4.999 
G1 X12.997 Y12.980 Z4.999 
G1 X3.003 Y12.980 Z4.999 
G1 X3.003 Y12.983 Z4.999 
G1 X12.997 Y12.983 Z4.999 
G1 X12.997 Y12.985 Z4.999 
G1 X3.003 Y12.985 Z4.999 
G1 X3.003 Y12.988 Z4.999 
G1 X12.997 Y12.988 Z4.999 
G1 X12.997 Y12.990 Z4.999 
G1 X3.003 Y12.990 Z4.999 
G1 X3.003 Y12.993 Z4.999 
G1 X12.997 Y12.993 Z4.999 
G1 X12.997 Y12.995 Z4.999 
G1 X3.003 Y12.995 Z4.999 
G1 X3.003 Y12.998 Z4.999 
G1 X12.997 Y12.998 Z4.999 
G1 X12.997 Y13.000 Z4.999 
G1 X3.003 Y13.000 Z4.999 
G1 X3.003 Y13.003 Z4.999 
G1 X12.997 Y13.003 Z4.999 
G1 X12.997 Y13.005 Z4.999 
G1 X3.003 Y13.005 Z4.999 
G1 X3.003 Y13.008 Z4.999 
G1 X12.997 Y13.008 Z4.999 
G1 X12.997 Y13.010 Z4.999 
G1 X3.003 Y13.010 Z4.999 
G1 X3.003 Y13.013 Z4.999 
G1 X12.997 Y13.013 Z4.999 
G1 X12.997 Y13.015 Z4.999 
G1 X3.003 Y13.015 Z4.999 
G1 X3.003 Y13.018 Z4.999 
G1 X12.997 Y13.018 Z4.999 
G1 X12.997 Y13.020 Z4.999 
G1 X3.003 Y13.020 Z4.999 
G1 X3.003 Y13.023 Z4.999 
G1 X12.997 Y13.023 Z4.999 
G1 X12.997 Y13.025 Z4.999 
G1 X3.003 Y13.025 Z4.999 
G1 X3.003 Y13.028 Z4.999 
G1 X12.997 Y13.028 Z4.999 
G1 X12.997 Y13.030 Z4.999 
G1 X3.003 Y13.030 Z4.999 
G1 X3.003 Y13.033 Z4.999 
G1 X12.997 Y13.033 Z4.999 
G1 X12.997 Y13.035 Z4.999 
G1 X3.003 Y13.035 Z4.999 
G1 X3.003 Y13.038 Z4.999 
G1 X12.997 Y13.038 Z4.999 
G1 X12.997 Y13.040 Z4.999 
G1 X3.003 Y13.040 Z4.999 
G1 X3.003 Y13.043 Z4.999 
G1 X12.997 Y13.043 Z4.999 
G1 X12.997 Y13.045 Z4.999 
G1 X3.003 Y13.045 Z4.999 
G1 X3.003 Y13.048 Z4.999 
G1 X12.997 Y13.048 Z4.999 
G1 X12.997 Y13.050 Z4.999 
G1 X3.003 Y13.050 Z4.999 
G1 X3.003 Y13.053 Z4.999 
G1 X12.997 Y13.053 Z4.999 
G1 X12.997 Y13.055 Z4.999 
G1 X3.003 Y13.055 Z4.999 
G1 X3.003 Y13.058 Z4.999 
G1 X12.997 Y13.058 Z4.999 
G1 X12.997 Y13.060 Z4.999 
G1 X3.003 Y13.060 Z4.999 
G1 X3.003 Y13.063 Z4.999 
G1 X12.997 Y13.063 Z4.999 
G1 X12.997 Y13.065 Z4.999 
G1 X3.003 Y13.065 Z4.999 
G1 X3.003 Y13.068 Z4.999 
G1 X12.997 Y13.068 Z4.999 
G1 X12.997 Y13.070 Z4.999 
G1 X3.003 Y13.070 Z4.999 
G1 X3.003 Y13.073 Z4.999 
G1 X12.997 Y13.073 Z4.999 
G1 X12.997 Y13.075 Z4.999 
G1 X3.003 Y13.075 Z4.999 
G1 X3.003 Y13.078 Z4.999 
G1 X12.997 Y13.078 Z4.999 
G1 X12.997 Y13.080 Z4.999 
G1 X3.003 Y13.080 Z4.999 
G1 X3.003 Y13.083 Z4.999 
G1 X12.997 Y13.083 Z4.999 
G1 X12.997 Y13.085 Z4.999 
G1 X3.003 Y13.085 Z4.999 
G1 X3.003 Y13.088 Z4.999 
G1 X12.997 Y13.088 Z4.999 
G1 X12.997 Y13.090 Z4.999 
G1 X3.003 Y13.090 Z4.999 
G1 X3.003 Y13.093 Z4.999 
G1 X12.997 Y13.093 Z4.999 
G1 X12.997 Y13.095 Z4.999 
G1 X3.003 Y13.095 Z4.999 
G1 X3.003 Y13.098 Z4.999 
G1 X12.997 Y13.098 Z4.999 
G1 X12.997 Y13.100 Z4.999 
G1 X3.003 Y13.100 Z4.999 
G1 X3.003 Y13.103 Z4.999 
G1 X12.997 Y13.103 Z4.999 
G1 X12.997 Y13.105 Z4.999 
G1 X3.003 Y13.105 Z4.999 
G1 X3.003 Y13.108 Z4.999 
G1 X12.997 Y13.108 Z4.999 
G1 X12.997 Y13.110 Z4.999 
G1 X3.003 Y13.110 Z4.999 
G1 X3.003 Y13.113 Z4.999 
G1 X12.997 Y13.113 Z4.999 
G1 X12.997 Y13.115 Z4.999 
G1 X3.003 Y13.115 Z4.999 
G1 X3.003 Y13.118 Z4.999 
G1 X12.997 Y13.118 Z4.999 
G1 X12.997 Y13.120 Z4.999 
G1 X3.003 Y13.120 Z4.999 
G1 X3.003 Y13.123 Z4.999 
G1 X12.997 Y13.123 Z4.999 
G1 X12.997 Y13.125 Z4.999 
G1 X3.003 Y13.125 Z4.999 
G1 X3.003 Y13.128 Z4.999 
G1 X12.997 Y13.128 Z4.999 
G1 X12.997 Y13.130 Z4.999 
G1 X3.003 Y13.130 Z4.999 
G1 X3.003 Y13.133 Z4.999 
G1 X12.997 Y13.133 Z4.999 
G1 X12.997 Y13.135 Z4.999 
G1 X3.003 Y13.135 Z4.999 
G1 X3.003 Y13.138 Z4.999 
G1 X12.997 Y13.138 Z4.999 
G1 X12.997 Y13.140 Z4.999 
G1 X3.003 Y13.140 Z4.999 
G1 X3.003 Y13.143 Z4.999 
G1 X12.997 Y13.143 Z4.999 
G1 X12.997 Y13.145 Z4.999 
G1 X3.003 Y13.145 Z4.999 
G1 X3.003 Y13.148 Z4.999 
G1 X12.997 Y13.148 Z4.999 
G1 X12.997 Y13.150 Z4.999 
G1 X3.003 Y13.150 Z4.999 
G1 X3.003 Y13.153 Z4.999 
G1 X12.997 Y13.153 Z4.999 
G1 X12.997 Y13.155 Z4.999 
G1 X3.003 Y13.155 Z4.999 
G1 X3.003 Y13.158 Z4.999 
G1 X12.997 Y13.158 Z4.999 
G1 X12.997 Y13.160 Z4.999 
G1 X3.003 Y13.160 Z4.999 
G1 X3.003 Y13.163 Z4.999 
G1 X12.997 Y13.163 Z4.999 
G1 X12.997 Y13.165 Z4.999 
G1 X3.003 Y13.165 Z4.999 
G1 X3.003 Y13.168 Z4.999 
G1 X12.997 Y13.168 Z4.999 
G1 X12.997 Y13.170 Z4.999 
G1 X3.003 Y13.170 Z4.999 
G1 X3.003 Y13.173 Z4.999 
G1 X12.997 Y13.173 Z4.999 
G1 X12.997 Y13.175 Z4.999 
G1 X3.003 Y13.175 Z4.999 
G1 X3.003 Y13.178 Z4.999 
G1 X12.997 Y13.178 Z4.999 
G1 X12.997 Y13.180 Z4.999 
G1 X3.003 Y13.180 Z4.999 
G1 X3.003 Y13.183 Z4.999 
G1 X12.997 Y13.183 Z4.999 
G1 X12.997 Y13.185 Z4.999 
G1 X3.003 Y13.185 Z4.999 
G1 X3.003 Y13.188 Z4.999 
G1 X12.997 Y13.188 Z4.999 
G1 X12.997 Y13.190 Z4.999 
G1 X3.003 Y13.190 Z4.999 
G1 X3.003 Y13.193 Z4.999 
G1 X12.997 Y13.193 Z4.999 
G1 X12.997 Y13.195 Z4.999 
G1 X3.003 Y13.195 Z4.999 
G1 X3.003 Y13.198 Z4.999 
G1 X12.997 Y13.198 Z4.999 
G1 X12.997 Y13.200 Z4.999 
G1 X3.003 Y13.200 Z4.999 
G1 X3.003 Y13.203 Z4.999 
G1 X12.997 Y13.203 Z4.999 
G1 X12.997 Y13.205 Z4.999 
G1 X3.003 Y13.205 Z4.999 
G1 X3.003 Y13.208 Z4.999 
G1 X12.997 Y13.208 Z4.999 
G1 X12.997 Y13.210 Z4.999 
G1 X3.003 Y13.210 Z4.999 
G1 X3.003 Y13.213 Z4.999 
G1 X12.997 Y13.213 Z4.999 
G1 X12.997 Y13.215 Z4.999 
G1 X3.003 Y13.215 Z4.999 
G1 X3.003 Y13.218 Z4.999 
G1 X12.997 Y13.218 Z4.999 
G1 X12.997 Y13.220 Z4.999 
G1 X3.003 Y13.220 Z4.999 
G1 X3.003 Y13.223 Z4.999 
G1 X12.997 Y13.223 Z4.999 
G1 X12.997 Y13.225 Z4.999 
G1 X3.003 Y13.225 Z4.999 
G1 X3.003 Y13.228 Z4.999 
G1 X12.997 Y13.228 Z4.999 
G1 X12.997 Y13.230 Z4.999 
G1 X3.003 Y13.230 Z4.999 
G1 X3.003 Y13.233 Z4.999 
G1 X12.997 Y13.233 Z4.999 
G1 X12.997 Y13.235 Z4.999 
G1 X3.003 Y13.235 Z4.999 
G1 X3.003 Y13.238 Z4.999 
G1 X12.997 Y13.238 Z4.999 
G1 X12.997 Y13.240 Z4.999 
G1 X3.003 Y13.240 Z4.999 
G1 X3.003 Y13.243 Z4.999 
G1 X12.997 Y13.243 Z4.999 
G1 X12.997 Y13.245 Z4.999 
G1 X3.003 Y13.245 Z4.999 
G1 X3.003 Y13.248 Z4.999 
G1 X12.997 Y13.248 Z4.999 
G1 X12.997 Y13.250 Z4.999 
G1 X3.003 Y13.250 Z4.999 
G1 X3.003 Y13.253 Z4.999 
G1 X12.997 Y13.253 Z4.999 
G1 X12.997 Y13.255 Z4.999 
G1 X3.003 Y13.255 Z4.999 
G1 X3.003 Y13.258 Z4.999 
G1 X12.997 Y13.258 Z4.999 
G1 X12.997 Y13.260 Z4.999 
G1 X3.003 Y13.260 Z4.999 
G1 X3.003 Y13.263 Z4.999 
G1 X12.997 Y13.263 Z4.999 
G1 X12.997 Y13.265 Z4.999 
G1 X3.003 Y13.265 Z4.999 
G1 X3.003 Y13.268 Z4.999 
G1 X12.997 Y13.268 Z4.999 
G1 X12.997 Y13.270 Z4.999 
G1 X3.003 Y13.270 Z4.999 
G1 X3.003 Y13.273 Z4.999 
G1 X12.997 Y13.273 Z4.999 
G1 X12.997 Y13.275 Z4.999 
G1 X3.003 Y13.275 Z4.999 
G1 X3.003 Y13.278 Z4.999 
G1 X12.997 Y13.278 Z4.999 
G1 X12.997 Y13.280 Z4.999 
G1 X3.003 Y13.280 Z4.999 
G1 X3.003 Y13.283 Z4.999 
G1 X12.997 Y13.283 Z4.999 
G1 X12.997 Y13.285 Z4.999 
G1 X3.003 Y13.285 Z4.999 
G1 X3.003 Y13.288 Z4.999 
G1 X12.997 Y13.288 Z4.999 
G1 X12.997 Y13.290 Z4.999 
G1 X3.003 Y13.290 Z4.999 
G1 X3.003 Y13.293 Z4.999 
G1 X12.997 Y13.293 Z4.999 
G1 X12.997 Y13.295 Z4.999 
G1 X3.003 Y13.295 Z4.999 
G1 X3.003 Y13.298 Z4.999 
G1 X12.997 Y13.298 Z4.999 
G1 X12.997 Y13.300 Z4.999 
G1 X3.003 Y13.300 Z4.999 
G1 X3.003 Y13.303 Z4.999 
G1 X12.997 Y13.303 Z4.999 
G1 X12.997 Y13.305 Z4.999 
G1 X3.003 Y13.305 Z4.999 
G1 X3.003 Y13.308 Z4.999 
G1 X12.997 Y13.308 Z4.999 
G1 X12.997 Y13.310 Z4.999 
G1 X3.003 Y13.310 Z4.999 
G1 X3.003 Y13.313 Z4.999 
G1 X12.997 Y13.313 Z4.999 
G1 X12.997 Y13.315 Z4.999 
G1 X3.003 Y13.315 Z4.999 
G1 X3.003 Y13.318 Z4.999 
G1 X12.997 Y13.318 Z4.999 
G1 X12.997 Y13.320 Z4.999 
G1 X3.003 Y13.320 Z4.999 
G1 X3.003 Y13.323 Z4.999 
G1 X12.997 Y13.323 Z4.999 
G1 X12.997 Y13.325 Z4.999 
G1 X3.003 Y13.325 Z4.999 
G1 X3.003 Y13.328 Z4.999 
G1 X12.997 Y13.328 Z4.999 
G1 X12.997 Y13.330 Z4.999 
G1 X3.003 Y13.330 Z4.999 
G1 X3.003 Y13.333 Z4.999 
G1 X12.997 Y13.333 Z4.999 
G1 X12.997 Y13.335 Z4.999 
G1 X3.003 Y13.335 Z4.999 
G1 X3.003 Y13.338 Z4.999 
G1 X12.997 Y13.338 Z4.999 
G1 X12.997 Y13.340 Z4.999 
G1 X3.003 Y13.340 Z4.999 
G1 X3.003 Y13.343 Z4.999 
G1 X12.997 Y13.343 Z4.999 
G1 X12.997 Y13.345 Z4.999 
G1 X3.003 Y13.345 Z4.999 
G1 X3.003 Y13.348 Z4.999 
G1 X12.997 Y13.348 Z4.999 
G1 X12.997 Y13.350 Z4.999 
G1 X3.003 Y13.350 Z4.999 
G1 X3.003 Y13.353 Z4.999 
G1 X12.997 Y13.353 Z4.999 
G1 X12.997 Y13.355 Z4.999 
G1 X3.003 Y13.355 Z4.999 
G1 X3.003 Y13.358 Z4.999 
G1 X12.997 Y13.358 Z4.999 
G1 X12.997 Y13.360 Z4.999 
G1 X3.003 Y13.360 Z4.999 
G1 X3.003 Y13.363 Z4.999 
G1 X12.997 Y13.363 Z4.999 
G1 X12.997 Y13.365 Z4.999 
G1 X3.003 Y13.365 Z4.999 
G1 X3.003 Y13.368 Z4.999 
G1 X12.997 Y13.368 Z4.999 
G1 X12.997 Y13.370 Z4.999 
G1 X3.003 Y13.370 Z4.999 
G1 X3.003 Y13.373 Z4.999 
G1 X12.997 Y13.373 Z4.999 
G1 X12.997 Y13.375 Z4.999 
G1 X3.003 Y13.375 Z4.999 
G1 X3.003 Y13.378 Z4.999 
G1 X12.997 Y13.378 Z4.999 
G1 X12.997 Y13.380 Z4.999 
G1 X3.003 Y13.380 Z4.999 
G1 X3.003 Y13.383 Z4.999 
G1 X12.997 Y13.383 Z4.999 
G1 X12.997 Y13.385 Z4.999 
G1 X3.003 Y13.385 Z4.999 
G1 X3.003 Y13.388 Z4.999 
G1 X12.997 Y13.388 Z4.999 
G1 X12.997 Y13.390 Z4.999 
G1 X3.003 Y13.390 Z4.999 
G1 X3.003 Y13.393 Z4.999 
G1 X12.997 Y13.393 Z4.999 
G1 X12.997 Y13.395 Z4.999 
G1 X3.003 Y13.395 Z4.999 
G1 X3.003 Y13.398 Z4.999 
G1 X12.997 Y13.398 Z4.999 
G1 X12.997 Y13.400 Z4.999 
G1 X3.003 Y13.400 Z4.999 
G1 X3.003 Y13.403 Z4.999 
G1 X12.997 Y13.403 Z4.999 
G1 X12.997 Y13.405 Z4.999 
G1 X3.003 Y13.405 Z4.999 
G1 X3.003 Y13.408 Z4.999 
G1 X12.997 Y13.408 Z4.999 
G1 X12.997 Y13.410 Z4.999 
G1 X3.003 Y13.410 Z4.999 
G1 X3.003 Y13.413 Z4.999 
G1 X12.997 Y13.413 Z4.999 
G1 X12.997 Y13.415 Z4.999 
G1 X3.003 Y13.415 Z4.999 
G1 X3.003 Y13.418 Z4.999 
G1 X12.997 Y13.418 Z4.999 
G1 X12.997 Y13.420 Z4.999 
G1 X3.003 Y13.420 Z4.999 
G1 X3.003 Y13.423 Z4.999 
G1 X12.997 Y13.423 Z4.999 
G1 X12.997 Y13.425 Z4.999 
G1 X3.003 Y13.425 Z4.999 
G1 X3.003 Y13.428 Z4.999 
G1 X12.997 Y13.428 Z4.999 
G1 X12.997 Y13.430 Z4.999 
G1 X3.003 Y13.430 Z4.999 
G1 X3.003 Y13.433 Z4.999 
G1 X12.997 Y13.433 Z4.999 
G1 X12.997 Y13.435 Z4.999 
G1 X3.003 Y13.435 Z4.999 
G1 X3.003 Y13.438 Z4.999 
G1 X12.997 Y13.438 Z4.999 
G1 X12.997 Y13.440 Z4.999 
G1 X3.003 Y13.440 Z4.999 
G1 X3.003 Y13.443 Z4.999 
G1 X12.997 Y13.443 Z4.999 
G1 X12.997 Y13.445 Z4.999 
G1 X3.003 Y13.445 Z4.999 
G1 X3.003 Y13.448 Z4.999 
G1 X12.997 Y13.448 Z4.999 
G1 X12.997 Y13.450 Z4.999 
G1 X3.003 Y13.450 Z4.999 
G1 X3.003 Y13.453 Z4.999 
G1 X12.997 Y13.453 Z4.999 
G1 X12.997 Y13.455 Z4.999 
G1 X3.003 Y13.455 Z4.999 
G1 X3.003 Y13.458 Z4.999 
G1 X12.997 Y13.458 Z4.999 
G1 X12.997 Y13.460 Z4.999 
G1 X3.003 Y13.460 Z4.999 
G1 X3.003 Y13.463 Z4.999 
G1 X12.997 Y13.463 Z4.999 
G1 X12.997 Y13.465 Z4.999 
G1 X3.003 Y13.465 Z4.999 
G1 X3.003 Y13.468 Z4.999 
G1 X12.997 Y13.468 Z4.999 
G1 X12.997 Y13.470 Z4.999 
G1 X3.003 Y13.470 Z4.999 
G1 X3.003 Y13.473 Z4.999 
G1 X12.997 Y13.473 Z4.999 
G1 X12.997 Y13.475 Z4.999 
G1 X3.003 Y13.475 Z4.999 
G1 X3.003 Y13.478 Z4.999 
G1 X12.997 Y13.478 Z4.999 
G1 X12.997 Y13.480 Z4.999 
G1 X3.003 Y13.480 Z4.999 
G1 X3.003 Y13.483 Z4.999 
G1 X12.997 Y13.483 Z4.999 
G1 X12.997 Y13.485 Z4.999 
G1 X3.003 Y13.485 Z4.999 
G1 X3.003 Y13.488 Z4.999 
G1 X12.997 Y13.488 Z4.999 
G1 X12.997 Y13.490 Z4.999 
G1 X3.003 Y13.490 Z4.999 
G1 X3.003 Y13.493 Z4.999 
G1 X12.997 Y13.493 Z4.999 
G1 X12.997 Y13.495 Z4.999 
G1 X3.003 Y13.495 Z4.999 
G1 X3.003 Y13.498 Z4.999 
G1 X12.997 Y13.498 Z4.999 
G1 X12.997 Y13.500 Z4.999 
G1 X3.003 Y13.500 Z4.999 
G1 X3.003 Y13.503 Z4.999 
G1 X12.997 Y13.503 Z4.999 
G1 X12.997 Y13.505 Z4.999 
G1 X3.003 Y13.505 Z4.999 
G1 X3.003 Y13.508 Z4.999 
G1 X12.997 Y13.508 Z4.999 
G1 X12.997 Y13.510 Z4.999 
G1 X3.003 Y13.510 Z4.999 
G1 X3.003 Y13.513 Z4.999 
G1 X12.997 Y13.513 Z4.999 
G1 X12.997 Y13.515 Z4.999 
G1 X3.003 Y13.515 Z4.999 
G1 X3.003 Y13.518 Z4.999 
G1 X12.997 Y13.518 Z4.999 
G1 X12.997 Y13.520 Z4.999 
G1 X3.003 Y13.520 Z4.999 
G1 X3.003 Y13.523 Z4.999 
G1 X12.997 Y13.523 Z4.999 
G1 X12.997 Y13.525 Z4.999 
G1 X3.003 Y13.525 Z4.999 
G1 X3.003 Y13.528 Z4.999 
G1 X12.997 Y13.528 Z4.999 
G1 X12.997 Y13.530 Z4.999 
G1 X3.003 Y13.530 Z4.999 
G1 X3.003 Y13.533 Z4.999 
G1 X12.997 Y13.533 Z4.999 
G1 X12.997 Y13.535 Z4.999 
G1 X3.003 Y13.535 Z4.999 
G1 X3.003 Y13.538 Z4.999 
G1 X12.997 Y13.538 Z4.999 
G1 X12.997 Y13.540 Z4.999 
G1 X3.003 Y13.540 Z4.999 
G1 X3.003 Y13.543 Z4.999 
G1 X12.997 Y13.543 Z4.999 
G1 X12.997 Y13.545 Z4.999 
G1 X3.003 Y13.545 Z4.999 
G1 X3.003 Y13.548 Z4.999 
G1 X12.997 Y13.548 Z4.999 
G1 X12.997 Y13.550 Z4.999 
G1 X3.003 Y13.550 Z4.999 
G1 X3.003 Y13.553 Z4.999 
G1 X12.997 Y13.553 Z4.999 
G1 X12.997 Y13.555 Z4.999 
G1 X3.003 Y13.555 Z4.999 
G1 X3.003 Y13.558 Z4.999 
G1 X12.997 Y13.558 Z4.999 
G1 X12.997 Y13.560 Z4.999 
G1 X3.003 Y13.560 Z4.999 
G1 X3.003 Y13.563 Z4.999 
G1 X12.997 Y13.563 Z4.999 
G1 X12.997 Y13.565 Z4.999 
G1 X3.003 Y13.565 Z4.999 
G1 X3.003 Y13.568 Z4.999 
G1 X12.997 Y13.568 Z4.999 
G1 X12.997 Y13.570 Z4.999 
G1 X3.003 Y13.570 Z4.999 
G1 X3.003 Y13.573 Z4.999 
G1 X12.997 Y13.573 Z4.999 
G1 X12.997 Y13.575 Z4.999 
G1 X3.003 Y13.575 Z4.999 
G1 X3.003 Y13.578 Z4.999 
G1 X12.997 Y13.578 Z4.999 
G1 X12.997 Y13.580 Z4.999 
G1 X3.003 Y13.580 Z4.999 
G1 X3.003 Y13.583 Z4.999 
G1 X12.997 Y13.583 Z4.999 
G1 X12.997 Y13.585 Z4.999 
G1 X3.003 Y13.585 Z4.999 
G1 X3.003 Y13.588 Z4.999 
G1 X12.997 Y13.588 Z4.999 
G1 X12.997 Y13.590 Z4.999 
G1 X3.003 Y13.590 Z4.999 
G1 X3.003 Y13.593 Z4.999 
G1 X12.997 Y13.593 Z4.999 
G1 X12.997 Y13.595 Z4.999 
G1 X3.003 Y13.595 Z4.999 
G1 X3.003 Y13.598 Z4.999 
G1 X12.997 Y13.598 Z4.999 
G1 X12.997 Y13.600 Z4.999 
G1 X3.003 Y13.600 Z4.999 
G1 X3.003 Y13.603 Z4.999 
G1 X12.997 Y13.603 Z4.999 
G1 X12.997 Y13.605 Z4.999 
G1 X3.003 Y13.605 Z4.999 
G1 X3.003 Y13.608 Z4.999 
G1 X12.997 Y13.608 Z4.999 
G1 X12.997 Y13.610 Z4.999 
G1 X3.003 Y13.610 Z4.999 
G1 X3.003 Y13.613 Z4.999 
G1 X12.997 Y13.613 Z4.999 
G1 X12.997 Y13.615 Z4.999 
G1 X3.003 Y13.615 Z4.999 
G1 X3.003 Y13.618 Z4.999 
G1 X12.997 Y13.618 Z4.999 
G1 X12.997 Y13.620 Z4.999 
G1 X3.003 Y13.620 Z4.999 
G1 X3.003 Y13.623 Z4.999 
G1 X12.997 Y13.623 Z4.999 
G1 X12.997 Y13.625 Z4.999 
G1 X3.003 Y13.625 Z4.999 
G1 X3.003 Y13.628 Z4.999 
G1 X12.997 Y13.628 Z4.999 
G1 X12.997 Y13.630 Z4.999 
G1 X3.003 Y13.630 Z4.999 
G1 X3.003 Y13.633 Z4.999 
G1 X12.997 Y13.633 Z4.999 
G1 X12.997 Y13.635 Z4.999 
G1 X3.003 Y13.635 Z4.999 
G1 X3.003 Y13.638 Z4.999 
G1 X12.997 Y13.638 Z4.999 
G1 X12.997 Y13.640 Z4.999 
G1 X3.003 Y13.640 Z4.999 
G1 X3.003 Y13.643 Z4.999 
G1 X12.997 Y13.643 Z4.999 
G1 X12.997 Y13.645 Z4.999 
G1 X3.003 Y13.645 Z4.999 
G1 X3.003 Y13.648 Z4.999 
G1 X12.997 Y13.648 Z4.999 
G1 X12.997 Y13.650 Z4.999 
G1 X3.003 Y13.650 Z4.999 
G1 X3.003 Y13.653 Z4.999 
G1 X12.997 Y13.653 Z4.999 
G1 X12.997 Y13.655 Z4.999 
G1 X3.003 Y13.655 Z4.999 
G1 X3.003 Y13.658 Z4.999 
G1 X12.997 Y13.658 Z4.999 
G1 X12.997 Y13.660 Z4.999 
G1 X3.003 Y13.660 Z4.999 
G1 X3.003 Y13.663 Z4.999 
G1 X12.997 Y13.663 Z4.999 
G1 X12.997 Y13.665 Z4.999 
G1 X3.003 Y13.665 Z4.999 
G1 X3.003 Y13.668 Z4.999 
G1 X12.997 Y13.668 Z4.999 
G1 X12.997 Y13.670 Z4.999 
G1 X3.003 Y13.670 Z4.999 
G1 X3.003 Y13.673 Z4.999 
G1 X12.997 Y13.673 Z4.999 
G1 X12.997 Y13.675 Z4.999 
G1 X3.003 Y13.675 Z4.999 
G1 X3.003 Y13.678 Z4.999 
G1 X12.997 Y13.678 Z4.999 
G1 X12.997 Y13.680 Z4.999 
G1 X3.003 Y13.680 Z4.999 
G1 X3.003 Y13.683 Z4.999 
G1 X12.997 Y13.683 Z4.999 
G1 X12.997 Y13.685 Z4.999 
G1 X3.003 Y13.685 Z4.999 
G1 X3.003 Y13.688 Z4.999 
G1 X12.997 Y13.688 Z4.999 
G1 X12.997 Y13.690 Z4.999 
G1 X3.003 Y13.690 Z4.999 
G1 X3.003 Y13.693 Z4.999 
G1 X12.997 Y13.693 Z4.999 
G1 X12.997 Y13.695 Z4.999 
G1 X3.003 Y13.695 Z4.999 
G1 X3.003 Y13.698 Z4.999 
G1 X12.997 Y13.698 Z4.999 
G1 X12.997 Y13.700 Z4.999 
G1 X3.003 Y13.700 Z4.999 
G1 X3.003 Y13.703 Z4.999 
G1 X12.997 Y13.703 Z4.999 
G1 X12.997 Y13.705 Z4.999 
G1 X3.003 Y13.705 Z4.999 
G1 X3.003 Y13.708 Z4.999 
G1 X12.997 Y13.708 Z4.999 
G1 X12.997 Y13.710 Z4.999 
G1 X3.003 Y13.710 Z4.999 
G1 X3.003 Y13.713 Z4.999 
G1 X12.997 Y13.713 Z4.999 
G1 X12.997 Y13.715 Z4.999 
G1 X3.003 Y13.715 Z4.999 
G1 X3.003 Y13.718 Z4.999 
G1 X12.997 Y13.718 Z4.999 
G1 X12.997 Y13.720 Z4.999 
G1 X3.003 Y13.720 Z4.999 
G1 X3.003 Y13.723 Z4.999 
G1 X12.997 Y13.723 Z4.999 
G1 X12.997 Y13.725 Z4.999 
G1 X3.003 Y13.725 Z4.999 
G1 X3.003 Y13.728 Z4.999 
G1 X12.997 Y13.728 Z4.999 
G1 X12.997 Y13.730 Z4.999 
G1 X3.003 Y13.730 Z4.999 
G1 X3.003 Y13.733 Z4.999 
G1 X12.997 Y13.733 Z4.999 
G1 X12.997 Y13.735 Z4.999 
G1 X3.003 Y13.735 Z4.999 
G1 X3.003 Y13.738 Z4.999 
G1 X12.997 Y13.738 Z4.999 
G1 X12.997 Y13.740 Z4.999 
G1 X3.003 Y13.740 Z4.999 
G1 X3.003 Y13.743 Z4.999 
G1 X12.997 Y13.743 Z4.999 
G1 X12.997 Y13.745 Z4.999 
G1 X3.003 Y13.745 Z4.999 
G1 X3.003 Y13.748 Z4.999 
G1 X12.997 Y13.748 Z4.999 
G1 X12.997 Y13.750 Z4.999 
G1 X3.003 Y13.750 Z4.999 
G1 X3.003 Y13.753 Z4.999 
G1 X12.997 Y13.753 Z4.999 
G1 X12.997 Y13.755 Z4.999 
G1 X3.003 Y13.755 Z4.999 
G1 X3.003 Y13.758 Z4.999 
G1 X12.997 Y13.758 Z4.999 
G1 X12.997 Y13.760 Z4.999 
G1 X3.003 Y13.760 Z4.999 
G1 X3.003 Y13.763 Z4.999 
G1 X12.997 Y13.763 Z4.999 
G1 X12.997 Y13.765 Z4.999 
G1 X3.003 Y13.765 Z4.999 
G1 X3.003 Y13.768 Z4.999 
G1 X12.997 Y13.768 Z4.999 
G1 X12.997 Y13.770 Z4.999 
G1 X3.003 Y13.770 Z4.999 
G1 X3.003 Y13.773 Z4.999 
G1 X12.997 Y13.773 Z4.999 
G1 X12.997 Y13.775 Z4.999 
G1 X3.003 Y13.775 Z4.999 
G1 X3.003 Y13.778 Z4.999 
G1 X12.997 Y13.778 Z4.999 
G1 X12.997 Y13.780 Z4.999 
G1 X3.003 Y13.780 Z4.999 
G1 X3.003 Y13.783 Z4.999 
G1 X12.997 Y13.783 Z4.999 
G1 X12.997 Y13.785 Z4.999 
G1 X3.003 Y13.785 Z4.999 
G1 X3.003 Y13.788 Z4.999 
G1 X12.997 Y13.788 Z4.999 
G1 X12.997 Y13.790 Z4.999 
G1 X3.003 Y13.790 Z4.999 
G1 X3.003 Y13.793 Z4.999 
G1 X12.997 Y13.793 Z4.999 
G1 X12.997 Y13.795 Z4.999 
G1 X3.003 Y13.795 Z4.999 
G1 X3.003 Y13.798 Z4.999 
G1 X12.997 Y13.798 Z4.999 
G1 X12.997 Y13.800 Z4.999 
G1 X3.003 Y13.800 Z4.999 
G1 X3.003 Y13.803 Z4.999 
G1 X12.997 Y13.803 Z4.999 
G1 X12.997 Y13.805 Z4.999 
G1 X3.003 Y13.805 Z4.999 
G1 X3.003 Y13.808 Z4.999 
G1 X12.997 Y13.808 Z4.999 
G1 X12.997 Y13.810 Z4.999 
G1 X3.003 Y13.810 Z4.999 
G1 X3.003 Y13.813 Z4.999 
G1 X12.997 Y13.813 Z4.999 
G1 X12.997 Y13.815 Z4.999 
G1 X3.003 Y13.815 Z4.999 
G1 X3.003 Y13.818 Z4.999 
G1 X12.997 Y13.818 Z4.999 
G1 X12.997 Y13.820 Z4.999 
G1 X3.003 Y13.820 Z4.999 
G1 X3.003 Y13.823 Z4.999 
G1 X12.997 Y13.823 Z4.999 
G1 X12.997 Y13.825 Z4.999 
G1 X3.003 Y13.825 Z4.999 
G1 X3.003 Y13.828 Z4.999 
G1 X12.997 Y13.828 Z4.999 
G1 X12.997 Y13.830 Z4.999 
G1 X3.003 Y13.830 Z4.999 
G1 X3.003 Y13.833 Z4.999 
G1 X12.997 Y13.833 Z4.999 
G1 X12.997 Y13.835 Z4.999 
G1 X3.003 Y13.835 Z4.999 
G1 X3.003 Y13.838 Z4.999 
G1 X12.997 Y13.838 Z4.999 
G1 X12.997 Y13.840 Z4.999 
G1 X3.003 Y13.840 Z4.999 
G1 X3.003 Y13.843 Z4.999 
G1 X12.997 Y13.843 Z4.999 
G1 X12.997 Y13.845 Z4.999 
G1 X3.003 Y13.845 Z4.999 
G1 X3.003 Y13.848 Z4.999 
G1 X12.997 Y13.848 Z4.999 
G1 X12.997 Y13.850 Z4.999 
G1 X3.003 Y13.850 Z4.999 
G1 X3.003 Y13.853 Z4.999 
G1 X12.997 Y13.853 Z4.999 
G1 X12.997 Y13.855 Z4.999 
G1 X3.003 Y13.855 Z4.999 
G1 X3.003 Y13.858 Z4.999 
G1 X12.997 Y13.858 Z4.999 
G1 X12.997 Y13.860 Z4.999 
G1 X3.003 Y13.860 Z4.999 
G1 X3.003 Y13.863 Z4.999 
G1 X12.997 Y13.863 Z4.999 
G1 X12.997 Y13.865 Z4.999 
G1 X3.003 Y13.865 Z4.999 
G1 X3.003 Y13.868 Z4.999 
G1 X12.997 Y13.868 Z4.999 
G1 X12.997 Y13.870 Z4.999 
G1 X3.003 Y13.870 Z4.999 
G1 X3.003 Y13.873 Z4.999 
G1 X12.997 Y13.873 Z4.999 
G1 X12.997 Y13.875 Z4.999 
G1 X3.003 Y13.875 Z4.999 
G1 X3.003 Y13.878 Z4.999 
G1 X12.997 Y13.878 Z4.999 
G1 X12.997 Y13.880 Z4.999 
G1 X3.003 Y13.880 Z4.999 
G1 X3.003 Y13.883 Z4.999 
G1 X12.997 Y13.883 Z4.999 
G1 X12.997 Y13.885 Z4.999 
G1 X3.003 Y13.885 Z4.999 
G1 X3.003 Y13.888 Z4.999 
G1 X12.997 Y13.888 Z4.999 
G1 X12.997 Y13.890 Z4.999 
G1 X3.003 Y13.890 Z4.999 
G1 X3.003 Y13.893 Z4.999 
G1 X12.997 Y13.893 Z4.999 
G1 X12.997 Y13.895 Z4.999 
G1 X3.003 Y13.895 Z4.999 
G1 X3.003 Y13.898 Z4.999 
G1 X12.997 Y13.898 Z4.999 
G1 X12.997 Y13.900 Z4.999 
G1 X3.003 Y13.900 Z4.999 
G1 X3.003 Y13.903 Z4.999 
G1 X12.997 Y13.903 Z4.999 
G1 X12.997 Y13.905 Z4.999 
G1 X3.003 Y13.905 Z4.999 
G1 X3.003 Y13.908 Z4.999 
G1 X12.997 Y13.908 Z4.999 
G1 X12.997 Y13.910 Z4.999 
G1 X3.003 Y13.910 Z4.999 
G1 X3.003 Y13.913 Z4.999 
G1 X12.997 Y13.913 Z4.999 
G1 X12.997 Y13.915 Z4.999 
G1 X3.003 Y13.915 Z4.999 
G1 X3.003 Y13.918 Z4.999 
G1 X12.997 Y13.918 Z4.999 
G1 X12.997 Y13.920 Z4.999 
G1 X3.003 Y13.920 Z4.999 
G1 X3.003 Y13.923 Z4.999 
G1 X12.997 Y13.923 Z4.999 
G1 X12.997 Y13.925 Z4.999 
G1 X3.003 Y13.925 Z4.999 
G1 X3.003 Y13.928 Z4.999 
G1 X12.997 Y13.928 Z4.999 
G1 X12.997 Y13.930 Z4.999 
G1 X3.003 Y13.930 Z4.999 
G1 X3.003 Y13.933 Z4.999 
G1 X12.997 Y13.933 Z4.999 
G1 X12.997 Y13.935 Z4.999 
G1 X3.003 Y13.935 Z4.999 
G1 X3.003 Y13.938 Z4.999 
G1 X12.997 Y13.938 Z4.999 
G1 X12.997 Y13.940 Z4.999 
G1 X3.003 Y13.940 Z4.999 
G1 X3.003 Y13.943 Z4.999 
G1 X12.997 Y13.943 Z4.999 
G1 X12.997 Y13.945 Z4.999 
G1 X3.003 Y13.945 Z4.999 
G1 X3.003 Y13.948 Z4.999 
G1 X12.997 Y13.948 Z4.999 
G1 X12.997 Y13.950 Z4.999 
G1 X3.003 Y13.950 Z4.999 
G1 X3.003 Y13.953 Z4.999 
G1 X12.997 Y13.953 Z4.999 
G1 X12.997 Y13.955 Z4.999 
G1 X3.003 Y13.955 Z4.999 
G1 X3.003 Y13.958 Z4.999 
G1 X12.997 Y13.958 Z4.999 
G1 X12.997 Y13.960 Z4.999 
G1 X3.003 Y13.960 Z4.999 
G1 X3.003 Y13.963 Z4.999 
G1 X12.997 Y13.963 Z4.999 
G1 X12.997 Y13.965 Z4.999 
G1 X3.003 Y13.965 Z4.999 
G1 X3.003 Y13.968 Z4.999 
G1 X12.997 Y13.968 Z4.999 
G1 X12.997 Y13.970 Z4.999 
G1 X3.003 Y13.970 Z4.999 
G1 X3.003 Y13.973 Z4.999 
G1 X12.997 Y13.973 Z4.999 
G1 X12.997 Y13.975 Z4.999 
G1 X3.003 Y13.975 Z4.999 
G1 X3.003 Y13.978 Z4.999 
G1 X12.997 Y13.978 Z4.999 
G1 X12.997 Y13.980 Z4.999 
G1 X3.003 Y13.980 Z4.999 
G1 X3.003 Y13.983 Z4.999 
G1 X12.997 Y13.983 Z4.999 
G1 X12.997 Y13.985 Z4.999 
G1 X3.003 Y13.985 Z4.999 
G1 X3.003 Y13.988 Z4.999 
G1 X12.997 Y13.988 Z4.999 
G1 X12.997 Y13.990 Z4.999 
G1 X3.003 Y13.990 Z4.999 
G1 X3.003 Y13.993 Z4.999 
G1 X12.997 Y13.993 Z4.999 
G1 X12.997 Y13.995 Z4.999 
G1 X3.003 Y13.995 Z4.999 
G1 X3.003 Y13.998 Z4.999 
G1 X12.997 Y13.998 Z4.999 
G1 X12.997 Y14.000 Z4.999 
G1 X3.003 Y14.000 Z4.999 
G1 X3.003 Y14.003 Z4.999 
G1 X12.997 Y14.003 Z4.999 
G1 X12.997 Y14.005 Z4.999 
G1 X3.003 Y14.005 Z4.999 
G1 X3.003 Y14.008 Z4.999 
G1 X12.997 Y14.008 Z4.999 
G1 X12.997 Y14.010 Z4.999 
G1 X3.003 Y14.010 Z4.999 
G1 X3.003 Y14.013 Z4.999 
G1 X12.997 Y14.013 Z4.999 
G1 X12.997 Y14.015 Z4.999 
G1 X3.003 Y14.015 Z4.999 
G1 X3.003 Y14.018 Z4.999 
G1 X12.997 Y14.018 Z4.999 
G1 X12.997 Y14.020 Z4.999 
G1 X3.003 Y14.020 Z4.999 
G1 X3.003 Y14.023 Z4.999 
G1 X12.997 Y14.023 Z4.999 
G1 X12.997 Y14.025 Z4.999 
G1 X3.003 Y14.025 Z4.999 
G1 X3.003 Y14.028 Z4.999 
G1 X12.997 Y14.028 Z4.999 
G1 X12.997 Y14.030 Z4.999 
G1 X3.003 Y14.030 Z4.999 
G1 X3.003 Y14.033 Z4.999 
G1 X12.997 Y14.033 Z4.999 
G1 X12.997 Y14.035 Z4.999 
G1 X3.003 Y14.035 Z4.999 
G1 X3.003 Y14.038 Z4.999 
G1 X12.997 Y14.038 Z4.999 
G1 X12.997 Y14.040 Z4.999 
G1 X3.003 Y14.040 Z4.999 
G1 X3.003 Y14.043 Z4.999 
G1 X12.997 Y14.043 Z4.999 
G1 X12.997 Y14.045 Z4.999 
G1 X3.003 Y14.045 Z4.999 
G1 X3.003 Y14.048 Z4.999 
G1 X12.997 Y14.048 Z4.999 
G1 X12.997 Y14.050 Z4.999 
G1 X3.003 Y14.050 Z4.999 
G1 X3.003 Y14.053 Z4.999 
G1 X12.997 Y14.053 Z4.999 
G1 X12.997 Y14.055 Z4.999 
G1 X3.003 Y14.055 Z4.999 
G1 X3.003 Y14.058 Z4.999 
G1 X12.997 Y14.058 Z4.999 
G1 X12.997 Y14.060 Z4.999 
G1 X3.003 Y14.060 Z4.999 
G1 X3.003 Y14.063 Z4.999 
G1 X12.997 Y14.063 Z4.999 
G1 X12.997 Y14.065 Z4.999 
G1 X3.003 Y14.065 Z4.999 
G1 X3.003 Y14.068 Z4.999 
G1 X12.997 Y14.068 Z4.999 
G1 X12.997 Y14.070 Z4.999 
G1 X3.003 Y14.070 Z4.999 
G1 X3.003 Y14.073 Z4.999 
G1 X12.997 Y14.073 Z4.999 
G1 X12.997 Y14.075 Z4.999 
G1 X3.003 Y14.075 Z4.999 
G1 X3.003 Y14.078 Z4.999 
G1 X12.997 Y14.078 Z4.999 
G1 X12.997 Y14.080 Z4.999 
G1 X3.003 Y14.080 Z4.999 
G1 X3.003 Y14.083 Z4.999 
G1 X12.997 Y14.083 Z4.999 
G1 X12.997 Y14.085 Z4.999 
G1 X3.003 Y14.085 Z4.999 
G1 X3.003 Y14.088 Z4.999 
G1 X12.997 Y14.088 Z4.999 
G1 X12.997 Y14.090 Z4.999 
G1 X3.003 Y14.090 Z4.999 
G1 X3.003 Y14.093 Z4.999 
G1 X12.997 Y14.093 Z4.999 
G1 X12.997 Y14.095 Z4.999 
G1 X3.003 Y14.095 Z4.999 
G1 X3.003 Y14.098 Z4.999 
G1 X12.997 Y14.098 Z4.999 
G1 X12.997 Y14.100 Z4.999 
G1 X3.003 Y14.100 Z4.999 
G1 X3.003 Y14.103 Z4.999 
G1 X12.997 Y14.103 Z4.999 
G1 X12.997 Y14.105 Z4.999 
G1 X3.003 Y14.105 Z4.999 
G1 X3.003 Y14.108 Z4.999 
G1 X12.997 Y14.108 Z4.999 
G1 X12.997 Y14.110 Z4.999 
G1 X3.003 Y14.110 Z4.999 
G1 X3.003 Y14.113 Z4.999 
G1 X12.997 Y14.113 Z4.999 
G1 X12.997 Y14.115 Z4.999 
G1 X3.003 Y14.115 Z4.999 
G1 X3.003 Y14.118 Z4.999 
G1 X12.997 Y14.118 Z4.999 
G1 X12.997 Y14.120 Z4.999 
G1 X3.003 Y14.120 Z4.999 
G1 X3.003 Y14.123 Z4.999 
G1 X12.997 Y14.123 Z4.999 
G1 X12.997 Y14.125 Z4.999 
G1 X3.003 Y14.125 Z4.999 
G1 X3.003 Y14.128 Z4.999 
G1 X12.997 Y14.128 Z4.999 
G1 X12.997 Y14.130 Z4.999 
G1 X3.003 Y14.130 Z4.999 
G1 X3.003 Y14.133 Z4.999 
G1 X12.997 Y14.133 Z4.999 
G1 X12.997 Y14.135 Z4.999 
G1 X3.003 Y14.135 Z4.999 
G1 X3.003 Y14.138 Z4.999 
G1 X12.997 Y14.138 Z4.999 
G1 X12.997 Y14.140 Z4.999 
G1 X3.003 Y14.140 Z4.999 
G1 X3.003 Y14.143 Z4.999 
G1 X12.997 Y14.143 Z4.999 
G1 X12.997 Y14.145 Z4.999 
G1 X3.003 Y14.145 Z4.999 
G1 X3.003 Y14.148 Z4.999 
G1 X12.997 Y14.148 Z4.999 
G1 X12.997 Y14.150 Z4.999 
G1 X3.003 Y14.150 Z4.999 
G1 X3.003 Y14.153 Z4.999 
G1 X12.997 Y14.153 Z4.999 
G1 X12.997 Y14.155 Z4.999 
G1 X3.003 Y14.155 Z4.999 
G1 X3.003 Y14.158 Z4.999 
G1 X12.997 Y14.158 Z4.999 
G1 X12.997 Y14.160 Z4.999 
G1 X3.003 Y14.160 Z4.999 
G1 X3.003 Y14.163 Z4.999 
G1 X12.997 Y14.163 Z4.999 
G1 X12.997 Y14.165 Z4.999 
G1 X3.003 Y14.165 Z4.999 
G1 X3.003 Y14.168 Z4.999 
G1 X12.997 Y14.168 Z4.999 
G1 X12.997 Y14.170 Z4.999 
G1 X3.003 Y14.170 Z4.999 
G1 X3.003 Y14.173 Z4.999 
G1 X12.997 Y14.173 Z4.999 
G1 X12.997 Y14.175 Z4.999 
G1 X3.003 Y14.175 Z4.999 
G1 X3.003 Y14.178 Z4.999 
G1 X12.997 Y14.178 Z4.999 
G1 X12.997 Y14.180 Z4.999 
G1 X3.003 Y14.180 Z4.999 
G1 X3.003 Y14.183 Z4.999 
G1 X12.997 Y14.183 Z4.999 
G1 X12.997 Y14.185 Z4.999 
G1 X3.003 Y14.185 Z4.999 
G1 X3.003 Y14.188 Z4.999 
G1 X12.997 Y14.188 Z4.999 
G1 X12.997 Y14.190 Z4.999 
G1 X3.003 Y14.190 Z4.999 
G1 X3.003 Y14.193 Z4.999 
G1 X12.997 Y14.193 Z4.999 
G1 X12.997 Y14.195 Z4.999 
G1 X3.003 Y14.195 Z4.999 
G1 X3.003 Y14.198 Z4.999 
G1 X12.997 Y14.198 Z4.999 
G1 X12.997 Y14.200 Z4.999 
G1 X3.003 Y14.200 Z4.999 
G1 X3.003 Y14.203 Z4.999 
G1 X12.997 Y14.203 Z4.999 
G1 X12.997 Y14.205 Z4.999 
G1 X3.003 Y14.205 Z4.999 
G1 X3.003 Y14.208 Z4.999 
G1 X12.997 Y14.208 Z4.999 
G1 X12.997 Y14.210 Z4.999 
G1 X3.003 Y14.210 Z4.999 
G1 X3.003 Y14.213 Z4.999 
G1 X12.997 Y14.213 Z4.999 
G1 X12.997 Y14.215 Z4.999 
G1 X3.003 Y14.215 Z4.999 
G1 X3.003 Y14.218 Z4.999 
G1 X12.997 Y14.218 Z4.999 
G1 X12.997 Y14.220 Z4.999 
G1 X3.003 Y14.220 Z4.999 
G1 X3.003 Y14.223 Z4.999 
G1 X12.997 Y14.223 Z4.999 
G1 X12.997 Y14.225 Z4.999 
G1 X3.003 Y14.225 Z4.999 
G1 X3.003 Y14.228 Z4.999 
G1 X12.997 Y14.228 Z4.999 
G1 X12.997 Y14.230 Z4.999 
G1 X3.003 Y14.230 Z4.999 
G1 X3.003 Y14.233 Z4.999 
G1 X12.997 Y14.233 Z4.999 
G1 X12.997 Y14.235 Z4.999 
G1 X3.003 Y14.235 Z4.999 
G1 X3.003 Y14.238 Z4.999 
G1 X12.997 Y14.238 Z4.999 
G1 X12.997 Y14.240 Z4.999 
G1 X3.003 Y14.240 Z4.999 
G1 X3.003 Y14.243 Z4.999 
G1 X12.997 Y14.243 Z4.999 
G1 X12.997 Y14.245 Z4.999 
G1 X3.003 Y14.245 Z4.999 
G1 X3.003 Y14.248 Z4.999 
G1 X12.997 Y14.248 Z4.999 
G1 X12.997 Y14.250 Z4.999 
G1 X3.003 Y14.250 Z4.999 
G1 X3.003 Y14.253 Z4.999 
G1 X12.997 Y14.253 Z4.999 
G1 X12.997 Y14.255 Z4.999 
G1 X3.003 Y14.255 Z4.999 
G1 X3.003 Y14.258 Z4.999 
G1 X12.997 Y14.258 Z4.999 
G1 X12.997 Y14.260 Z4.999 
G1 X3.003 Y14.260 Z4.999 
G1 X3.003 Y14.263 Z4.999 
G1 X12.997 Y14.263 Z4.999 
G1 X12.997 Y14.265 Z4.999 
G1 X3.003 Y14.265 Z4.999 
G1 X3.003 Y14.268 Z4.999 
G1 X12.997 Y14.268 Z4.999 
G1 X12.997 Y14.270 Z4.999 
G1 X3.003 Y14.270 Z4.999 
G1 X3.003 Y14.273 Z4.999 
G1 X12.997 Y14.273 Z4.999 
G1 X12.997 Y14.275 Z4.999 
G1 X3.003 Y14.275 Z4.999 
G1 X3.003 Y14.278 Z4.999 
G1 X12.997 Y14.278 Z4.999 
G1 X12.997 Y14.280 Z4.999 
G1 X3.003 Y14.280 Z4.999 
G1 X3.003 Y14.283 Z4.999 
G1 X12.997 Y14.283 Z4.999 
G1 X12.997 Y14.285 Z4.999 
G1 X3.003 Y14.285 Z4.999 
G1 X3.003 Y14.288 Z4.999 
G1 X12.997 Y14.288 Z4.999 
G1 X12.997 Y14.290 Z4.999 
G1 X3.003 Y14.290 Z4.999 
G1 X3.003 Y14.293 Z4.999 
G1 X12.997 Y14.293 Z4.999 
G1 X12.997 Y14.295 Z4.999 
G1 X3.003 Y14.295 Z4.999 
G1 X3.003 Y14.298 Z4.999 
G1 X12.997 Y14.298 Z4.999 
G1 X12.997 Y14.300 Z4.999 
G1 X3.003 Y14.300 Z4.999 
G1 X3.003 Y14.303 Z4.999 
G1 X12.997 Y14.303 Z4.999 
G1 X12.997 Y14.305 Z4.999 
G1 X3.003 Y14.305 Z4.999 
G1 X3.003 Y14.308 Z4.999 
G1 X12.997 Y14.308 Z4.999 
G1 X12.997 Y14.310 Z4.999 
G1 X3.003 Y14.310 Z4.999 
G1 X3.003 Y14.313 Z4.999 
G1 X12.997 Y14.313 Z4.999 
G1 X12.997 Y14.315 Z4.999 
G1 X3.003 Y14.315 Z4.999 
G1 X3.003 Y14.318 Z4.999 
G1 X12.997 Y14.318 Z4.999 
G1 X12.997 Y14.320 Z4.999 
G1 X3.003 Y14.320 Z4.999 
G1 X3.003 Y14.323 Z4.999 
G1 X12.997 Y14.323 Z4.999 
G1 X12.997 Y14.325 Z4.999 
G1 X3.003 Y14.325 Z4.999 
G1 X3.003 Y14.328 Z4.999 
G1 X12.997 Y14.328 Z4.999 
G1 X12.997 Y14.330 Z4.999 
G1 X3.003 Y14.330 Z4.999 
G1 X3.003 Y14.333 Z4.999 
G1 X12.997 Y14.333 Z4.999 
G1 X12.997 Y14.335 Z4.999 
G1 X3.003 Y14.335 Z4.999 
G1 X3.003 Y14.338 Z4.999 
G1 X12.997 Y14.338 Z4.999 
G1 X12.997 Y14.340 Z4.999 
G1 X3.003 Y14.340 Z4.999 
G1 X3.003 Y14.343 Z4.999 
G1 X12.997 Y14.343 Z4.999 
G1 X12.997 Y14.345 Z4.999 
G1 X3.003 Y14.345 Z4.999 
G1 X3.003 Y14.348 Z4.999 
G1 X12.997 Y14.348 Z4.999 
G1 X12.997 Y14.350 Z4.999 
G1 X3.003 Y14.350 Z4.999 
G1 X3.003 Y14.353 Z4.999 
G1 X12.997 Y14.353 Z4.999 
G1 X12.997 Y14.355 Z4.999 
G1 X3.003 Y14.355 Z4.999 
G1 X3.003 Y14.358 Z4.999 
G1 X12.997 Y14.358 Z4.999 
G1 X12.997 Y14.360 Z4.999 
G1 X3.003 Y14.360 Z4.999 
G1 X3.003 Y14.363 Z4.999 
G1 X12.997 Y14.363 Z4.999 
G1 X12.997 Y14.365 Z4.999 
G1 X3.003 Y14.365 Z4.999 
G1 X3.003 Y14.368 Z4.999 
G1 X12.997 Y14.368 Z4.999 
G1 X12.997 Y14.370 Z4.999 
G1 X3.003 Y14.370 Z4.999 
G1 X3.003 Y14.373 Z4.999 
G1 X12.997 Y14.373 Z4.999 
G1 X12.997 Y14.375 Z4.999 
G1 X3.003 Y14.375 Z4.999 
G1 X3.003 Y14.378 Z4.999 
G1 X12.997 Y14.378 Z4.999 
G1 X12.997 Y14.380 Z4.999 
G1 X3.003 Y14.380 Z4.999 
G1 X3.003 Y14.383 Z4.999 
G1 X12.997 Y14.383 Z4.999 
G1 X12.997 Y14.385 Z4.999 
G1 X3.003 Y14.385 Z4.999 
G1 X3.003 Y14.388 Z4.999 
G1 X12.997 Y14.388 Z4.999 
G1 X12.997 Y14.390 Z4.999 
G1 X3.003 Y14.390 Z4.999 
G1 X3.003 Y14.393 Z4.999 
G1 X12.997 Y14.393 Z4.999 
G1 X12.997 Y14.395 Z4.999 
G1 X3.003 Y14.395 Z4.999 
G1 X3.003 Y14.398 Z4.999 
G1 X12.997 Y14.398 Z4.999 
G1 X12.997 Y14.400 Z4.999 
G1 X3.003 Y14.400 Z4.999 
G1 X3.003 Y14.403 Z4.999 
G1 X12.997 Y14.403 Z4.999 
G1 X12.997 Y14.405 Z4.999 
G1 X3.003 Y14.405 Z4.999 
G1 X3.003 Y14.408 Z4.999 
G1 X12.997 Y14.408 Z4.999 
G1 X12.997 Y14.410 Z4.999 
G1 X3.003 Y14.410 Z4.999 
G1 X3.003 Y14.413 Z4.999 
G1 X12.997 Y14.413 Z4.999 
G1 X12.997 Y14.415 Z4.999 
G1 X3.003 Y14.415 Z4.999 
G1 X3.003 Y14.418 Z4.999 
G1 X12.997 Y14.418 Z4.999 
G1 X12.997 Y14.420 Z4.999 
G1 X3.003 Y14.420 Z4.999 
G1 X3.003 Y14.423 Z4.999 
G1 X12.997 Y14.423 Z4.999 
G1 X12.997 Y14.425 Z4.999 
G1 X3.003 Y14.425 Z4.999 
G1 X3.003 Y14.428 Z4.999 
G1 X12.997 Y14.428 Z4.999 
G1 X12.997 Y14.430 Z4.999 
G1 X3.003 Y14.430 Z4.999 
G1 X3.003 Y14.433 Z4.999 
G1 X12.997 Y14.433 Z4.999 
G1 X12.997 Y14.435 Z4.999 
G1 X3.003 Y14.435 Z4.999 
G1 X3.003 Y14.438 Z4.999 
G1 X12.997 Y14.438 Z4.999 
G1 X12.997 Y14.440 Z4.999 
G1 X3.003 Y14.440 Z4.999 
G1 X3.003 Y14.443 Z4.999 
G1 X12.997 Y14.443 Z4.999 
G1 X12.997 Y14.445 Z4.999 
G1 X3.003 Y14.445 Z4.999 
G1 X3.003 Y14.448 Z4.999 
G1 X12.997 Y14.448 Z4.999 
G1 X12.997 Y14.450 Z4.999 
G1 X3.003 Y14.450 Z4.999 
G1 X3.003 Y14.453 Z4.999 
G1 X12.997 Y14.453 Z4.999 
G1 X12.997 Y14.455 Z4.999 
G1 X3.003 Y14.455 Z4.999 
G1 X3.003 Y14.458 Z4.999 
G1 X12.997 Y14.458 Z4.999 
G1 X12.997 Y14.460 Z4.999 
G1 X3.003 Y14.460 Z4.999 
G1 X3.003 Y14.463 Z4.999 
G1 X12.997 Y14.463 Z4.999 
G1 X12.997 Y14.465 Z4.999 
G1 X3.003 Y14.465 Z4.999 
G1 X3.003 Y14.468 Z4.999 
G1 X12.997 Y14.468 Z4.999 
G1 X12.997 Y14.470 Z4.999 
G1 X3.003 Y14.470 Z4.999 
G1 X3.003 Y14.473 Z4.999 
G1 X12.997 Y14.473 Z4.999 
G1 X12.997 Y14.475 Z4.999 
G1 X3.003 Y14.475 Z4.999 
G1 X3.003 Y14.478 Z4.999 
G1 X12.997 Y14.478 Z4.999 
G1 X12.997 Y14.480 Z4.999 
G1 X3.003 Y14.480 Z4.999 
G1 X3.003 Y14.483 Z4.999 
G1 X12.997 Y14.483 Z4.999 
G1 X12.997 Y14.485 Z4.999 
G1 X3.003 Y14.485 Z4.999 
G1 X3.003 Y14.488 Z4.999 
G1 X12.997 Y14.488 Z4.999 
G1 X12.997 Y14.490 Z4.999 
G1 X3.003 Y14.490 Z4.999 
G1 X3.003 Y14.493 Z4.999 
G1 X12.997 Y14.493 Z4.999 
G1 X12.997 Y14.495 Z4.999 
G1 X3.003 Y14.495 Z4.999 
G1 X3.003 Y14.498 Z4.999 
G1 X12.997 Y14.498 Z4.999 
G1 X12.997 Y14.500 Z4.999 
G1 X3.003 Y14.500 Z4.999 
G1 X3.003 Y14.503 Z4.999 
G1 X12.997 Y14.503 Z4.999 
G1 X12.997 Y14.505 Z4.999 
G1 X3.003 Y14.505 Z4.999 
G1 X3.003 Y14.508 Z4.999 
G1 X12.997 Y14.508 Z4.999 
G1 X12.997 Y14.510 Z4.999 
G1 X3.003 Y14.510 Z4.999 
G1 X3.003 Y14.513 Z4.999 
G1 X12.997 Y14.513 Z4.999 
G1 X12.997 Y14.515 Z4.999 
G1 X3.003 Y14.515 Z4.999 
G1 X3.003 Y14.518 Z4.999 
G1 X12.997 Y14.518 Z4.999 
G1 X12.997 Y14.520 Z4.999 
G1 X3.003 Y14.520 Z4.999 
G1 X3.003 Y14.523 Z4.999 
G1 X12.997 Y14.523 Z4.999 
G1 X12.997 Y14.525 Z4.999 
G1 X3.003 Y14.525 Z4.999 
G1 X3.003 Y14.528 Z4.999 
G1 X12.997 Y14.528 Z4.999 
G1 X12.997 Y14.530 Z4.999 
G1 X3.003 Y14.530 Z4.999 
G1 X3.003 Y14.533 Z4.999 
G1 X12.997 Y14.533 Z4.999 
G1 X12.997 Y14.535 Z4.999 
G1 X3.003 Y14.535 Z4.999 
G1 X3.003 Y14.538 Z4.999 
G1 X12.997 Y14.538 Z4.999 
G1 X12.997 Y14.540 Z4.999 
G1 X3.003 Y14.540 Z4.999 
G1 X3.003 Y14.543 Z4.999 
G1 X12.997 Y14.543 Z4.999 
G1 X12.997 Y14.545 Z4.999 
G1 X3.003 Y14.545 Z4.999 
G1 X3.003 Y14.548 Z4.999 
G1 X12.997 Y14.548 Z4.999 
G1 X12.997 Y14.550 Z4.999 
G1 X3.003 Y14.550 Z4.999 
G1 X3.003 Y14.553 Z4.999 
G1 X12.997 Y14.553 Z4.999 
G1 X12.997 Y14.555 Z4.999 
G1 X3.003 Y14.555 Z4.999 
G1 X3.003 Y14.558 Z4.999 
G1 X12.997 Y14.558 Z4.999 
G1 X12.997 Y14.560 Z4.999 
G1 X3.003 Y14.560 Z4.999 
G1 X3.003 Y14.563 Z4.999 
G1 X12.997 Y14.563 Z4.999 
G1 X12.997 Y14.565 Z4.999 
G1 X3.003 Y14.565 Z4.999 
G1 X3.003 Y14.568 Z4.999 
G1 X12.997 Y14.568 Z4.999 
G1 X12.997 Y14.570 Z4.999 
G1 X3.003 Y14.570 Z4.999 
G1 X3.003 Y14.573 Z4.999 
G1 X12.997 Y14.573 Z4.999 
G1 X12.997 Y14.575 Z4.999 
G1 X3.003 Y14.575 Z4.999 
G1 X3.003 Y14.578 Z4.999 
G1 X12.997 Y14.578 Z4.999 
G1 X12.997 Y14.580 Z4.999 
G1 X3.003 Y14.580 Z4.999 
G1 X3.003 Y14.583 Z4.999 
G1 X12.997 Y14.583 Z4.999 
G1 X12.997 Y14.585 Z4.999 
G1 X3.003 Y14.585 Z4.999 
G1 X3.003 Y14.588 Z4.999 
G1 X12.997 Y14.588 Z4.999 
G1 X12.997 Y14.590 Z4.999 
G1 X3.003 Y14.590 Z4.999 
G1 X3.003 Y14.593 Z4.999 
G1 X12.997 Y14.593 Z4.999 
G1 X12.997 Y14.595 Z4.999 
G1 X3.003 Y14.595 Z4.999 
G1 X3.003 Y14.598 Z4.999 
G1 X12.997 Y14.598 Z4.999 
G1 X12.997 Y14.600 Z4.999 
G1 X3.003 Y14.600 Z4.999 
G1 X3.003 Y14.603 Z4.999 
G1 X12.997 Y14.603 Z4.999 
G1 X12.997 Y14.605 Z4.999 
G1 X3.003 Y14.605 Z4.999 
G1 X3.003 Y14.608 Z4.999 
G1 X12.997 Y14.608 Z4.999 
G1 X12.997 Y14.610 Z4.999 
G1 X3.003 Y14.610 Z4.999 
G1 X3.003 Y14.613 Z4.999 
G1 X12.997 Y14.613 Z4.999 
G1 X12.997 Y14.615 Z4.999 
G1 X3.003 Y14.615 Z4.999 
G1 X3.003 Y14.618 Z4.999 
G1 X12.997 Y14.618 Z4.999 
G1 X12.997 Y14.620 Z4.999 
G1 X3.003 Y14.620 Z4.999 
G1 X3.003 Y14.623 Z4.999 
G1 X12.997 Y14.623 Z4.999 
G1 X12.997 Y14.625 Z4.999 
G1 X3.003 Y14.625 Z4.999 
G1 X3.003 Y14.628 Z4.999 
G1 X12.997 Y14.628 Z4.999 
G1 X12.997 Y14.630 Z4.999 
G1 X3.003 Y14.630 Z4.999 
G1 X3.003 Y14.633 Z4.999 
G1 X12.997 Y14.633 Z4.999 
G1 X12.997 Y14.635 Z4.999 
G1 X3.003 Y14.635 Z4.999 
G1 X3.003 Y14.638 Z4.999 
G1 X12.997 Y14.638 Z4.999 
G1 X12.997 Y14.640 Z4.999 
G1 X3.003 Y14.640 Z4.999 
G1 X3.003 Y14.643 Z4.999 
G1 X12.997 Y14.643 Z4.999 
G1 X12.997 Y14.645 Z4.999 
G1 X3.003 Y14.645 Z4.999 
G1 X3.003 Y14.648 Z4.999 
G1 X12.997 Y14.648 Z4.999 
G1 X12.997 Y14.650 Z4.999 
G1 X3.003 Y14.650 Z4.999 
G1 X3.003 Y14.653 Z4.999 
G1 X12.997 Y14.653 Z4.999 
G1 X12.997 Y14.655 Z4.999 
G1 X3.003 Y14.655 Z4.999 
G1 X3.003 Y14.658 Z4.999 
G1 X12.997 Y14.658 Z4.999 
G1 X12.997 Y14.660 Z4.999 
G1 X3.003 Y14.660 Z4.999 
G1 X3.003 Y14.663 Z4.999 
G1 X12.997 Y14.663 Z4.999 
G1 X12.997 Y14.665 Z4.999 
G1 X3.003 Y14.665 Z4.999 
G1 X3.003 Y14.668 Z4.999 
G1 X12.997 Y14.668 Z4.999 
G1 X12.997 Y14.670 Z4.999 
G1 X3.003 Y14.670 Z4.999 
G1 X3.003 Y14.673 Z4.999 
G1 X12.997 Y14.673 Z4.999 
G1 X12.997 Y14.675 Z4.999 
G1 X3.003 Y14.675 Z4.999 
G1 X3.003 Y14.678 Z4.999 
G1 X12.997 Y14.678 Z4.999 
G1 X12.997 Y14.680 Z4.999 
G1 X3.003 Y14.680 Z4.999 
G1 X3.003 Y14.683 Z4.999 
G1 X12.997 Y14.683 Z4.999 
G1 X12.997 Y14.685 Z4.999 
G1 X3.003 Y14.685 Z4.999 
G1 X3.003 Y14.688 Z4.999 
G1 X12.997 Y14.688 Z4.999 
G1 X12.997 Y14.690 Z4.999 
G1 X3.003 Y14.690 Z4.999 
G1 X3.003 Y14.693 Z4.999 
G1 X12.997 Y14.693 Z4.999 
