MODULE Laserstrukturierung
PERS tooldata tLaserHead:=[TRUE,[[430,165,250],[0.5,0.5,-0.5,0.5]],[22,[-300,200,160],[1,0,0,0],0,0,0]];
CONST robtarget Target_1:=[[1347.0000000,0.0000000,1794.0000000], [1.0000000,0.0000000,0.0000000,0.0000000], [0,0,0,0], [9E9, 9E9, 9E9, 9E9, 9E9, 9E9]];
CONST robtarget Target_2:=[[1347.1820000,0.1350000,1793.6740000], [0.9999999,0.0005000,0.0000000,0.0000000], [0,0,0,0], [9E9, 9E9, 9E9, 9E9, 9E9, 9E9]];
CONST robtarget Target_3:=[[1347.6990000,0.8070000,1792.7990000], [0.9999989,0.0015000,0.0000000,0.0000000], [0,0,0,0], [9E9, 9E9, 9E9, 9E9, 9E9, 9E9]];
CONST robtarget Target_4:=[[1348.4500000,1.7450000,1791.4950000], [0.9999952,0.0030002,-0.0004985,0.0005015], [0,0,0,0], [9E9, 9E9, 9E9, 9E9, 9E9, 9E9]];
CONST robtarget Target_5:=[[1349.6550000,2.9450000,1789.4310000], [0.9999842,0.0055005,-0.0009972,0.0005055], [0,0,0,0], [9E9, 9E9, 9E9, 9E9, 9E9, 9E9]];
CONST robtarget Target_6:=[[1351.1100000,4.6700000,1786.7990000], [0.9999622,0.0085014,-0.0014914,0.0010127], [0,0,0,0], [9E9, 9E9, 9E9, 9E9, 9E9, 9E9]];
CONST robtarget Target_7:=[[1352.8520000,6.6430000,1783.7320000], [0.9999194,0.0125016,-0.0019873,0.0010249], [0,0,0,0], [9E9, 9E9, 9E9, 9E9, 9E9, 9E9]];
CONST robtarget Target_8:=[[1354.9510000,8.9880000,1779.9120000], [0.9998498,0.0170036,-0.0029741,0.0015508], [0,0,0,0], [9E9, 9E9, 9E9, 9E9, 9E9, 9E9]];
CONST robtarget Target_9:=[[1357.3150000,11.6960000,1775.6180000], [0.9997478,0.0220060,-0.0039550,0.0020875], [0,0,0,0], [9E9, 9E9, 9E9, 9E9, 9E9, 9E9]];
CONST robtarget Target_10:=[[1359.9830000,14.7530000,1770.6640000], [0.9996071,0.0275061,-0.0049431,0.0021367], [0,0,0,0], [9E9, 9E9, 9E9, 9E9, 9E9, 9E9]];
CONST robtarget Target_11:=[[1362.8460000,18.0090000,1765.1180000], [0.9994004,0.0340077,-0.0059115,0.0027025], [0,0,0,0], [9E9, 9E9, 9E9, 9E9, 9E9, 9E9]];
CONST robtarget Target_12:=[[1366.0500000,21.5830000,1758.8960000], [0.9991107,0.0415044,-0.0068902,0.0027882], [0,0,0,0], [9E9, 9E9, 9E9, 9E9, 9E9, 9E9]];
CONST robtarget Target_13:=[[1369.3870000,25.4530000,1752.1990000], [0.9987595,0.0489997,-0.0083672,0.0029132], [0,0,0,0], [9E9, 9E9, 9E9, 9E9, 9E9, 9E9]];
CONST robtarget Target_14:=[[1372.9310000,29.6060000,1744.8770000], [0.9982929,0.0574902,-0.0098396,0.0030704], [0,0,0,0], [9E9, 9E9, 9E9, 9E9, 9E9, 9E9]];
CONST robtarget Target_15:=[[1376.5570000,33.7690000,1737.0720000], [0.9977244,0.0664742,-0.0108093,0.0032253], [0,0,0,0], [9E9, 9E9, 9E9, 9E9, 9E9, 9E9]];
CONST robtarget Target_16:=[[1380.0800000,37.8310000,1729.2220000], [0.9970694,0.0754472,-0.0123132,0.0029370], [0,0,0,0], [9E9, 9E9, 9E9, 9E9, 9E9, 9E9]];
CONST robtarget Target_17:=[[1383.4970000,41.9400000,1721.2920000], [0.9963721,0.0839208,-0.0137824,0.0031673], [0,0,0,0], [9E9, 9E9, 9E9, 9E9, 9E9, 9E9]];
CONST robtarget Target_18:=[[1386.8130000,45.8080000,1713.3090000], [0.9955571,0.0928702,-0.0153395,0.0024349], [0,0,0,0], [9E9, 9E9, 9E9, 9E9, 9E9, 9E9]];
CONST robtarget Target_19:=[[1390.1090000,49.7240000,1705.1450000], [0.9947169,0.1013202,-0.0163637,0.0021692], [0,0,0,0], [9E9, 9E9, 9E9, 9E9, 9E9, 9E9]];
CONST robtarget Target_20:=[[1393.2150000,53.4080000,1697.0000000], [0.9937959,0.1097516,-0.0179451,0.0014790], [0,0,0,0], [9E9, 9E9, 9E9, 9E9, 9E9, 9E9]];
CONST robtarget Target_21:=[[1396.1950000,56.9930000,1688.8990000], [0.9928006,0.1181712,-0.0195393,0.0008160], [0,0,0,0], [9E9, 9E9, 9E9, 9E9, 9E9, 9E9]];
CONST robtarget Target_22:=[[1399.0810000,60.6380000,1680.5950000], [0.9917412,0.1265707,-0.0207133,-0.0003789], [0,0,0,0], [9E9, 9E9, 9E9, 9E9, 9E9, 9E9]];
CONST robtarget Target_23:=[[1401.8610000,64.0460000,1672.2210000], [0.9905981,0.1349648,-0.0223366,-0.0009907], [0,0,0,0], [9E9, 9E9, 9E9, 9E9, 9E9, 9E9]];
CONST robtarget Target_24:=[[1404.5310000,67.3730000,1663.7440000], [0.9893791,0.1433211,-0.0241150,-0.0025643], [0,0,0,0], [9E9, 9E9, 9E9, 9E9, 9E9, 9E9]];
CONST robtarget Target_25:=[[1407.0790000,70.7510000,1655.1920000], [0.9881736,0.1511841,-0.0253497,-0.0037020], [0,0,0,0], [9E9, 9E9, 9E9, 9E9, 9E9, 9E9]];
CONST robtarget Target_26:=[[1409.5200000,73.9130000,1646.5340000], [0.9868884,0.1590134,-0.0271768,-0.0052337], [0,0,0,0], [9E9, 9E9, 9E9, 9E9, 9E9, 9E9]];
CONST robtarget Target_27:=[[1411.9230000,76.9980000,1637.6860000], [0.9855486,0.1668328,-0.0285371,-0.0068199], [0,0,0,0], [9E9, 9E9, 9E9, 9E9, 9E9, 9E9]];
CONST robtarget Target_28:=[[1414.1050000,80.1450000,1628.9460000], [0.9841298,0.1746270,-0.0304161,-0.0082966], [0,0,0,0], [9E9, 9E9, 9E9, 9E9, 9E9, 9E9]];
CONST robtarget Target_29:=[[1416.1830000,83.0710000,1620.0130000], [0.9826444,0.1824021,-0.0323202,-0.0097435], [0,0,0,0], [9E9, 9E9, 9E9, 9E9, 9E9, 9E9]];
CONST robtarget Target_30:=[[1418.1290000,86.0750000,1610.9680000], [0.9811954,0.1896617,-0.0338477,-0.0117631], [0,0,0,0], [9E9, 9E9, 9E9, 9E9, 9E9, 9E9]];
CONST robtarget Target_31:=[[1419.9530000,88.8620000,1601.8360000], [0.9796729,0.1968903,-0.0358965,-0.0136610], [0,0,0,0], [9E9, 9E9, 9E9, 9E9, 9E9, 9E9]];
CONST robtarget Target_32:=[[1421.6470000,91.5880000,1592.6050000], [0.9780967,0.2040936,-0.0375883,-0.0161202], [0,0,0,0], [9E9, 9E9, 9E9, 9E9, 9E9, 9E9]];
CONST robtarget Target_33:=[[1423.1990000,94.3990000,1583.2580000], [0.9765594,0.2107913,-0.0396917,-0.0179794], [0,0,0,0], [9E9, 9E9, 9E9, 9E9, 9E9, 9E9]];
CONST robtarget Target_34:=[[1424.6960000,97.0070000,1573.7070000], [0.9748509,0.2179349,-0.0419412,-0.0202760], [0,0,0,0], [9E9, 9E9, 9E9, 9E9, 9E9, 9E9]];
CONST robtarget Target_35:=[[1425.9750000,99.5620000,1564.2640000], [0.9732083,0.2245867,-0.0437289,-0.0226748], [0,0,0,0], [9E9, 9E9, 9E9, 9E9, 9E9, 9E9]];
CONST robtarget Target_36:=[[1427.1030000,102.1990000,1554.6220000], [0.9716002,0.2306877,-0.0461397,-0.0254410], [0,0,0,0], [9E9, 9E9, 9E9, 9E9, 9E9, 9E9]];
CONST robtarget Target_37:=[[1428.0990000,104.6600000,1544.8710000], [0.9698379,0.2372730,-0.0484826,-0.0276667], [0,0,0,0], [9E9, 9E9, 9E9, 9E9, 9E9, 9E9]];
CONST robtarget Target_38:=[[1428.9420000,107.0610000,1535.0270000], [0.9681290,0.2433239,-0.0509646,-0.0303697], [0,0,0,0], [9E9, 9E9, 9E9, 9E9, 9E9, 9E9]];
CONST robtarget Target_39:=[[1429.6250000,109.5730000,1525.0720000], [0.9664790,0.2488389,-0.0535903,-0.0335507], [0,0,0,0], [9E9, 9E9, 9E9, 9E9, 9E9, 9E9]];
CONST robtarget Target_40:=[[1430.1590000,111.8940000,1515.0300000], [0.9646893,0.2548667,-0.0556634,-0.0363193], [0,0,0,0], [9E9, 9E9, 9E9, 9E9, 9E9, 9E9]];
CONST robtarget Target_41:=[[1430.5940000,114.3430000,1504.7680000], [0.9629468,0.2603295,-0.0583650,-0.0394394], [0,0,0,0], [9E9, 9E9, 9E9, 9E9, 9E9, 9E9]];
CONST robtarget Target_42:=[[1430.8080000,116.6040000,1494.6480000], [0.9611804,0.2657947,-0.0609712,-0.0420466], [0,0,0,0], [9E9, 9E9, 9E9, 9E9, 9E9, 9E9]];
CONST robtarget Target_43:=[[1430.8580000,118.8430000,1484.3110000], [0.9594624,0.2706906,-0.0638576,-0.0456141], [0,0,0,0], [9E9, 9E9, 9E9, 9E9, 9E9, 9E9]];
CONST robtarget Target_44:=[[1430.7230000,121.1900000,1473.8950000], [0.9577264,0.2755899,-0.0666447,-0.0486709], [0,0,0,0], [9E9, 9E9, 9E9, 9E9, 9E9, 9E9]];
CONST robtarget Target_45:=[[1430.4290000,123.3740000,1463.3920000], [0.9559364,0.2804211,-0.0699421,-0.0515533], [0,0,0,0], [9E9, 9E9, 9E9, 9E9, 9E9, 9E9]];
CONST robtarget Target_46:=[[1429.9630000,125.5520000,1452.7950000], [0.9542382,0.2847494,-0.0729096,-0.0550592], [0,0,0,0], [9E9, 9E9, 9E9, 9E9, 9E9, 9E9]];
CONST robtarget Target_47:=[[1429.3050000,127.8530000,1442.1330000], [0.9525031,0.2890484,-0.0759111,-0.0585350], [0,0,0,0], [9E9, 9E9, 9E9, 9E9, 9E9, 9E9]];
CONST robtarget Target_48:=[[1428.5420000,130.0170000,1431.2650000], [0.9507316,0.2933178,-0.0789461,-0.0619804], [0,0,0,0], [9E9, 9E9, 9E9, 9E9, 9E9, 9E9]];
CONST robtarget Target_49:=[[1427.5370000,132.1550000,1420.5520000], [0.9490581,0.2970323,-0.0824546,-0.0652826], [0,0,0,0], [9E9, 9E9, 9E9, 9E9, 9E9, 9E9]];
CONST robtarget Target_50:=[[1426.3300000,134.4420000,1409.6540000], [0.9473332,0.3007234,-0.0856690,-0.0691817], [0,0,0,0], [9E9, 9E9, 9E9, 9E9, 9E9, 9E9]];
CONST robtarget Target_51:=[[1424.9420000,136.5750000,1398.6990000], [0.9457474,0.3038987,-0.0891985,-0.0724647], [0,0,0,0], [9E9, 9E9, 9E9, 9E9, 9E9, 9E9]];
CONST robtarget Target_52:=[[1423.3580000,138.8700000,1387.6840000], [0.9441105,0.3070536,-0.0924351,-0.0763500], [0,0,0,0], [9E9, 9E9, 9E9, 9E9, 9E9, 9E9]];
CONST robtarget Target_53:=[[1421.5850000,141.0120000,1376.6130000], [0.9424287,0.3101167,-0.0961688,-0.0800463], [0,0,0,0], [9E9, 9E9, 9E9, 9E9, 9E9, 9E9]];
CONST robtarget Target_54:=[[1419.6230000,143.1760000,1365.4830000], [0.9408732,0.3126731,-0.0998863,-0.0837609], [0,0,0,0], [9E9, 9E9, 9E9, 9E9, 9E9, 9E9]];
CONST robtarget Target_55:=[[1417.4430000,145.4820000,1354.3150000], [0.9393045,0.3152609,-0.1031586,-0.0876128], [0,0,0,0], [9E9, 9E9, 9E9, 9E9, 9E9, 9E9]];
CONST robtarget Target_56:=[[1415.1530000,147.6850000,1343.0910000], [0.9378082,0.3172276,-0.1070332,-0.0917953], [0,0,0,0], [9E9, 9E9, 9E9, 9E9, 9E9, 9E9]];
CONST robtarget Target_57:=[[1412.5910000,149.8870000,1331.8570000], [0.9363317,0.3192121,-0.1107674,-0.0954834], [0,0,0,0], [9E9, 9E9, 9E9, 9E9, 9E9, 9E9]];
CONST robtarget Target_58:=[[1409.8090000,152.2470000,1320.5840000], [0.9347818,0.3211054,-0.1146792,-0.0996141], [0,0,0,0], [9E9, 9E9, 9E9, 9E9, 9E9, 9E9]];
CONST robtarget Target_59:=[[1406.8440000,154.5010000,1309.2810000], [0.9334177,0.3225534,-0.1183964,-0.1033106], [0,0,0,0], [9E9, 9E9, 9E9, 9E9, 9E9, 9E9]];
CONST robtarget Target_60:=[[1403.6690000,156.7690000,1297.9680000], [0.9319654,0.3238271,-0.1227502,-0.1072791], [0,0,0,0], [9E9, 9E9, 9E9, 9E9, 9E9, 9E9]];
CONST robtarget Target_61:=[[1400.2800000,159.2180000,1286.6370000], [0.9306636,0.3246764,-0.1265990,-0.1114591], [0,0,0,0], [9E9, 9E9, 9E9, 9E9, 9E9, 9E9]];
CONST robtarget Target_62:=[[1396.7000000,161.5500000,1275.3180000], [0.9293380,0.3254903,-0.1304569,-0.1156198], [0,0,0,0], [9E9, 9E9, 9E9, 9E9, 9E9, 9E9]];
CONST robtarget Target_63:=[[1392.9690000,164.0760000,1263.9750000], [0.9281392,0.3257156,-0.1347231,-0.1196524], [0,0,0,0], [9E9, 9E9, 9E9, 9E9, 9E9, 9E9]];
CONST robtarget Target_64:=[[1388.9720000,166.4730000,1252.6550000], [0.9269303,0.3259930,-0.1385335,-0.1238440], [0,0,0,0], [9E9, 9E9, 9E9, 9E9, 9E9, 9E9]];
CONST robtarget Target_65:=[[1384.7790000,168.9190000,1241.3430000], [0.9256862,0.3261411,-0.1428054,-0.1278421], [0,0,0,0], [9E9, 9E9, 9E9, 9E9, 9E9, 9E9]];
CONST robtarget Target_66:=[[1380.3550000,171.5320000,1230.0600000], [0.9245829,0.3257868,-0.1470133,-0.1318959], [0,0,0,0], [9E9, 9E9, 9E9, 9E9, 9E9, 9E9]];
CONST robtarget Target_67:=[[1375.7600000,174.0610000,1218.8080000], [0.9234699,0.3254945,-0.1507629,-0.1361148], [0,0,0,0], [9E9, 9E9, 9E9, 9E9, 9E9, 9E9]];
CONST robtarget Target_68:=[[1370.9470000,176.6200000,1207.5870000], [0.9224144,0.3245267,-0.1550585,-0.1406802], [0,0,0,0], [9E9, 9E9, 9E9, 9E9, 9E9, 9E9]];
CONST robtarget Target_69:=[[1365.9230000,179.3720000,1196.4000000], [0.9214044,0.3235966,-0.1591842,-0.1447740], [0,0,0,0], [9E9, 9E9, 9E9, 9E9, 9E9, 9E9]];
CONST robtarget Target_70:=[[1360.7450000,182.0310000,1185.1620000], [0.9205331,0.3221685,-0.1632278,-0.1489393], [0,0,0,0], [9E9, 9E9, 9E9, 9E9, 9E9, 9E9]];
CONST robtarget Target_71:=[[1355.3640000,184.7370000,1174.1810000], [0.9196381,0.3207037,-0.1672595,-0.1530985], [0,0,0,0], [9E9, 9E9, 9E9, 9E9, 9E9, 9E9]];
CONST robtarget Target_72:=[[1349.7530000,187.6300000,1163.1690000], [0.9187194,0.3192024,-0.1712788,-0.1572515], [0,0,0,0], [9E9, 9E9, 9E9, 9E9, 9E9, 9E9]];
CONST robtarget Target_73:=[[1343.9510000,190.4280000,1152.2220000], [0.9178417,0.3169993,-0.1758141,-0.1617637], [0,0,0,0], [9E9, 9E9, 9E9, 9E9, 9E9, 9E9]];
CONST robtarget Target_74:=[[1337.9490000,193.4210000,1141.3430000], [0.9170304,0.3149622,-0.1797212,-0.1659947], [0,0,0,0], [9E9, 9E9, 9E9, 9E9, 9E9, 9E9]];
CONST robtarget Target_75:=[[1331.7670000,196.3230000,1130.5510000], [0.9163502,0.3124317,-0.1835258,-0.1703145], [0,0,0,0], [9E9, 9E9, 9E9, 9E9, 9E9, 9E9]];
CONST robtarget Target_76:=[[1325.4110000,199.2870000,1119.8410000], [0.9156279,0.3097394,-0.1877566,-0.1744547], [0,0,0,0], [9E9, 9E9, 9E9, 9E9, 9E9, 9E9]];
CONST robtarget Target_77:=[[1318.8810000,202.4340000,1109.1390000], [0.9150454,0.3066800,-0.1914267,-0.1788717], [0,0,0,0], [9E9, 9E9, 9E9, 9E9, 9E9, 9E9]];
CONST robtarget Target_78:=[[1312.2050000,205.5160000,1098.7140000], [0.9144170,0.3034541,-0.1955168,-0.1831130], [0,0,0,0], [9E9, 9E9, 9E9, 9E9, 9E9, 9E9]];
CONST robtarget Target_79:=[[1305.3060000,208.6340000,1088.3110000], [0.9137568,0.3001895,-0.1995781,-0.1873587], [0,0,0,0], [9E9, 9E9, 9E9, 9E9, 9E9, 9E9]];
CONST robtarget Target_80:=[[1298.2270000,211.9470000,1078.0140000], [0.9132297,0.2965685,-0.2030690,-0.1918894], [0,0,0,0], [9E9, 9E9, 9E9, 9E9, 9E9, 9E9]];
CONST robtarget Target_81:=[[1290.9940000,215.1750000,1067.8420000], [0.9126513,0.2927741,-0.2069723,-0.1962484], [0,0,0,0], [9E9, 9E9, 9E9, 9E9, 9E9, 9E9]];
CONST robtarget Target_82:=[[1283.6200000,218.4660000,1057.7970000], [0.9122818,0.2885916,-0.2105970,-0.2002641], [0,0,0,0], [9E9, 9E9, 9E9, 9E9, 9E9, 9E9]];
CONST robtarget Target_83:=[[1276.0490000,221.9340000,1047.8790000], [0.9117744,0.2842693,-0.2143292,-0.2047472], [0,0,0,0], [9E9, 9E9, 9E9, 9E9, 9E9, 9E9]];
CONST robtarget Target_84:=[[1268.3710000,225.3370000,1037.9970000], [0.9113314,0.2800199,-0.2178821,-0.2087852], [0,0,0,0], [9E9, 9E9, 9E9, 9E9, 9E9, 9E9]];
CONST robtarget Target_85:=[[1260.5590000,228.9350000,1028.4310000], [0.9108836,0.2751724,-0.2214311,-0.2134001], [0,0,0,0], [9E9, 9E9, 9E9, 9E9, 9E9, 9E9]];
CONST robtarget Target_86:=[[1252.7080000,232.3270000,1019.1350000], [0.9104994,0.2704026,-0.2248003,-0.2175731], [0,0,0,0], [9E9, 9E9, 9E9, 9E9, 9E9, 9E9]];
CONST robtarget Target_87:=[[1245.3180000,235.5940000,1010.5700000], [0.9102073,0.2658732,-0.2275556,-0.2214780], [0,0,0,0], [9E9, 9E9, 9E9, 9E9, 9E9, 9E9]];
CONST robtarget Target_88:=[[1238.4470000,238.7310000,1002.8880000], [0.9099924,0.2614364,-0.2301456,-0.2249395], [0,0,0,0], [9E9, 9E9, 9E9, 9E9, 9E9, 9E9]];
CONST robtarget Target_89:=[[1232.2100000,241.4760000,995.9830000], [0.9096171,0.2574346,-0.2328196,-0.2282961], [0,0,0,0], [9E9, 9E9, 9E9, 9E9, 9E9, 9E9]];
CONST robtarget Target_90:=[[1226.4300000,244.0380000,989.8390000], [0.9093545,0.2536938,-0.2349000,-0.2313780], [0,0,0,0], [9E9, 9E9, 9E9, 9E9, 9E9, 9E9]];
CONST robtarget Target_91:=[[1221.3140000,246.3210000,984.4160000], [0.9093029,0.2501763,-0.2367080,-0.2335580], [0,0,0,0], [9E9, 9E9, 9E9, 9E9, 9E9, 9E9]];
CONST robtarget Target_92:=[[1216.8310000,248.3050000,979.7930000], [0.9091362,0.2472695,-0.2381792,-0.2357960], [0,0,0,0], [9E9, 9E9, 9E9, 9E9, 9E9, 9E9]];
CONST robtarget Target_93:=[[1212.9310000,250.1080000,975.8440000], [0.9088341,0.2448102,-0.2397569,-0.2379186], [0,0,0,0], [9E9, 9E9, 9E9, 9E9, 9E9, 9E9]];
CONST robtarget Target_94:=[[1209.6880000,251.4640000,972.5780000], [0.9087881,0.2427524,-0.2406428,-0.2393041], [0,0,0,0], [9E9, 9E9, 9E9, 9E9, 9E9, 9E9]];
CONST robtarget Target_95:=[[1207.1110000,252.6400000,970.0430000], [0.9087361,0.2406918,-0.2415233,-0.2406918], [0,0,0,0], [9E9, 9E9, 9E9, 9E9, 9E9, 9E9]];
CONST robtarget Target_96:=[[1205.1480000,253.4870000,968.1580000], [0.8776579,-0.3358050,0.0554936,0.3374493], [0,0,0,0], [9E9, 9E9, 9E9, 9E9, 9E9, 9E9]];
CONST robtarget Target_97:=[[1203.8890000,254.1460000,966.8980000], [0.8773667,-0.3355429,0.0557812,0.3384185], [0,0,0,0], [9E9, 9E9, 9E9, 9E9, 9E9, 9E9]];
CONST robtarget Target_98:=[[1203.2640000,254.3480000,966.3670000], [0.8774131,-0.3352255,0.0564047,0.3385095], [0,0,0,0], [9E9, 9E9, 9E9, 9E9, 9E9, 9E9]];
CONST robtarget Target_99:=[[1203.2570000,254.3520000,966.2760000], [0.8774131,-0.3352255,0.0564047,0.3385095], [0,0,0,0], [9E9, 9E9, 9E9, 9E9, 9E9, 9E9]];
CONST robtarget Target_100:=[[1203.2570000,254.3520000,966.2760000], [0.8774131,-0.3352255,0.0564047,0.3385095], [0,0,0,0], [9E9, 9E9, 9E9, 9E9, 9E9, 9E9]];
CONST robtarget Target_101:=[[1202.9740000,254.0700000,966.3790000], [0.8773667,-0.3355429,0.0557812,0.3384185], [0,0,0,0], [9E9, 9E9, 9E9, 9E9, 9E9, 9E9]];
CONST robtarget Target_102:=[[1202.2350000,253.2540000,966.6780000], [0.8774891,-0.3358327,0.0553256,0.3378881], [0,0,0,0], [9E9, 9E9, 9E9, 9E9, 9E9, 9E9]];
CONST robtarget Target_103:=[[1201.0180000,251.9060000,967.3440000], [0.8777794,-0.3360955,0.0550386,0.3369182], [0,0,0,0], [9E9, 9E9, 9E9, 9E9, 9E9, 9E9]];
CONST robtarget Target_104:=[[1199.2980000,250.0290000,968.1040000], [0.9086964,0.2422252,-0.2403264,-0.2405017], [0,0,0,0], [9E9, 9E9, 9E9, 9E9, 9E9, 9E9]];
CONST robtarget Target_105:=[[1197.0430000,247.6250000,969.0500000], [0.9088926,0.2439958,-0.2388843,-0.2394047], [0,0,0,0], [9E9, 9E9, 9E9, 9E9, 9E9, 9E9]];
CONST robtarget Target_106:=[[1194.2570000,244.7160000,970.1550000], [0.9088626,0.2468372,-0.2372365,-0.2382413], [0,0,0,0], [9E9, 9E9, 9E9, 9E9, 9E9, 9E9]];
CONST robtarget Target_107:=[[1190.9900000,241.3460000,971.4710000], [0.9090822,0.2500730,-0.2348921,-0.2363447], [0,0,0,0], [9E9, 9E9, 9E9, 9E9, 9E9, 9E9]];
CONST robtarget Target_108:=[[1187.2000000,237.5180000,973.0010000], [0.9091909,0.2533439,-0.2322204,-0.2350798], [0,0,0,0], [9E9, 9E9, 9E9, 9E9, 9E9, 9E9]];
CONST robtarget Target_109:=[[1182.8020000,233.2500000,974.5330000], [0.9093873,0.2572865,-0.2293975,-0.2327988], [0,0,0,0], [9E9, 9E9, 9E9, 9E9, 9E9, 9E9]];
CONST robtarget Target_110:=[[1177.8730000,228.6000000,976.2030000], [0.9094686,0.2619864,-0.2257880,-0.2307589], [0,0,0,0], [9E9, 9E9, 9E9, 9E9, 9E9, 9E9]];
CONST robtarget Target_111:=[[1172.4050000,223.4780000,977.9820000], [0.9097631,0.2663175,-0.2219076,-0.2283924], [0,0,0,0], [9E9, 9E9, 9E9, 9E9, 9E9, 9E9]];
CONST robtarget Target_112:=[[1166.4640000,218.3500000,979.6070000], [0.9100195,0.2713394,-0.2175370,-0.2256483], [0,0,0,0], [9E9, 9E9, 9E9, 9E9, 9E9, 9E9]];
CONST robtarget Target_113:=[[1160.4560000,213.3740000,981.0810000], [0.9101219,0.2762168,-0.2132709,-0.2233784], [0,0,0,0], [9E9, 9E9, 9E9, 9E9, 9E9, 9E9]];
CONST robtarget Target_114:=[[1154.3830000,208.4460000,982.4720000], [0.9104357,0.2807096,-0.2087257,-0.2207773], [0,0,0,0], [9E9, 9E9, 9E9, 9E9, 9E9, 9E9]];
CONST robtarget Target_115:=[[1148.2140000,203.7880000,983.6170000], [0.9106031,0.2850615,-0.2042929,-0.2186468], [0,0,0,0], [9E9, 9E9, 9E9, 9E9, 9E9, 9E9]];
CONST robtarget Target_116:=[[1141.9760000,199.1780000,984.6700000], [0.9109978,0.2891698,-0.1991374,-0.2163518], [0,0,0,0], [9E9, 9E9, 9E9, 9E9, 9E9, 9E9]];
CONST robtarget Target_117:=[[1135.6410000,194.8380000,985.4720000], [0.9112026,0.2935448,-0.1945058,-0.2137959], [0,0,0,0], [9E9, 9E9, 9E9, 9E9, 9E9, 9E9]];
CONST robtarget Target_118:=[[1129.2340000,190.5470000,986.1730000], [0.9115254,0.2975660,-0.1892938,-0.2115275], [0,0,0,0], [9E9, 9E9, 9E9, 9E9, 9E9, 9E9]];
CONST robtarget Target_119:=[[1122.7290000,186.5220000,986.6180000], [0.9119631,0.3010857,-0.1839497,-0.2093637], [0,0,0,0], [9E9, 9E9, 9E9, 9E9, 9E9, 9E9]];
CONST robtarget Target_120:=[[1116.1660000,182.5520000,986.8710000], [0.9121131,0.3049261,-0.1788369,-0.2075744], [0,0,0,0], [9E9, 9E9, 9E9, 9E9, 9E9, 9E9]];
CONST robtarget Target_121:=[[1109.4720000,178.8350000,987.0260000], [0.9124869,0.3083562,-0.1734444,-0.2054291], [0,0,0,0], [9E9, 9E9, 9E9, 9E9, 9E9, 9E9]];
CONST robtarget Target_122:=[[1102.7260000,175.1650000,986.9090000], [0.9129850,0.3112832,-0.1679263,-0.2033761], [0,0,0,0], [9E9, 9E9, 9E9, 9E9, 9E9, 9E9]];
CONST robtarget Target_123:=[[1095.8650000,171.7650000,986.6710000], [0.9132978,0.3146194,-0.1624875,-0.2012450], [0,0,0,0], [9E9, 9E9, 9E9, 9E9, 9E9, 9E9]];
CONST robtarget Target_124:=[[1088.9420000,168.4000000,986.1630000], [0.9137328,0.3175782,-0.1564760,-0.1993781], [0,0,0,0], [9E9, 9E9, 9E9, 9E9, 9E9, 9E9]];
CONST robtarget Target_125:=[[1081.9050000,165.3000000,985.5260000], [0.9141436,0.3203599,-0.1508934,-0.1973379], [0,0,0,0], [9E9, 9E9, 9E9, 9E9, 9E9, 9E9]];
CONST robtarget Target_126:=[[1074.8050000,162.2310000,984.6160000], [0.9146788,0.3227576,-0.1447414,-0.1955508], [0,0,0,0], [9E9, 9E9, 9E9, 9E9, 9E9, 9E9]];
CONST robtarget Target_127:=[[1067.5910000,159.4210000,983.5700000], [0.9151960,0.3249825,-0.1390228,-0.1935853], [0,0,0,0], [9E9, 9E9, 9E9, 9E9, 9E9, 9E9]];
CONST robtarget Target_128:=[[1060.3140000,156.6390000,982.2450000], [0.9156754,0.3272746,-0.1328338,-0.1917946], [0,0,0,0], [9E9, 9E9, 9E9, 9E9, 9E9, 9E9]];
CONST robtarget Target_129:=[[1052.8890000,154.1000000,980.6140000], [0.9161258,0.3295121,-0.1266268,-0.1900025], [0,0,0,0], [9E9, 9E9, 9E9, 9E9, 9E9, 9E9]];
CONST robtarget Target_130:=[[1045.4200000,151.5890000,978.9410000], [0.9168232,0.3311865,-0.1205972,-0.1876354], [0,0,0,0], [9E9, 9E9, 9E9, 9E9, 9E9, 9E9]];
CONST robtarget Target_131:=[[1037.8650000,149.3190000,976.9780000], [0.9173845,0.3328553,-0.1142631,-0.1858950], [0,0,0,0], [9E9, 9E9, 9E9, 9E9, 9E9, 9E9]];
CONST robtarget Target_132:=[[1030.2290000,147.0820000,974.8630000], [0.9180859,0.3340096,-0.1078221,-0.1842016], [0,0,0,0], [9E9, 9E9, 9E9, 9E9, 9E9, 9E9]];
CONST robtarget Target_133:=[[1022.5030000,145.0660000,972.4620000], [0.9185724,0.3356692,-0.1010029,-0.1826182], [0,0,0,0], [9E9, 9E9, 9E9, 9E9, 9E9, 9E9]];
CONST robtarget Target_134:=[[1015.0390000,143.1750000,970.0280000], [0.9192431,0.3366092,-0.0949937,-0.1807279], [0,0,0,0], [9E9, 9E9, 9E9, 9E9, 9E9, 9E9]];
CONST robtarget Target_135:=[[1008.1160000,141.6190000,967.5130000], [0.9199702,0.3369938,-0.0890536,-0.1793305], [0,0,0,0], [9E9, 9E9, 9E9, 9E9, 9E9, 9E9]];
CONST robtarget Target_136:=[[1001.9140000,140.2210000,965.2810000], [0.9204454,0.3376565,-0.0838232,-0.1781632], [0,0,0,0], [9E9, 9E9, 9E9, 9E9, 9E9, 9E9]];
CONST robtarget Target_137:=[[996.3740000,139.0300000,963.0780000], [0.9209314,0.3381913,-0.0790460,-0.1768154], [0,0,0,0], [9E9, 9E9, 9E9, 9E9, 9E9, 9E9]];
CONST robtarget Target_138:=[[991.5200000,138.1280000,961.0930000], [0.9213730,0.3384758,-0.0753532,-0.1755786], [0,0,0,0], [9E9, 9E9, 9E9, 9E9, 9E9, 9E9]];
CONST robtarget Target_139:=[[987.3460000,137.2990000,959.3470000], [0.9217189,0.3387051,-0.0718272,-0.1747972], [0,0,0,0], [9E9, 9E9, 9E9, 9E9, 9E9, 9E9]];
CONST robtarget Target_140:=[[983.8970000,136.7290000,957.8170000], [0.9220006,0.3387959,-0.0689290,-0.1743015], [0,0,0,0], [9E9, 9E9, 9E9, 9E9, 9E9, 9E9]];
CONST robtarget Target_141:=[[981.1940000,136.2050000,956.6830000], [0.9223085,0.3387890,-0.0664904,-0.1736322], [0,0,0,0], [9E9, 9E9, 9E9, 9E9, 9E9, 9E9]];
CONST robtarget Target_142:=[[979.1810000,135.9050000,955.7210000], [0.9225577,0.3386553,-0.0646816,-0.1732515], [0,0,0,0], [9E9, 9E9, 9E9, 9E9, 9E9, 9E9]];
CONST robtarget Target_143:=[[977.9220000,135.6330000,955.1820000], [0.9226128,0.3387743,-0.0640510,-0.1729597], [0,0,0,0], [9E9, 9E9, 9E9, 9E9, 9E9, 9E9]];
CONST robtarget Target_144:=[[977.3620000,135.5890000,954.9140000], [0.9228369,0.3384313,-0.0633340,-0.1726995], [0,0,0,0], [9E9, 9E9, 9E9, 9E9, 9E9, 9E9]];
CONST robtarget Target_145:=[[977.3620000,135.5890000,954.9140000], [0.9228369,0.3384313,-0.0633340,-0.1726995], [0,0,0,0], [9E9, 9E9, 9E9, 9E9, 9E9, 9E9]];
CONST robtarget Target_146:=[[977.3620000,135.5890000,954.9140000], [0.9228369,0.3384313,-0.0633340,-0.1726995], [0,0,0,0], [9E9, 9E9, 9E9, 9E9, 9E9, 9E9]];
CONST robtarget Target_147:=[[977.4500000,135.3320000,954.8450000], [0.9228051,0.3385176,-0.0628726,-0.1728687], [0,0,0,0], [9E9, 9E9, 9E9, 9E9, 9E9, 9E9]];
CONST robtarget Target_148:=[[977.7300000,134.6660000,954.7940000], [0.9227731,0.3386039,-0.0624111,-0.1730379], [0,0,0,0], [9E9, 9E9, 9E9, 9E9, 9E9, 9E9]];
CONST robtarget Target_149:=[[978.2770000,133.6080000,954.7170000], [0.9227084,0.3387760,-0.0614882,-0.1733761], [0,0,0,0], [9E9, 9E9, 9E9, 9E9, 9E9, 9E9]];
CONST robtarget Target_150:=[[978.9590000,132.1290000,954.5690000], [0.9227790,0.3385723,-0.0600167,-0.1739130], [0,0,0,0], [9E9, 9E9, 9E9, 9E9, 9E9, 9E9]];
CONST robtarget Target_151:=[[979.8600000,130.1500000,954.3080000], [0.9227313,0.3389438,-0.0580007,-0.1741261], [0,0,0,0], [9E9, 9E9, 9E9, 9E9, 9E9, 9E9]];
CONST robtarget Target_152:=[[980.8680000,127.8490000,953.9850000], [0.9227276,0.3389074,-0.0556045,-0.1749960], [0,0,0,0], [9E9, 9E9, 9E9, 9E9, 9E9, 9E9]];
CONST robtarget Target_153:=[[982.1090000,125.0570000,953.7940000], [0.9227699,0.3389797,-0.0525755,-0.1755687], [0,0,0,0], [9E9, 9E9, 9E9, 9E9, 9E9, 9E9]];
CONST robtarget Target_154:=[[983.5390000,121.7660000,953.5060000], [0.9227670,0.3391295,-0.0490827,-0.1763041], [0,0,0,0], [9E9, 9E9, 9E9, 9E9, 9E9, 9E9]];
CONST robtarget Target_155:=[[985.0520000,118.1580000,953.1000000], [0.9229727,0.3389153,-0.0448675,-0.1767617], [0,0,0,0], [9E9, 9E9, 9E9, 9E9, 9E9, 9E9]];
CONST robtarget Target_156:=[[986.7060000,114.0490000,952.7560000], [0.9229077,0.3391291,-0.0409075,-0.1776498], [0,0,0,0], [9E9, 9E9, 9E9, 9E9, 9E9, 9E9]];
CONST robtarget Target_157:=[[988.4620000,109.5970000,952.4300000], [0.9230452,0.3389709,-0.0362234,-0.1782533], [0,0,0,0], [9E9, 9E9, 9E9, 9E9, 9E9, 9E9]];
CONST robtarget Target_158:=[[990.2190000,105.2020000,952.2190000], [0.9231666,0.3387972,-0.0315359,-0.1788447], [0,0,0,0], [9E9, 9E9, 9E9, 9E9, 9E9, 9E9]];
CONST robtarget Target_159:=[[991.8780000,100.6880000,951.8830000], [0.9230556,0.3391473,-0.0264712,-0.1795738], [0,0,0,0], [9E9, 9E9, 9E9, 9E9, 9E9, 9E9]];
CONST robtarget Target_160:=[[993.4610000,96.1900000,951.6470000], [0.9232330,0.3389525,-0.0216079,-0.1796807], [0,0,0,0], [9E9, 9E9, 9E9, 9E9, 9E9, 9E9]];
CONST robtarget Target_161:=[[994.9790000,91.6810000,951.4560000], [0.9233045,0.3387292,-0.0169113,-0.1802370], [0,0,0,0], [9E9, 9E9, 9E9, 9E9, 9E9, 9E9]];
CONST robtarget Target_162:=[[996.4250000,87.2880000,951.2960000], [0.9234501,0.3384965,-0.0120427,-0.1803194], [0,0,0,0], [9E9, 9E9, 9E9, 9E9, 9E9, 9E9]];
CONST robtarget Target_163:=[[997.8670000,82.7920000,951.2740000], [0.9234104,0.3387055,-0.0072618,-0.1803861], [0,0,0,0], [9E9, 9E9, 9E9, 9E9, 9E9, 9E9]];
CONST robtarget Target_164:=[[999.1980000,78.2920000,951.2010000], [0.9235798,0.3383619,-0.0028537,-0.1802868], [0,0,0,0], [9E9, 9E9, 9E9, 9E9, 9E9, 9E9]];
CONST robtarget Target_165:=[[1000.4750000,73.8080000,951.0870000], [0.9237692,0.3380694,0.0021905,-0.1798742], [0,0,0,0], [9E9, 9E9, 9E9, 9E9, 9E9, 9E9]];
CONST robtarget Target_166:=[[1001.6660000,69.4110000,951.0860000], [0.9238524,0.3377556,0.0070673,-0.1799112], [0,0,0,0], [9E9, 9E9, 9E9, 9E9, 9E9, 9E9]];
CONST robtarget Target_167:=[[1002.8020000,64.9300000,951.1210000], [0.9240091,0.3374157,0.0121146,-0.1794743], [0,0,0,0], [9E9, 9E9, 9E9, 9E9, 9E9, 9E9]];
CONST robtarget Target_168:=[[1003.8730000,60.4360000,951.1990000], [0.9242118,0.3369863,0.0166969,-0.1788685], [0,0,0,0], [9E9, 9E9, 9E9, 9E9, 9E9, 9E9]];
CONST robtarget Target_169:=[[1004.9320000,55.9630000,951.4070000], [0.9243372,0.3365983,0.0217461,-0.1784082], [0,0,0,0], [9E9, 9E9, 9E9, 9E9, 9E9, 9E9]];
CONST robtarget Target_170:=[[1005.8690000,51.5710000,951.5650000], [0.9245115,0.3361239,0.0263296,-0.1777807], [0,0,0,0], [9E9, 9E9, 9E9, 9E9, 9E9, 9E9]];
CONST robtarget Target_171:=[[1006.7640000,47.0950000,951.6900000], [0.9246722,0.3356279,0.0309132,-0.1771427], [0,0,0,0], [9E9, 9E9, 9E9, 9E9, 9E9, 9E9]];
CONST robtarget Target_172:=[[1007.5790000,42.6040000,951.9270000], [0.9247507,0.3351687,0.0359640,-0.1766483], [0,0,0,0], [9E9, 9E9, 9E9, 9E9, 9E9, 9E9]];
CONST robtarget Target_173:=[[1008.3290000,38.1120000,952.2040000], [0.9249705,0.3346076,0.0407150,-0.1755265], [0,0,0,0], [9E9, 9E9, 9E9, 9E9, 9E9, 9E9]];
CONST robtarget Target_174:=[[1009.0120000,33.7360000,952.5180000], [0.9251757,0.3340203,0.0454652,-0.1743942], [0,0,0,0], [9E9, 9E9, 9E9, 9E9, 9E9, 9E9]];
CONST robtarget Target_175:=[[1009.6850000,29.2470000,952.9710000], [0.9253660,0.3334068,0.0502144,-0.1732516], [0,0,0,0], [9E9, 9E9, 9E9, 9E9, 9E9, 9E9]];
CONST robtarget Target_176:=[[1010.2430000,24.7680000,953.3670000], [0.9256158,0.3327158,0.0544944,-0.1719473], [0,0,0,0], [9E9, 9E9, 9E9, 9E9, 9E9, 9E9]];
CONST robtarget Target_177:=[[1010.7510000,20.2750000,953.7360000], [0.9257779,0.3320518,0.0592407,-0.1707849], [0,0,0,0], [9E9, 9E9, 9E9, 9E9, 9E9, 9E9]];
CONST robtarget Target_178:=[[1011.1770000,15.8950000,954.2120000], [0.9260096,0.3313297,0.0641511,-0.1691494], [0,0,0,0], [9E9, 9E9, 9E9, 9E9, 9E9, 9E9]];
CONST robtarget Target_179:=[[1011.5420000,11.3980000,954.7320000], [0.9262192,0.3305653,0.0684252,-0.1678172], [0,0,0,0], [9E9, 9E9, 9E9, 9E9, 9E9, 9E9]];
CONST robtarget Target_180:=[[1011.8420000,6.8990000,955.2920000], [0.9264200,0.3297858,0.0733306,-0.1661621], [0,0,0,0], [9E9, 9E9, 9E9, 9E9, 9E9, 9E9]];
CONST robtarget Target_181:=[[1012.1270000,2.4130000,955.9860000], [0.9266849,0.3289336,0.0777642,-0.1643485], [0,0,0,0], [9E9, 9E9, 9E9, 9E9, 9E9, 9E9]];
CONST robtarget Target_182:=[[1012.3120000,-1.9900000,956.5570000], [0.9270995,0.3275911,0.0822757,-0.1624850], [0,0,0,0], [9E9, 9E9, 9E9, 9E9, 9E9, 9E9]];
CONST robtarget Target_183:=[[1012.4170000,-6.4820000,957.2370000], [0.9273353,0.3266851,0.0867014,-0.1606516], [0,0,0,0], [9E9, 9E9, 9E9, 9E9, 9E9, 9E9]];
CONST robtarget Target_184:=[[1012.4590000,-10.9920000,957.9590000], [0.9275567,0.3257523,0.0911233,-0.1588097], [0,0,0,0], [9E9, 9E9, 9E9, 9E9, 9E9, 9E9]];
CONST robtarget Target_185:=[[1012.4330000,-15.4890000,958.7210000], [0.9278420,0.3247450,0.0957035,-0.1564953], [0,0,0,0], [9E9, 9E9, 9E9, 9E9, 9E9, 9E9]];
CONST robtarget Target_186:=[[1012.3470000,-19.9050000,959.5250000], [0.9282812,0.3232601,0.0997246,-0.1544405], [0,0,0,0], [9E9, 9E9, 9E9, 9E9, 9E9, 9E9]];
CONST robtarget Target_187:=[[1012.2440000,-24.4120000,960.4630000], [0.9285348,0.3221947,0.1042935,-0.1521072], [0,0,0,0], [9E9, 9E9, 9E9, 9E9, 9E9, 9E9]];
CONST robtarget Target_188:=[[1012.0400000,-28.9370000,961.2760000], [0.9288595,0.3210700,0.1083872,-0.1496206], [0,0,0,0], [9E9, 9E9, 9E9, 9E9, 9E9, 9E9]];
CONST robtarget Target_189:=[[1011.7580000,-33.4670000,962.2000000], [0.9292554,0.3195101,0.1123887,-0.1475349], [0,0,0,0], [9E9, 9E9, 9E9, 9E9, 9E9, 9E9]];
CONST robtarget Target_190:=[[1011.4100000,-37.8840000,963.1620000], [0.9295333,0.3182996,0.1170985,-0.1447105], [0,0,0,0], [9E9, 9E9, 9E9, 9E9, 9E9, 9E9]];
CONST robtarget Target_191:=[[1010.9970000,-42.4230000,964.1660000], [0.9298113,0.3170923,0.1211725,-0.1421993], [0,0,0,0], [9E9, 9E9, 9E9, 9E9, 9E9, 9E9]];
CONST robtarget Target_192:=[[1010.5170000,-46.9510000,965.2090000], [0.9302319,0.3153932,0.1253097,-0.1396182], [0,0,0,0], [9E9, 9E9, 9E9, 9E9, 9E9, 9E9]];
CONST robtarget Target_193:=[[1010.0240000,-51.5040000,966.3880000], [0.9305710,0.3141142,0.1288992,-0.1369481], [0,0,0,0], [9E9, 9E9, 9E9, 9E9, 9E9, 9E9]];
CONST robtarget Target_194:=[[1009.4340000,-55.9450000,967.4400000], [0.9310267,0.3122969,0.1331751,-0.1338818], [0,0,0,0], [9E9, 9E9, 9E9, 9E9, 9E9, 9E9]];
CONST robtarget Target_195:=[[1008.7610000,-60.5060000,968.6010000], [0.9314008,0.3109005,0.1369040,-0.1307312], [0,0,0,0], [9E9, 9E9, 9E9, 9E9, 9E9, 9E9]];
CONST robtarget Target_196:=[[1008.0200000,-65.0570000,969.8030000], [0.9315998,0.3095601,0.1409396,-0.1281813], [0,0,0,0], [9E9, 9E9, 9E9, 9E9, 9E9, 9E9]];
CONST robtarget Target_197:=[[1007.2130000,-69.6310000,971.0390000], [0.9320949,0.3076451,0.1447143,-0.1249454], [0,0,0,0], [9E9, 9E9, 9E9, 9E9, 9E9, 9E9]];
CONST robtarget Target_198:=[[1006.4000000,-74.1160000,972.4110000], [0.9324183,0.3061699,0.1484158,-0.1217737], [0,0,0,0], [9E9, 9E9, 9E9, 9E9, 9E9, 9E9]];
CONST robtarget Target_199:=[[1005.4630000,-78.6880000,973.7290000], [0.9328768,0.3042024,0.1521675,-0.1185198], [0,0,0,0], [9E9, 9E9, 9E9, 9E9, 9E9, 9E9]];
CONST robtarget Target_200:=[[1004.4790000,-83.2840000,975.0120000], [0.9334130,0.3022052,0.1554363,-0.1151164], [0,0,0,0], [9E9, 9E9, 9E9, 9E9, 9E9, 9E9]];
CONST robtarget Target_201:=[[1003.4090000,-87.8700000,976.4050000], [0.9337396,0.3005747,0.1592569,-0.1114563], [0,0,0,0], [9E9, 9E9, 9E9, 9E9, 9E9, 9E9]];
CONST robtarget Target_202:=[[1002.2880000,-92.3780000,977.8340000], [0.9342384,0.2985303,0.1625006,-0.1080365], [0,0,0,0], [9E9, 9E9, 9E9, 9E9, 9E9, 9E9]];
CONST robtarget Target_203:=[[1001.0830000,-96.9800000,979.2980000], [0.9346228,0.2968485,0.1658272,-0.1042237], [0,0,0,0], [9E9, 9E9, 9E9, 9E9, 9E9, 9E9]];
CONST robtarget Target_204:=[[999.8940000,-101.4340000,980.7800000], [0.9350843,0.2947591,0.1690450,-0.1007883], [0,0,0,0], [9E9, 9E9, 9E9, 9E9, 9E9, 9E9]];
CONST robtarget Target_205:=[[998.7870000,-105.3960000,982.0680000], [0.9353320,0.2932019,0.1720540,-0.0978985], [0,0,0,0], [9E9, 9E9, 9E9, 9E9, 9E9, 9E9]];
CONST robtarget Target_206:=[[997.7470000,-108.8280000,983.3100000], [0.9356653,0.2916356,0.1745843,-0.0948657], [0,0,0,0], [9E9, 9E9, 9E9, 9E9, 9E9, 9E9]];
CONST robtarget Target_207:=[[996.7990000,-111.9480000,984.3480000], [0.9359925,0.2902420,0.1763458,-0.0926268], [0,0,0,0], [9E9, 9E9, 9E9, 9E9, 9E9, 9E9]];
CONST robtarget Target_208:=[[995.9610000,-114.5530000,985.2470000], [0.9363576,0.2887521,0.1782459,-0.0899166], [0,0,0,0], [9E9, 9E9, 9E9, 9E9, 9E9, 9E9]];
CONST robtarget Target_209:=[[995.2690000,-116.8490000,986.0940000], [0.9364815,0.2879015,0.1798074,-0.0882295], [0,0,0,0], [9E9, 9E9, 9E9, 9E9, 9E9, 9E9]];
CONST robtarget Target_210:=[[994.6940000,-118.5210000,986.6320000], [0.9366572,0.2871498,0.1807526,-0.0868721], [0,0,0,0], [9E9, 9E9, 9E9, 9E9, 9E9, 9E9]];
CONST robtarget Target_211:=[[994.2580000,-119.8800000,987.1730000], [0.9368305,0.2863958,0.1816960,-0.0855138], [0,0,0,0], [9E9, 9E9, 9E9, 9E9, 9E9, 9E9]];
CONST robtarget Target_212:=[[993.9750000,-120.8210000,987.4930000], [0.9367737,0.2862905,0.1823093,-0.0851828], [0,0,0,0], [9E9, 9E9, 9E9, 9E9, 9E9, 9E9]];
CONST robtarget Target_213:=[[993.8380000,-121.2420000,987.6540000], [0.9369591,0.2857309,0.1824948,-0.0846232], [0,0,0,0], [9E9, 9E9, 9E9, 9E9, 9E9, 9E9]];
CONST robtarget Target_214:=[[993.8170000,-121.3130000,987.6610000], [0.9369591,0.2857309,0.1824948,-0.0846232], [0,0,0,0], [9E9, 9E9, 9E9, 9E9, 9E9, 9E9]];
CONST robtarget Target_215:=[[993.8170000,-121.3130000,987.6610000], [0.9369591,0.2857309,0.1824948,-0.0846232], [0,0,0,0], [9E9, 9E9, 9E9, 9E9, 9E9, 9E9]];
CONST robtarget Target_216:=[[994.0640000,-121.3410000,987.7150000], [0.9370013,0.2856396,0.1826376,-0.0841547], [0,0,0,0], [9E9, 9E9, 9E9, 9E9, 9E9, 9E9]];
CONST robtarget Target_217:=[[994.9900000,-121.6610000,987.9640000], [0.9370864,0.2850646,0.1832924,-0.0837318], [0,0,0,0], [9E9, 9E9, 9E9, 9E9, 9E9, 9E9]];
CONST robtarget Target_218:=[[996.4350000,-122.0440000,988.2570000], [0.9371126,0.2843814,0.1845591,-0.0829768], [0,0,0,0], [9E9, 9E9, 9E9, 9E9, 9E9, 9E9]];
CONST robtarget Target_219:=[[998.4910000,-122.6180000,988.6960000], [0.9374015,0.2825558,0.1866597,-0.0812337], [0,0,0,0], [9E9, 9E9, 9E9, 9E9, 9E9, 9E9]];
CONST robtarget Target_220:=[[1001.1470000,-123.4900000,989.2750000], [0.9375422,0.2811913,0.1887142,-0.0795796], [0,0,0,0], [9E9, 9E9, 9E9, 9E9, 9E9, 9E9]];
CONST robtarget Target_221:=[[1004.3750000,-124.4620000,989.8860000], [0.9378937,0.2787673,0.1914517,-0.0773976], [0,0,0,0], [9E9, 9E9, 9E9, 9E9, 9E9, 9E9]];
CONST robtarget Target_222:=[[1008.1250000,-125.7450000,990.5820000], [0.9381676,0.2762131,0.1947872,-0.0748717], [0,0,0,0], [9E9, 9E9, 9E9, 9E9, 9E9, 9E9]];
CONST robtarget Target_223:=[[1012.4790000,-127.1660000,991.3640000], [0.9383576,0.2735192,0.1987166,-0.0719992], [0,0,0,0], [9E9, 9E9, 9E9, 9E9, 9E9, 9E9]];
CONST robtarget Target_224:=[[1017.3930000,-128.8420000,992.2720000], [0.9388309,0.2697601,0.2028340,-0.0684421], [0,0,0,0], [9E9, 9E9, 9E9, 9E9, 9E9, 9E9]];
CONST robtarget Target_225:=[[1022.8460000,-130.7910000,993.0480000], [0.9391722,0.2663375,0.2070263,-0.0644982], [0,0,0,0], [9E9, 9E9, 9E9, 9E9, 9E9, 9E9]];
CONST robtarget Target_226:=[[1028.7390000,-133.0510000,993.8610000], [0.9395317,0.2618845,0.2121929,-0.0605876], [0,0,0,0], [9E9, 9E9, 9E9, 9E9, 9E9, 9E9]];
CONST robtarget Target_227:=[[1034.6360000,-135.3830000,994.5010000], [0.9398539,0.2577816,0.2169558,-0.0561563], [0,0,0,0], [9E9, 9E9, 9E9, 9E9, 9E9, 9E9]];
CONST robtarget Target_228:=[[1040.4710000,-137.8180000,995.0940000], [0.9402605,0.2531667,0.2217094,-0.0515917], [0,0,0,0], [9E9, 9E9, 9E9, 9E9, 9E9, 9E9]];
CONST robtarget Target_229:=[[1046.2580000,-140.4430000,995.5060000], [0.9404958,0.2489802,0.2263996,-0.0471134], [0,0,0,0], [9E9, 9E9, 9E9, 9E9, 9E9, 9E9]];
CONST robtarget Target_230:=[[1052.0070000,-143.0750000,995.7900000], [0.9408105,0.2442821,0.2310752,-0.0424979], [0,0,0,0], [9E9, 9E9, 9E9, 9E9, 9E9, 9E9]];
CONST robtarget Target_231:=[[1057.6780000,-145.7860000,996.0400000], [0.9409576,0.2400135,0.2356910,-0.0379744], [0,0,0,0], [9E9, 9E9, 9E9, 9E9, 9E9, 9E9]];
CONST robtarget Target_232:=[[1063.3280000,-148.6110000,996.1010000], [0.9412920,0.2352774,0.2398178,-0.0331857], [0,0,0,0], [9E9, 9E9, 9E9, 9E9, 9E9, 9E9]];
CONST robtarget Target_233:=[[1068.9080000,-151.5230000,996.0450000], [0.9413649,0.2308087,0.2444731,-0.0281489], [0,0,0,0], [9E9, 9E9, 9E9, 9E9, 9E9, 9E9]];
CONST robtarget Target_234:=[[1074.4220000,-154.5430000,995.9490000], [0.9414923,0.2264688,0.2485048,-0.0234403], [0,0,0,0], [9E9, 9E9, 9E9, 9E9, 9E9, 9E9]];
CONST robtarget Target_235:=[[1079.8900000,-157.7730000,995.6700000], [0.9416884,0.2216236,0.2525084,-0.0185877], [0,0,0,0], [9E9, 9E9, 9E9, 9E9, 9E9, 9E9]];
CONST robtarget Target_236:=[[1085.3010000,-160.9870000,995.2780000], [0.9417287,0.2172152,0.2564626,-0.0138420], [0,0,0,0], [9E9, 9E9, 9E9, 9E9, 9E9, 9E9]];
CONST robtarget Target_237:=[[1090.6620000,-164.3140000,994.7690000], [0.9417261,0.2127732,0.2603787,-0.0090794], [0,0,0,0], [9E9, 9E9, 9E9, 9E9, 9E9, 9E9]];
CONST robtarget Target_238:=[[1095.9480000,-167.7250000,994.2450000], [0.9416825,0.2081659,0.2643604,-0.0038294], [0,0,0,0], [9E9, 9E9, 9E9, 9E9, 9E9, 9E9]];
CONST robtarget Target_239:=[[1101.1930000,-171.2560000,993.5180000], [0.9416928,0.2031851,0.2681964,0.0011000], [0,0,0,0], [9E9, 9E9, 9E9, 9E9, 9E9, 9E9]];
CONST robtarget Target_240:=[[1106.3790000,-174.8770000,992.6980000], [0.9416763,0.1987050,0.2715248,0.0060300], [0,0,0,0], [9E9, 9E9, 9E9, 9E9, 9E9, 9E9]];
CONST robtarget Target_241:=[[1111.4880000,-178.6090000,991.8380000], [0.9414906,0.1939952,0.2753778,0.0113280], [0,0,0,0], [9E9, 9E9, 9E9, 9E9, 9E9, 9E9]];
CONST robtarget Target_242:=[[1116.5360000,-182.5600000,990.7910000], [0.9413866,0.1894566,0.2786257,0.0162858], [0,0,0,0], [9E9, 9E9, 9E9, 9E9, 9E9, 9E9]];
CONST robtarget Target_243:=[[1121.5430000,-186.4910000,989.6540000], [0.9412293,0.1847503,0.2819267,0.0217270], [0,0,0,0], [9E9, 9E9, 9E9, 9E9, 9E9, 9E9]];
CONST robtarget Target_244:=[[1126.4710000,-190.5340000,988.4810000], [0.9410376,0.1801570,0.2850934,0.0267100], [0,0,0,0], [9E9, 9E9, 9E9, 9E9, 9E9, 9E9]];
CONST robtarget Target_245:=[[1131.3470000,-194.6750000,987.1300000], [0.9407152,0.1760080,0.2882361,0.0315610], [0,0,0,0], [9E9, 9E9, 9E9, 9E9, 9E9, 9E9]];
CONST robtarget Target_246:=[[1136.1800000,-198.9260000,985.6770000], [0.9404215,0.1712173,0.2914110,0.0370365], [0,0,0,0], [9E9, 9E9, 9E9, 9E9, 9E9, 9E9]];
CONST robtarget Target_247:=[[1140.9330000,-203.2750000,984.1220000], [0.9401005,0.1665454,0.2944576,0.0420529], [0,0,0,0], [9E9, 9E9, 9E9, 9E9, 9E9, 9E9]];
CONST robtarget Target_248:=[[1145.6180000,-207.7310000,982.5460000], [0.9397585,0.1622506,0.2971048,0.0475133], [0,0,0,0], [9E9, 9E9, 9E9, 9E9, 9E9, 9E9]];
CONST robtarget Target_249:=[[1150.2370000,-212.3980000,980.8010000], [0.9394789,0.1576127,0.2996074,0.0526600], [0,0,0,0], [9E9, 9E9, 9E9, 9E9, 9E9, 9E9]];
CONST robtarget Target_250:=[[1154.8140000,-217.0660000,978.9410000], [0.9390804,0.1534246,0.3020987,0.0576644], [0,0,0,0], [9E9, 9E9, 9E9, 9E9, 9E9, 9E9]];
CONST robtarget Target_251:=[[1159.3150000,-221.8320000,977.0720000], [0.9386126,0.1490642,0.3046293,0.0631441], [0,0,0,0], [9E9, 9E9, 9E9, 9E9, 9E9, 9E9]];
CONST robtarget Target_252:=[[1163.7700000,-226.6920000,975.0360000], [0.9382080,0.1443662,0.3070136,0.0683133], [0,0,0,0], [9E9, 9E9, 9E9, 9E9, 9E9, 9E9]];
CONST robtarget Target_253:=[[1168.2140000,-231.6820000,972.9680000], [0.9376541,0.1399636,0.3094639,0.0738044], [0,0,0,0], [9E9, 9E9, 9E9, 9E9, 9E9, 9E9]];
CONST robtarget Target_254:=[[1172.2560000,-236.5390000,970.8400000], [0.9371979,0.1364137,0.3113167,0.0783159], [0,0,0,0], [9E9, 9E9, 9E9, 9E9, 9E9, 9E9]];
CONST robtarget Target_255:=[[1175.9470000,-240.8960000,968.9020000], [0.9367793,0.1323824,0.3131017,0.0829864], [0,0,0,0], [9E9, 9E9, 9E9, 9E9, 9E9, 9E9]];
CONST robtarget Target_256:=[[1179.1340000,-244.9260000,967.1060000], [0.9363741,0.1295296,0.3144185,0.0869863], [0,0,0,0], [9E9, 9E9, 9E9, 9E9, 9E9, 9E9]];
CONST robtarget Target_257:=[[1181.9080000,-248.5050000,965.5520000], [0.9359936,0.1268267,0.3156537,0.0905187], [0,0,0,0], [9E9, 9E9, 9E9, 9E9, 9E9, 9E9]];
CONST robtarget Target_258:=[[1184.2680000,-251.4840000,964.0890000], [0.9356432,0.1242755,0.3168114,0.0935843], [0,0,0,0], [9E9, 9E9, 9E9, 9E9, 9E9, 9E9]];
CONST robtarget Target_259:=[[1186.1710000,-254.0740000,962.8310000], [0.9352662,0.1223456,0.3179433,0.0960243], [0,0,0,0], [9E9, 9E9, 9E9, 9E9, 9E9, 9E9]];
CONST robtarget Target_260:=[[1187.7510000,-256.1880000,961.9290000], [0.9351107,0.1208317,0.3184879,0.0976375], [0,0,0,0], [9E9, 9E9, 9E9, 9E9, 9E9, 9E9]];
CONST robtarget Target_261:=[[1188.8420000,-257.7520000,961.1770000], [0.9350233,0.1198863,0.3186192,0.0991994], [0,0,0,0], [9E9, 9E9, 9E9, 9E9, 9E9, 9E9]];
CONST robtarget Target_262:=[[1189.6510000,-258.7000000,960.7160000], [0.9348514,0.1189975,0.3191477,0.1001861], [0,0,0,0], [9E9, 9E9, 9E9, 9E9, 9E9, 9E9]];
CONST robtarget Target_263:=[[1189.9740000,-259.2060000,960.4170000], [0.9348605,0.1183705,0.3191567,0.1008131], [0,0,0,0], [9E9, 9E9, 9E9, 9E9, 9E9, 9E9]];
CONST robtarget Target_264:=[[1190.0600000,-259.2360000,960.4930000], [0.9348605,0.1183705,0.3191567,0.1008131], [0,0,0,0], [9E9, 9E9, 9E9, 9E9, 9E9, 9E9]];
CONST robtarget Target_265:=[[1190.0600000,-259.2360000,960.4930000], [0.9348605,0.1183705,0.3191567,0.1008131], [0,0,0,0], [9E9, 9E9, 9E9, 9E9, 9E9, 9E9]];
CONST robtarget Target_266:=[[1190.3670000,-259.1490000,960.5550000], [0.9348100,0.1182109,0.3192159,0.1012805], [0,0,0,0], [9E9, 9E9, 9E9, 9E9, 9E9, 9E9]];
CONST robtarget Target_267:=[[1191.4200000,-258.5480000,960.8180000], [0.9347447,0.1170133,0.3196318,0.1019600], [0,0,0,0], [9E9, 9E9, 9E9, 9E9, 9E9, 9E9]];
CONST robtarget Target_268:=[[1193.1370000,-257.5350000,961.2010000], [0.9346895,0.1145606,0.3200582,0.1038950], [0,0,0,0], [9E9, 9E9, 9E9, 9E9, 9E9, 9E9]];
CONST robtarget Target_269:=[[1195.4810000,-256.2240000,961.7100000], [0.9344933,0.1120028,0.3209358,0.1057257], [0,0,0,0], [9E9, 9E9, 9E9, 9E9, 9E9, 9E9]];
CONST robtarget Target_270:=[[1198.5730000,-254.4040000,962.3960000], [0.9342888,0.1081871,0.3218062,0.1088152], [0,0,0,0], [9E9, 9E9, 9E9, 9E9, 9E9, 9E9]];
CONST robtarget Target_271:=[[1202.3350000,-252.3030000,963.2710000], [0.9339820,0.1037956,0.3230599,0.1119665], [0,0,0,0], [9E9, 9E9, 9E9, 9E9, 9E9, 9E9]];
CONST robtarget Target_272:=[[1206.7620000,-249.7950000,964.1450000], [0.9336905,0.0983040,0.3242251,0.1159159], [0,0,0,0], [9E9, 9E9, 9E9, 9E9, 9E9, 9E9]];
CONST robtarget Target_273:=[[1211.8060000,-246.9980000,965.1830000], [0.9332097,0.0920709,0.3257999,0.1204034], [0,0,0,0], [9E9, 9E9, 9E9, 9E9, 9E9, 9E9]];
CONST robtarget Target_274:=[[1217.5550000,-243.6790000,966.3760000], [0.9327322,0.0851461,0.3268945,0.1260984], [0,0,0,0], [9E9, 9E9, 9E9, 9E9, 9E9, 9E9]];
CONST robtarget Target_275:=[[1223.9150000,-240.0700000,967.6260000], [0.9320164,0.0776931,0.3287364,0.1313074], [0,0,0,0], [9E9, 9E9, 9E9, 9E9, 9E9, 9E9]];
CONST robtarget Target_276:=[[1230.9770000,-235.9420000,968.9950000], [0.9313002,0.0690816,0.3299910,0.1378901], [0,0,0,0], [9E9, 9E9, 9E9, 9E9, 9E9, 9E9]];
CONST robtarget Target_277:=[[1238.6440000,-231.5230000,970.3060000], [0.9303022,0.0597201,0.3315702,0.1450261], [0,0,0,0], [9E9, 9E9, 9E9, 9E9, 9E9, 9E9]];
CONST robtarget Target_278:=[[1246.9250000,-226.6900000,971.7150000], [0.9292122,0.0498859,0.3329664,0.1523465], [0,0,0,0], [9E9, 9E9, 9E9, 9E9, 9E9, 9E9]];
CONST robtarget Target_279:=[[1255.5820000,-221.6890000,973.1380000], [0.9281596,0.0396982,0.3337119,0.1599379], [0,0,0,0], [9E9, 9E9, 9E9, 9E9, 9E9, 9E9]];
CONST robtarget Target_280:=[[1264.2710000,-216.5610000,974.5730000], [0.9267432,0.0292265,0.3348067,0.1679209], [0,0,0,0], [9E9, 9E9, 9E9, 9E9, 9E9, 9E9]];
CONST robtarget Target_281:=[[1272.8750000,-211.5400000,975.8490000], [0.9253472,0.0195520,0.3358371,0.1748245], [0,0,0,0], [9E9, 9E9, 9E9, 9E9, 9E9, 9E9]];
CONST robtarget Target_282:=[[1281.4610000,-206.5040000,976.9670000], [0.9238939,0.0093681,0.3362205,0.1824500], [0,0,0,0], [9E9, 9E9, 9E9, 9E9, 9E9, 9E9]];
CONST robtarget Target_283:=[[1290.0540000,-201.3120000,978.1180000], [0.9223064,-0.0003484,0.3365767,0.1899131], [0,0,0,0], [9E9, 9E9, 9E9, 9E9, 9E9, 9E9]];
CONST robtarget Target_284:=[[1298.5900000,-196.2320000,979.2120000], [0.9206927,-0.0098902,0.3368231,0.1969197], [0,0,0,0], [9E9, 9E9, 9E9, 9E9, 9E9, 9E9]];
CONST robtarget Target_285:=[[1307.1410000,-191.0000000,980.2410000], [0.9192170,-0.0191324,0.3365196,0.2035402], [0,0,0,0], [9E9, 9E9, 9E9, 9E9, 9E9, 9E9]];
CONST robtarget Target_286:=[[1315.6500000,-185.8650000,981.2290000], [0.9173734,-0.0286551,0.3365606,0.2105514], [0,0,0,0], [9E9, 9E9, 9E9, 9E9, 9E9, 9E9]];
CONST robtarget Target_287:=[[1324.1600000,-180.6980000,982.1590000], [0.9156776,-0.0378737,0.3360617,0.2171699], [0,0,0,0], [9E9, 9E9, 9E9, 9E9, 9E9, 9E9]];
CONST robtarget Target_288:=[[1332.7020000,-175.3500000,982.9480000], [0.9138975,-0.0466211,0.3355793,0.2236167], [0,0,0,0], [9E9, 9E9, 9E9, 9E9, 9E9, 9E9]];
CONST robtarget Target_289:=[[1341.1830000,-170.0960000,983.8040000], [0.9120188,-0.0553549,0.3350081,0.2300589], [0,0,0,0], [9E9, 9E9, 9E9, 9E9, 9E9, 9E9]];
CONST robtarget Target_290:=[[1349.2600000,-164.9550000,984.6650000], [0.9101598,-0.0639067,0.3343803,0.2360402], [0,0,0,0], [9E9, 9E9, 9E9, 9E9, 9E9, 9E9]];
CONST robtarget Target_291:=[[1356.7260000,-160.2090000,985.3560000], [0.9085630,-0.0712406,0.3334976,0.2412830], [0,0,0,0], [9E9, 9E9, 9E9, 9E9, 9E9, 9E9]];
CONST robtarget Target_292:=[[1363.5000000,-155.8520000,985.9330000], [0.9070991,-0.0774884,0.3328398,0.2457324], [0,0,0,0], [9E9, 9E9, 9E9, 9E9, 9E9, 9E9]];
CONST robtarget Target_293:=[[1369.6040000,-151.8950000,986.3840000], [0.9057105,-0.0835608,0.3321802,0.2497245], [0,0,0,0], [9E9, 9E9, 9E9, 9E9, 9E9, 9E9]];
CONST robtarget Target_294:=[[1375.0570000,-148.3520000,986.9090000], [0.9045302,-0.0885913,0.3312848,0.2534305], [0,0,0,0], [9E9, 9E9, 9E9, 9E9, 9E9, 9E9]];
CONST robtarget Target_295:=[[1379.8980000,-145.0980000,987.3080000], [0.9034924,-0.0929977,0.3305350,0.2565141], [0,0,0,0], [9E9, 9E9, 9E9, 9E9, 9E9, 9E9]];
CONST robtarget Target_296:=[[1384.0580000,-142.4100000,987.5920000], [0.9024426,-0.0969110,0.3303937,0.2589316], [0,0,0,0], [9E9, 9E9, 9E9, 9E9, 9E9, 9E9]];
CONST robtarget Target_297:=[[1387.5840000,-140.0220000,987.9630000], [0.9017569,-0.1001122,0.3294656,0.2612745], [0,0,0,0], [9E9, 9E9, 9E9, 9E9, 9E9, 9E9]];
CONST robtarget Target_298:=[[1390.4530000,-138.0780000,988.1270000], [0.9011261,-0.1023733,0.3292916,0.2627900], [0,0,0,0], [9E9, 9E9, 9E9, 9E9, 9E9, 9E9]];
CONST robtarget Target_299:=[[1392.7010000,-136.5900000,988.2590000], [0.9004887,-0.1046331,0.3291122,0.2643051], [0,0,0,0], [9E9, 9E9, 9E9, 9E9, 9E9, 9E9]];
CONST robtarget Target_300:=[[1394.2620000,-135.4130000,988.4180000], [0.9001982,-0.1061481,0.3286624,0.2652486], [0,0,0,0], [9E9, 9E9, 9E9, 9E9, 9E9, 9E9]];
CONST robtarget Target_301:=[[1395.1980000,-134.8400000,988.4480000], [0.9000122,-0.1067624,0.3284764,0.2658629], [0,0,0,0], [9E9, 9E9, 9E9, 9E9, 9E9, 9E9]];
CONST robtarget Target_302:=[[1395.5110000,-134.5920000,988.5600000], [0.8999587,-0.1072124,0.3283434,0.2660271], [0,0,0,0], [9E9, 9E9, 9E9, 9E9, 9E9, 9E9]];
CONST robtarget Target_303:=[[1395.5110000,-134.5920000,988.5600000], [0.8999587,-0.1072124,0.3283434,0.2660271], [0,0,0,0], [9E9, 9E9, 9E9, 9E9, 9E9, 9E9]];
CONST robtarget Target_304:=[[1395.3280000,-134.4640000,988.6150000], [0.8999587,-0.1072124,0.3283434,0.2660271], [0,0,0,0], [9E9, 9E9, 9E9, 9E9, 9E9, 9E9]];
CONST robtarget Target_305:=[[1394.8610000,-134.0900000,989.0300000], [0.9000568,-0.1070126,0.3289017,0.2650844], [0,0,0,0], [9E9, 9E9, 9E9, 9E9, 9E9, 9E9]];
CONST robtarget Target_306:=[[1394.0670000,-133.4530000,989.6450000], [0.8999857,-0.1069398,0.3299110,0.2640990], [0,0,0,0], [9E9, 9E9, 9E9, 9E9, 9E9, 9E9]];
CONST robtarget Target_307:=[[1392.9110000,-132.5630000,990.4540000], [0.9001220,-0.1069840,0.3308957,0.2623792], [0,0,0,0], [9E9, 9E9, 9E9, 9E9, 9E9, 9E9]];
CONST robtarget Target_308:=[[1391.4510000,-131.4170000,991.6440000], [0.9002536,-0.1070244,0.3318816,0.2606605], [0,0,0,0], [9E9, 9E9, 9E9, 9E9, 9E9, 9E9]];
CONST robtarget Target_309:=[[1389.6910000,-129.8930000,993.0010000], [0.9004690,-0.1068522,0.3334270,0.2580012], [0,0,0,0], [9E9, 9E9, 9E9, 9E9, 9E9, 9E9]];
CONST robtarget Target_310:=[[1387.5850000,-128.2700000,994.6310000], [0.9006739,-0.1066710,0.3349737,0.2553436], [0,0,0,0], [9E9, 9E9, 9E9, 9E9, 9E9, 9E9]];
CONST robtarget Target_311:=[[1385.1400000,-126.2600000,996.5540000], [0.9009486,-0.1062650,0.3370798,0.2517469], [0,0,0,0], [9E9, 9E9, 9E9, 9E9, 9E9, 9E9]];
CONST robtarget Target_312:=[[1382.3640000,-124.1630000,998.6300000], [0.9012047,-0.1058427,0.3391867,0.2481528], [0,0,0,0], [9E9, 9E9, 9E9, 9E9, 9E9, 9E9]];
CONST robtarget Target_313:=[[1379.2800000,-121.7090000,1000.8560000], [0.9014590,-0.1056300,0.3417299,0.2437922], [0,0,0,0], [9E9, 9E9, 9E9, 9E9, 9E9, 9E9]];
CONST robtarget Target_314:=[[1375.8260000,-119.1640000,1003.3580000], [0.9019131,-0.1048273,0.3439445,0.2393034], [0,0,0,0], [9E9, 9E9, 9E9, 9E9, 9E9, 9E9]];
CONST robtarget Target_315:=[[1372.0420000,-116.2740000,1006.1040000], [0.9023459,-0.1042198,0.3465979,0.2340514], [0,0,0,0], [9E9, 9E9, 9E9, 9E9, 9E9, 9E9]];
CONST robtarget Target_316:=[[1367.9120000,-113.1850000,1009.0870000], [0.9028548,-0.1034070,0.3493059,0.2283543], [0,0,0,0], [9E9, 9E9, 9E9, 9E9, 9E9, 9E9]];
CONST robtarget Target_317:=[[1363.4810000,-110.0350000,1012.2850000], [0.9033022,-0.1020374,0.3526313,0.2220018], [0,0,0,0], [9E9, 9E9, 9E9, 9E9, 9E9, 9E9]];
CONST robtarget Target_318:=[[1358.6760000,-106.5620000,1015.5300000], [0.9039353,-0.1007975,0.3554404,0.2154134], [0,0,0,0], [9E9, 9E9, 9E9, 9E9, 9E9, 9E9]];
CONST robtarget Target_319:=[[1353.5530000,-102.9190000,1019.0760000], [0.9046668,-0.0988873,0.3584023,0.2081995], [0,0,0,0], [9E9, 9E9, 9E9, 9E9, 9E9, 9E9]];
CONST robtarget Target_320:=[[1348.0940000,-99.0850000,1022.7380000], [0.9055710,-0.0971140,0.3608478,0.2007458], [0,0,0,0], [9E9, 9E9, 9E9, 9E9, 9E9, 9E9]];
CONST robtarget Target_321:=[[1342.5520000,-95.3320000,1026.4520000], [0.9062704,-0.0949394,0.3638387,0.1930852], [0,0,0,0], [9E9, 9E9, 9E9, 9E9, 9E9, 9E9]];
CONST robtarget Target_322:=[[1337.0170000,-91.6370000,1030.0070000], [0.9072730,-0.0925507,0.3659060,0.1854800], [0,0,0,0], [9E9, 9E9, 9E9, 9E9, 9E9, 9E9]];
CONST robtarget Target_323:=[[1331.4170000,-87.9780000,1033.4400000], [0.9082543,-0.0896787,0.3680469,0.1776887], [0,0,0,0], [9E9, 9E9, 9E9, 9E9, 9E9, 9E9]];
CONST robtarget Target_324:=[[1325.8370000,-84.3910000,1036.9930000], [0.9091232,-0.0872314,0.3700795,0.1700788], [0,0,0,0], [9E9, 9E9, 9E9, 9E9, 9E9, 9E9]];
CONST robtarget Target_325:=[[1320.2780000,-80.7250000,1040.3910000], [0.9101577,-0.0842277,0.3717208,0.1623030], [0,0,0,0], [9E9, 9E9, 9E9, 9E9, 9E9, 9E9]];
CONST robtarget Target_326:=[[1314.6810000,-77.2240000,1043.8430000], [0.9111248,-0.0812023,0.3733374,0.1545217], [0,0,0,0], [9E9, 9E9, 9E9, 9E9, 9E9, 9E9]];
CONST robtarget Target_327:=[[1309.0940000,-73.7880000,1047.1410000], [0.9122150,-0.0780907,0.3744716,0.1467537], [0,0,0,0], [9E9, 9E9, 9E9, 9E9, 9E9, 9E9]];
CONST robtarget Target_328:=[[1303.4630000,-70.3950000,1050.4960000], [0.9134294,-0.0749049,0.3751218,0.1389946], [0,0,0,0], [9E9, 9E9, 9E9, 9E9, 9E9, 9E9]];
CONST robtarget Target_329:=[[1297.8650000,-67.0340000,1053.6970000], [0.9145480,-0.0714443,0.3757749,0.1314950], [0,0,0,0], [9E9, 9E9, 9E9, 9E9, 9E9, 9E9]];
CONST robtarget Target_330:=[[1292.2580000,-63.7300000,1056.8480000], [0.9156667,-0.0677899,0.3764304,0.1235285], [0,0,0,0], [9E9, 9E9, 9E9, 9E9, 9E9, 9E9]];
CONST robtarget Target_331:=[[1286.6210000,-60.4640000,1060.0490000], [0.9168486,-0.0642681,0.3765594,0.1160232], [0,0,0,0], [9E9, 9E9, 9E9, 9E9, 9E9, 9E9]];
CONST robtarget Target_332:=[[1281.0050000,-57.2240000,1063.1060000], [0.9181890,-0.0602430,0.3762502,0.1083302], [0,0,0,0], [9E9, 9E9, 9E9, 9E9, 9E9, 9E9]];
CONST robtarget Target_333:=[[1275.3620000,-53.9050000,1066.2120000], [0.9194630,-0.0562262,0.3759002,0.1006249], [0,0,0,0], [9E9, 9E9, 9E9, 9E9, 9E9, 9E9]];
CONST robtarget Target_334:=[[1269.7190000,-50.7490000,1069.1780000], [0.9206705,-0.0522181,0.3755092,0.0929079], [0,0,0,0], [9E9, 9E9, 9E9, 9E9, 9E9, 9E9]];
CONST robtarget Target_335:=[[1264.0890000,-47.6120000,1072.0950000], [0.9219574,-0.0483703,0.3745919,0.0856486], [0,0,0,0], [9E9, 9E9, 9E9, 9E9, 9E9, 9E9]];
CONST robtarget Target_336:=[[1258.3840000,-44.5160000,1074.9740000], [0.9234331,-0.0438566,0.3732359,0.0777365], [0,0,0,0], [9E9, 9E9, 9E9, 9E9, 9E9, 9E9]];
CONST robtarget Target_337:=[[1252.7440000,-41.4530000,1077.7970000], [0.9247999,-0.0395513,0.3718097,0.0702738], [0,0,0,0], [9E9, 9E9, 9E9, 9E9, 9E9, 9E9]];
CONST robtarget Target_338:=[[1247.0760000,-38.4000000,1080.6700000], [0.9261006,-0.0352674,0.3703378,0.0628001], [0,0,0,0], [9E9, 9E9, 9E9, 9E9, 9E9, 9E9]];
CONST robtarget Target_339:=[[1241.5660000,-35.3620000,1083.3950000], [0.9274921,-0.0311662,0.3683409,0.0557848], [0,0,0,0], [9E9, 9E9, 9E9, 9E9, 9E9, 9E9]];
CONST robtarget Target_340:=[[1236.3960000,-32.6250000,1085.8840000], [0.9286280,-0.0268316,0.3667773,0.0490362], [0,0,0,0], [9E9, 9E9, 9E9, 9E9, 9E9, 9E9]];
CONST robtarget Target_341:=[[1231.5280000,-30.1000000,1088.1420000], [0.9298576,-0.0231444,0.3646723,0.0429339], [0,0,0,0], [9E9, 9E9, 9E9, 9E9, 9E9, 9E9]];
CONST robtarget Target_342:=[[1227.0330000,-27.7430000,1090.2680000], [0.9310304,-0.0191963,0.3625422,0.0371096], [0,0,0,0], [9E9, 9E9, 9E9, 9E9, 9E9, 9E9]];
CONST robtarget Target_343:=[[1222.8420000,-25.5780000,1092.1780000], [0.9319534,-0.0159292,0.3608185,0.0319252], [0,0,0,0], [9E9, 9E9, 9E9, 9E9, 9E9, 9E9]];
CONST robtarget Target_344:=[[1218.9960000,-23.5870000,1093.8760000], [0.9329941,-0.0130239,0.3585897,0.0276744], [0,0,0,0], [9E9, 9E9, 9E9, 9E9, 9E9, 9E9]];
CONST robtarget Target_345:=[[1215.5240000,-21.7820000,1095.5480000], [0.9338408,-0.0099667,0.3568125,0.0229521], [0,0,0,0], [9E9, 9E9, 9E9, 9E9, 9E9, 9E9]];
CONST robtarget Target_346:=[[1212.4000000,-20.1490000,1096.8390000], [0.9346394,-0.0072786,0.3550057,0.0191628], [0,0,0,0], [9E9, 9E9, 9E9, 9E9, 9E9, 9E9]];
CONST robtarget Target_347:=[[1209.5650000,-18.6830000,1098.1180000], [0.9352299,-0.0052538,0.3536397,0.0160145], [0,0,0,0], [9E9, 9E9, 9E9, 9E9, 9E9, 9E9]];
CONST robtarget Target_348:=[[1207.0910000,-17.3970000,1099.2030000], [0.9358018,-0.0029444,0.3522686,0.0131573], [0,0,0,0], [9E9, 9E9, 9E9, 9E9, 9E9, 9E9]];
CONST robtarget Target_349:=[[1204.9650000,-16.2650000,1100.1020000], [0.9363606,-0.0011085,0.3508814,0.0104770], [0,0,0,0], [9E9, 9E9, 9E9, 9E9, 9E9, 9E9]];
CONST robtarget Target_350:=[[1203.1980000,-15.4460000,1100.8140000], [0.9367301,0.0000727,0.3499506,0.0084362], [0,0,0,0], [9E9, 9E9, 9E9, 9E9, 9E9, 9E9]];
CONST robtarget Target_351:=[[1201.7680000,-14.6570000,1101.4360000], [0.9370901,0.0015445,0.3490201,0.0066890], [0,0,0,0], [9E9, 9E9, 9E9, 9E9, 9E9, 9E9]];
CONST robtarget Target_352:=[[1200.6550000,-14.1660000,1101.9670000], [0.9374437,0.0023715,0.3480840,0.0055853], [0,0,0,0], [9E9, 9E9, 9E9, 9E9, 9E9, 9E9]];
CONST robtarget Target_353:=[[1199.9340000,-13.7320000,1102.2300000], [0.9376227,0.0027238,0.3476127,0.0046517], [0,0,0,0], [9E9, 9E9, 9E9, 9E9, 9E9, 9E9]];
CONST robtarget Target_354:=[[1199.5180000,-13.5810000,1102.4960000], [0.9377970,0.0033705,0.3471445,0.0040130], [0,0,0,0], [9E9, 9E9, 9E9, 9E9, 9E9, 9E9]];
CONST robtarget Target_355:=[[1199.4250000,-13.4730000,1102.4950000], [0.9377970,0.0033705,0.3471445,0.0040130], [0,0,0,0], [9E9, 9E9, 9E9, 9E9, 9E9, 9E9]];
CONST robtarget Target_356:=[[1199.4250000,-13.4730000,1102.4950000], [0.9377970,0.0033705,0.3471445,0.0040130], [0,0,0,0], [9E9, 9E9, 9E9, 9E9, 9E9, 9E9]];
CONST robtarget Target_357:=[[1199.5320000,-13.3800000,1102.4050000], [0.9376212,0.0031926,0.3476150,0.0044779], [0,0,0,0], [9E9, 9E9, 9E9, 9E9, 9E9, 9E9]];
CONST robtarget Target_358:=[[1199.9050000,-13.2310000,1102.3120000], [0.9376214,0.0020812,0.3476114,0.0052943], [0,0,0,0], [9E9, 9E9, 9E9, 9E9, 9E9, 9E9]];
CONST robtarget Target_359:=[[1200.5220000,-12.8820000,1101.9490000], [0.9374430,0.0007913,0.3480757,0.0065762], [0,0,0,0], [9E9, 9E9, 9E9, 9E9, 9E9, 9E9]];
CONST robtarget Target_360:=[[1201.3640000,-12.4790000,1101.5830000], [0.9372609,-0.0014364,0.3485292,0.0082072], [0,0,0,0], [9E9, 9E9, 9E9, 9E9, 9E9, 9E9]];
CONST robtarget Target_361:=[[1202.4310000,-11.9000000,1101.1230000], [0.9368875,-0.0040188,0.3494419,0.0107747], [0,0,0,0], [9E9, 9E9, 9E9, 9E9, 9E9, 9E9]];
CONST robtarget Target_362:=[[1203.7840000,-11.1200000,1100.4790000], [0.9366745,-0.0070657,0.3498688,0.0135208], [0,0,0,0], [9E9, 9E9, 9E9, 9E9, 9E9, 9E9]];
CONST robtarget Target_363:=[[1205.3310000,-10.2850000,1099.8300000], [0.9360921,-0.0105942,0.3512108,0.0164432], [0,0,0,0], [9E9, 9E9, 9E9, 9E9, 9E9, 9E9]];
CONST robtarget Target_364:=[[1207.1200000,-9.2750000,1098.9030000], [0.9356401,-0.0149380,0.3520439,0.0204823], [0,0,0,0], [9E9, 9E9, 9E9, 9E9, 9E9, 9E9]];
CONST robtarget Target_365:=[[1209.1760000,-8.1840000,1098.0570000], [0.9349609,-0.0199361,0.3532947,0.0251713], [0,0,0,0], [9E9, 9E9, 9E9, 9E9, 9E9, 9E9]];
CONST robtarget Target_366:=[[1211.4430000,-6.9160000,1096.9300000], [0.9344079,-0.0253968,0.3540261,0.0300400], [0,0,0,0], [9E9, 9E9, 9E9, 9E9, 9E9, 9E9]];
CONST robtarget Target_367:=[[1214.0050000,-5.5800000,1095.7880000], [0.9336010,-0.0315131,0.3551499,0.0355624], [0,0,0,0], [9E9, 9E9, 9E9, 9E9, 9E9, 9E9]];
CONST robtarget Target_368:=[[1216.7490000,-4.0660000,1094.4520000], [0.9325393,-0.0378216,0.3566684,0.0415648], [0,0,0,0], [9E9, 9E9, 9E9, 9E9, 9E9, 9E9]];
CONST robtarget Target_369:=[[1219.7460000,-2.3610000,1093.0060000], [0.9315505,-0.0450554,0.3576127,0.0479251], [0,0,0,0], [9E9, 9E9, 9E9, 9E9, 9E9, 9E9]];
CONST robtarget Target_370:=[[1222.9960000,-0.5840000,1091.4470000], [0.9304325,-0.0526485,0.3584327,0.0552225], [0,0,0,0], [9E9, 9E9, 9E9, 9E9, 9E9, 9E9]];
CONST robtarget Target_371:=[[1226.4680000,1.2640000,1089.7750000], [0.9290444,-0.0602581,0.3596313,0.0625357], [0,0,0,0], [9E9, 9E9, 9E9, 9E9, 9E9, 9E9]];
CONST robtarget Target_372:=[[1230.1500000,3.2930000,1087.8950000], [0.9276455,-0.0689626,0.3601728,0.0706650], [0,0,0,0], [9E9, 9E9, 9E9, 9E9, 9E9, 9E9]];
CONST robtarget Target_373:=[[1234.1120000,5.5200000,1085.9810000], [0.9260947,-0.0778446,0.3605648,0.0792584], [0,0,0,0], [9E9, 9E9, 9E9, 9E9, 9E9, 9E9]];
CONST robtarget Target_374:=[[1238.0830000,7.7550000,1083.9550000], [0.9242383,-0.0867420,0.3613014,0.0878679], [0,0,0,0], [9E9, 9E9, 9E9, 9E9, 9E9, 9E9]];
CONST robtarget Target_375:=[[1242.0250000,9.9830000,1082.0000000], [0.9226300,-0.0953137,0.3609914,0.0967178], [0,0,0,0], [9E9, 9E9, 9E9, 9E9, 9E9, 9E9]];
CONST robtarget Target_376:=[[1245.9920000,12.2350000,1079.9300000], [0.9207689,-0.1037189,0.3610778,0.1051181], [0,0,0,0], [9E9, 9E9, 9E9, 9E9, 9E9, 9E9]];
CONST robtarget Target_377:=[[1249.9730000,14.3720000,1077.8340000], [0.9189831,-0.1120920,0.3605910,0.1134880], [0,0,0,0], [9E9, 9E9, 9E9, 9E9, 9E9, 9E9]];
CONST robtarget Target_378:=[[1253.9360000,16.6290000,1075.7190000], [0.9170870,-0.1204531,0.3599945,0.1218458], [0,0,0,0], [9E9, 9E9, 9E9, 9E9, 9E9, 9E9]];
CONST robtarget Target_379:=[[1257.8970000,18.9120000,1073.5830000], [0.9150799,-0.1285228,0.3592892,0.1304681], [0,0,0,0], [9E9, 9E9, 9E9, 9E9, 9E9, 9E9]];
CONST robtarget Target_380:=[[1261.8310000,21.1920000,1071.5210000], [0.9132216,-0.1363690,0.3580821,0.1385895], [0,0,0,0], [9E9, 9E9, 9E9, 9E9, 9E9, 9E9]];
CONST robtarget Target_381:=[[1265.7870000,23.4990000,1069.3400000], [0.9111894,-0.1443757,0.3567029,0.1471482], [0,0,0,0], [9E9, 9E9, 9E9, 9E9, 9E9, 9E9]];
CONST robtarget Target_382:=[[1269.7420000,25.8190000,1067.1380000], [0.9092025,-0.1517298,0.3553696,0.1550528], [0,0,0,0], [9E9, 9E9, 9E9, 9E9, 9E9, 9E9]];
CONST robtarget Target_383:=[[1273.6950000,28.1390000,1064.9140000], [0.9071532,-0.1596594,0.3533239,0.1635363], [0,0,0,0], [9E9, 9E9, 9E9, 9E9, 9E9, 9E9]];
CONST robtarget Target_384:=[[1277.6240000,30.3600000,1062.7640000], [0.9052500,-0.1664809,0.3514271,0.1711885], [0,0,0,0], [9E9, 9E9, 9E9, 9E9, 9E9, 9E9]];
CONST robtarget Target_385:=[[1281.5740000,32.7100000,1060.4970000], [0.9030867,-0.1739064,0.3492715,0.1794447], [0,0,0,0], [9E9, 9E9, 9E9, 9E9, 9E9, 9E9]];
CONST robtarget Target_386:=[[1285.5210000,35.0900000,1058.2050000], [0.9010091,-0.1806803,0.3472028,0.1870493], [0,0,0,0], [9E9, 9E9, 9E9, 9E9, 9E9, 9E9]];
CONST robtarget Target_387:=[[1289.4810000,37.4750000,1055.8870000], [0.8990374,-0.1871077,0.3445983,0.1948703], [0,0,0,0], [9E9, 9E9, 9E9, 9E9, 9E9, 9E9]];
CONST robtarget Target_388:=[[1293.3990000,39.8890000,1053.6500000], [0.8970837,-0.1933342,0.3420109,0.2022161], [0,0,0,0], [9E9, 9E9, 9E9, 9E9, 9E9, 9E9]];
CONST robtarget Target_389:=[[1297.3390000,42.3240000,1051.2900000], [0.8950545,-0.1995325,0.3393504,0.2095362], [0,0,0,0], [9E9, 9E9, 9E9, 9E9, 9E9, 9E9]];
CONST robtarget Target_390:=[[1301.2820000,44.6320000,1048.9100000], [0.8930351,-0.2058181,0.3360579,0.2172378], [0,0,0,0], [9E9, 9E9, 9E9, 9E9, 9E9, 9E9]];
CONST robtarget Target_391:=[[1305.2170000,47.1060000,1046.5050000], [0.8909587,-0.2115087,0.3333620,0.2243357], [0,0,0,0], [9E9, 9E9, 9E9, 9E9, 9E9, 9E9]];
CONST robtarget Target_392:=[[1309.1510000,49.5860000,1044.0780000], [0.8890073,-0.2171143,0.3301456,0.2313684], [0,0,0,0], [9E9, 9E9, 9E9, 9E9, 9E9, 9E9]];
CONST robtarget Target_393:=[[1313.0570000,52.1000000,1041.7280000], [0.8872926,-0.2221838,0.3265291,0.2381699], [0,0,0,0], [9E9, 9E9, 9E9, 9E9, 9E9, 9E9]];
CONST robtarget Target_394:=[[1316.9820000,54.6390000,1039.2530000], [0.8853224,-0.2272776,0.3233120,0.2449867], [0,0,0,0], [9E9, 9E9, 9E9, 9E9, 9E9, 9E9]];
CONST robtarget Target_395:=[[1320.9070000,57.1850000,1036.7560000], [0.8835995,-0.2318328,0.3197100,0.2515770], [0,0,0,0], [9E9, 9E9, 9E9, 9E9, 9E9, 9E9]];
CONST robtarget Target_396:=[[1324.8380000,59.7720000,1034.2250000], [0.8820124,-0.2362851,0.3156049,0.2581026], [0,0,0,0], [9E9, 9E9, 9E9, 9E9, 9E9, 9E9]];
CONST robtarget Target_397:=[[1328.7400000,62.2330000,1031.7830000], [0.8801757,-0.2407644,0.3119069,0.2646458], [0,0,0,0], [9E9, 9E9, 9E9, 9E9, 9E9, 9E9]];
CONST robtarget Target_398:=[[1332.6950000,64.8720000,1029.2910000], [0.8784748,-0.2451346,0.3077073,0.2711224], [0,0,0,0], [9E9, 9E9, 9E9, 9E9, 9E9, 9E9]];
CONST robtarget Target_399:=[[1336.6010000,67.5330000,1026.6940000], [0.8769663,-0.2485848,0.3037386,0.2772701], [0,0,0,0], [9E9, 9E9, 9E9, 9E9, 9E9, 9E9]];
CONST robtarget Target_400:=[[1340.5050000,70.2070000,1024.0750000], [0.8754247,-0.2522826,0.2997208,0.2831121], [0,0,0,0], [9E9, 9E9, 9E9, 9E9, 9E9, 9E9]];
CONST robtarget Target_401:=[[1344.3800000,72.9210000,1021.5330000], [0.8738207,-0.2556532,0.2956840,0.2892228], [0,0,0,0], [9E9, 9E9, 9E9, 9E9, 9E9, 9E9]];
CONST robtarget Target_402:=[[1348.2740000,75.6510000,1018.8630000], [0.8725063,-0.2587546,0.2912910,0.2948362], [0,0,0,0], [9E9, 9E9, 9E9, 9E9, 9E9, 9E9]];
CONST robtarget Target_403:=[[1352.1670000,78.2890000,1016.1650000], [0.8712795,-0.2613780,0.2870196,0.3002887], [0,0,0,0], [9E9, 9E9, 9E9, 9E9, 9E9, 9E9]];
CONST robtarget Target_404:=[[1356.0460000,81.0920000,1013.4410000], [0.8698597,-0.2641014,0.2825934,0.3061626], [0,0,0,0], [9E9, 9E9, 9E9, 9E9, 9E9, 9E9]];
CONST robtarget Target_405:=[[1359.9220000,83.9110000,1010.6930000], [0.8688390,-0.2660661,0.2785645,0.3110135], [0,0,0,0], [9E9, 9E9, 9E9, 9E9, 9E9, 9E9]];
CONST robtarget Target_406:=[[1363.7790000,86.7740000,1008.0120000], [0.8678150,-0.2680379,0.2739348,0.3162477], [0,0,0,0], [9E9, 9E9, 9E9, 9E9, 9E9, 9E9]];
CONST robtarget Target_407:=[[1367.6410000,89.6560000,1005.2110000], [0.8667518,-0.2699633,0.2692894,0.3214721], [0,0,0,0], [9E9, 9E9, 9E9, 9E9, 9E9, 9E9]];
CONST robtarget Target_408:=[[1371.4900000,92.5850000,1002.3790000], [0.8657856,-0.2714092,0.2647919,0.3265541], [0,0,0,0], [9E9, 9E9, 9E9, 9E9, 9E9, 9E9]];
CONST robtarget Target_409:=[[1375.3320000,95.5470000,999.5190000], [0.8649479,-0.2726793,0.2604211,0.3311979], [0,0,0,0], [9E9, 9E9, 9E9, 9E9, 9E9, 9E9]];
CONST robtarget Target_410:=[[1379.1600000,98.3890000,996.7430000], [0.8643976,-0.2733705,0.2557587,0.3356679], [0,0,0,0], [9E9, 9E9, 9E9, 9E9, 9E9, 9E9]];
CONST robtarget Target_411:=[[1382.9830000,101.4180000,993.8270000], [0.8634619,-0.2742495,0.2514077,0.3406096], [0,0,0,0], [9E9, 9E9, 9E9, 9E9, 9E9, 9E9]];
CONST robtarget Target_412:=[[1386.8010000,104.4690000,990.8850000], [0.8630158,-0.2747252,0.2468771,0.3446468], [0,0,0,0], [9E9, 9E9, 9E9, 9E9, 9E9, 9E9]];
CONST robtarget Target_413:=[[1390.4640000,107.4550000,988.0420000], [0.8625035,-0.2748490,0.2423821,0.3489938], [0,0,0,0], [9E9, 9E9, 9E9, 9E9, 9E9, 9E9]];
CONST robtarget Target_414:=[[1393.8750000,110.2170000,985.4430000], [0.8623107,-0.2746890,0.2381648,0.3524822], [0,0,0,0], [9E9, 9E9, 9E9, 9E9, 9E9, 9E9]];
CONST robtarget Target_415:=[[1397.0600000,112.8940000,982.8730000], [0.8619161,-0.2746114,0.2344014,0.3560129], [0,0,0,0], [9E9, 9E9, 9E9, 9E9, 9E9, 9E9]];
CONST robtarget Target_416:=[[1399.9870000,115.3360000,980.5690000], [0.8618152,-0.2739558,0.2309579,0.3590003], [0,0,0,0], [9E9, 9E9, 9E9, 9E9, 9E9, 9E9]];
CONST robtarget Target_417:=[[1402.6850000,117.6970000,978.2980000], [0.8613833,-0.2738272,0.2277901,0.3621453], [0,0,0,0], [9E9, 9E9, 9E9, 9E9, 9E9, 9E9]];
CONST robtarget Target_418:=[[1405.1390000,119.8150000,976.2890000], [0.8616082,-0.2728935,0.2246308,0.3642822], [0,0,0,0], [9E9, 9E9, 9E9, 9E9, 9E9, 9E9]];
CONST robtarget Target_419:=[[1407.4100000,121.6910000,974.5110000], [0.8614743,-0.2721944,0.2223772,0.3664978], [0,0,0,0], [9E9, 9E9, 9E9, 9E9, 9E9, 9E9]];
CONST robtarget Target_420:=[[1409.3850000,123.4650000,972.8240000], [0.8613648,-0.2717826,0.2194938,0.3687919], [0,0,0,0], [9E9, 9E9, 9E9, 9E9, 9E9, 9E9]];
CONST robtarget Target_421:=[[1411.2060000,124.9920000,971.2500000], [0.8615791,-0.2708367,0.2175199,0.3701539], [0,0,0,0], [9E9, 9E9, 9E9, 9E9, 9E9, 9E9]];
CONST robtarget Target_422:=[[1412.7660000,126.4000000,969.9630000], [0.8612959,-0.2705523,0.2156784,0.3720936], [0,0,0,0], [9E9, 9E9, 9E9, 9E9, 9E9, 9E9]];
CONST robtarget Target_423:=[[1414.0890000,127.5450000,968.9550000], [0.8613794,-0.2700452,0.2141092,0.3731735], [0,0,0,0], [9E9, 9E9, 9E9, 9E9, 9E9, 9E9]];
CONST robtarget Target_424:=[[1415.1900000,128.5840000,967.9990000], [0.8612908,-0.2696672,0.2129914,0.3742894], [0,0,0,0], [9E9, 9E9, 9E9, 9E9, 9E9, 9E9]];
CONST robtarget Target_425:=[[1416.0610000,129.3570000,967.2260000], [0.8613870,-0.2691797,0.2120094,0.3749756], [0,0,0,0], [9E9, 9E9, 9E9, 9E9, 9E9, 9E9]];
CONST robtarget Target_426:=[[1416.7040000,130.0180000,966.6080000], [0.8614814,-0.2686899,0.2110283,0.3756629], [0,0,0,0], [9E9, 9E9, 9E9, 9E9, 9E9, 9E9]];
CONST robtarget Target_427:=[[1417.1040000,130.4080000,966.2860000], [0.8614607,-0.2686595,0.2104440,0.3760595], [0,0,0,0], [9E9, 9E9, 9E9, 9E9, 9E9, 9E9]];
CONST robtarget Target_428:=[[1417.3450000,130.5360000,966.1000000], [0.8614607,-0.2686595,0.2104440,0.3760595], [0,0,0,0], [9E9, 9E9, 9E9, 9E9, 9E9, 9E9]];
CONST robtarget Target_429:=[[1417.3550000,130.5250000,966.0040000], [0.8614607,-0.2686595,0.2104440,0.3760595], [0,0,0,0], [9E9, 9E9, 9E9, 9E9, 9E9, 9E9]];
PROC main()
ConfL \On;
ConfJ \On;
MoveJ Target_1, v100, fine, tLaserHead \WObj:= wobj0;
MoveJ Target_2, v100, fine, tLaserHead \WObj:= wobj0;
MoveJ Target_3, v100, fine, tLaserHead \WObj:= wobj0;
MoveJ Target_4, v100, fine, tLaserHead \WObj:= wobj0;
MoveJ Target_5, v100, fine, tLaserHead \WObj:= wobj0;
MoveJ Target_6, v100, fine, tLaserHead \WObj:= wobj0;
MoveJ Target_7, v100, fine, tLaserHead \WObj:= wobj0;
MoveJ Target_8, v100, fine, tLaserHead \WObj:= wobj0;
MoveJ Target_9, v100, fine, tLaserHead \WObj:= wobj0;
MoveJ Target_10, v100, fine, tLaserHead \WObj:= wobj0;
MoveJ Target_11, v100, fine, tLaserHead \WObj:= wobj0;
MoveJ Target_12, v100, fine, tLaserHead \WObj:= wobj0;
MoveJ Target_13, v100, fine, tLaserHead \WObj:= wobj0;
MoveJ Target_14, v100, fine, tLaserHead \WObj:= wobj0;
MoveJ Target_15, v100, fine, tLaserHead \WObj:= wobj0;
MoveJ Target_16, v100, fine, tLaserHead \WObj:= wobj0;
MoveJ Target_17, v100, fine, tLaserHead \WObj:= wobj0;
MoveJ Target_18, v100, fine, tLaserHead \WObj:= wobj0;
MoveJ Target_19, v100, fine, tLaserHead \WObj:= wobj0;
MoveJ Target_20, v100, fine, tLaserHead \WObj:= wobj0;
MoveJ Target_21, v100, fine, tLaserHead \WObj:= wobj0;
MoveJ Target_22, v100, fine, tLaserHead \WObj:= wobj0;
MoveJ Target_23, v100, fine, tLaserHead \WObj:= wobj0;
MoveJ Target_24, v100, fine, tLaserHead \WObj:= wobj0;
MoveJ Target_25, v100, fine, tLaserHead \WObj:= wobj0;
MoveJ Target_26, v100, fine, tLaserHead \WObj:= wobj0;
MoveJ Target_27, v100, fine, tLaserHead \WObj:= wobj0;
MoveJ Target_28, v100, fine, tLaserHead \WObj:= wobj0;
MoveJ Target_29, v100, fine, tLaserHead \WObj:= wobj0;
MoveJ Target_30, v100, fine, tLaserHead \WObj:= wobj0;
MoveJ Target_31, v100, fine, tLaserHead \WObj:= wobj0;
MoveJ Target_32, v100, fine, tLaserHead \WObj:= wobj0;
MoveJ Target_33, v100, fine, tLaserHead \WObj:= wobj0;
MoveJ Target_34, v100, fine, tLaserHead \WObj:= wobj0;
MoveJ Target_35, v100, fine, tLaserHead \WObj:= wobj0;
MoveJ Target_36, v100, fine, tLaserHead \WObj:= wobj0;
MoveJ Target_37, v100, fine, tLaserHead \WObj:= wobj0;
MoveJ Target_38, v100, fine, tLaserHead \WObj:= wobj0;
MoveJ Target_39, v100, fine, tLaserHead \WObj:= wobj0;
MoveJ Target_40, v100, fine, tLaserHead \WObj:= wobj0;
MoveJ Target_41, v100, fine, tLaserHead \WObj:= wobj0;
MoveJ Target_42, v100, fine, tLaserHead \WObj:= wobj0;
MoveJ Target_43, v100, fine, tLaserHead \WObj:= wobj0;
MoveJ Target_44, v100, fine, tLaserHead \WObj:= wobj0;
MoveJ Target_45, v100, fine, tLaserHead \WObj:= wobj0;
MoveJ Target_46, v100, fine, tLaserHead \WObj:= wobj0;
MoveJ Target_47, v100, fine, tLaserHead \WObj:= wobj0;
MoveJ Target_48, v100, fine, tLaserHead \WObj:= wobj0;
MoveJ Target_49, v100, fine, tLaserHead \WObj:= wobj0;
MoveJ Target_50, v100, fine, tLaserHead \WObj:= wobj0;
MoveJ Target_51, v100, fine, tLaserHead \WObj:= wobj0;
MoveJ Target_52, v100, fine, tLaserHead \WObj:= wobj0;
MoveJ Target_53, v100, fine, tLaserHead \WObj:= wobj0;
MoveJ Target_54, v100, fine, tLaserHead \WObj:= wobj0;
MoveJ Target_55, v100, fine, tLaserHead \WObj:= wobj0;
MoveJ Target_56, v100, fine, tLaserHead \WObj:= wobj0;
MoveJ Target_57, v100, fine, tLaserHead \WObj:= wobj0;
MoveJ Target_58, v100, fine, tLaserHead \WObj:= wobj0;
MoveJ Target_59, v100, fine, tLaserHead \WObj:= wobj0;
MoveJ Target_60, v100, fine, tLaserHead \WObj:= wobj0;
MoveJ Target_61, v100, fine, tLaserHead \WObj:= wobj0;
MoveJ Target_62, v100, fine, tLaserHead \WObj:= wobj0;
MoveJ Target_63, v100, fine, tLaserHead \WObj:= wobj0;
MoveJ Target_64, v100, fine, tLaserHead \WObj:= wobj0;
MoveJ Target_65, v100, fine, tLaserHead \WObj:= wobj0;
MoveJ Target_66, v100, fine, tLaserHead \WObj:= wobj0;
MoveJ Target_67, v100, fine, tLaserHead \WObj:= wobj0;
MoveJ Target_68, v100, fine, tLaserHead \WObj:= wobj0;
MoveJ Target_69, v100, fine, tLaserHead \WObj:= wobj0;
MoveJ Target_70, v100, fine, tLaserHead \WObj:= wobj0;
MoveJ Target_71, v100, fine, tLaserHead \WObj:= wobj0;
MoveJ Target_72, v100, fine, tLaserHead \WObj:= wobj0;
MoveJ Target_73, v100, fine, tLaserHead \WObj:= wobj0;
MoveJ Target_74, v100, fine, tLaserHead \WObj:= wobj0;
MoveJ Target_75, v100, fine, tLaserHead \WObj:= wobj0;
MoveJ Target_76, v100, fine, tLaserHead \WObj:= wobj0;
MoveJ Target_77, v100, fine, tLaserHead \WObj:= wobj0;
MoveJ Target_78, v100, fine, tLaserHead \WObj:= wobj0;
MoveJ Target_79, v100, fine, tLaserHead \WObj:= wobj0;
MoveJ Target_80, v100, fine, tLaserHead \WObj:= wobj0;
MoveJ Target_81, v100, fine, tLaserHead \WObj:= wobj0;
MoveJ Target_82, v100, fine, tLaserHead \WObj:= wobj0;
MoveJ Target_83, v100, fine, tLaserHead \WObj:= wobj0;
MoveJ Target_84, v100, fine, tLaserHead \WObj:= wobj0;
MoveJ Target_85, v100, fine, tLaserHead \WObj:= wobj0;
MoveJ Target_86, v100, fine, tLaserHead \WObj:= wobj0;
MoveJ Target_87, v100, fine, tLaserHead \WObj:= wobj0;
MoveJ Target_88, v100, fine, tLaserHead \WObj:= wobj0;
MoveJ Target_89, v100, fine, tLaserHead \WObj:= wobj0;
MoveJ Target_90, v100, fine, tLaserHead \WObj:= wobj0;
MoveJ Target_91, v100, fine, tLaserHead \WObj:= wobj0;
MoveJ Target_92, v100, fine, tLaserHead \WObj:= wobj0;
MoveJ Target_93, v100, fine, tLaserHead \WObj:= wobj0;
MoveJ Target_94, v100, fine, tLaserHead \WObj:= wobj0;
MoveJ Target_95, v100, fine, tLaserHead \WObj:= wobj0;
MoveJ Target_96, v100, fine, tLaserHead \WObj:= wobj0;
MoveJ Target_97, v100, fine, tLaserHead \WObj:= wobj0;
MoveJ Target_98, v100, fine, tLaserHead \WObj:= wobj0;
MoveJ Target_99, v100, fine, tLaserHead \WObj:= wobj0;
MoveJ Target_100, v100, fine, tLaserHead \WObj:= wobj0;
MoveJ Target_101, v100, fine, tLaserHead \WObj:= wobj0;
MoveJ Target_102, v100, fine, tLaserHead \WObj:= wobj0;
MoveJ Target_103, v100, fine, tLaserHead \WObj:= wobj0;
MoveJ Target_104, v100, fine, tLaserHead \WObj:= wobj0;
MoveJ Target_105, v100, fine, tLaserHead \WObj:= wobj0;
MoveJ Target_106, v100, fine, tLaserHead \WObj:= wobj0;
MoveJ Target_107, v100, fine, tLaserHead \WObj:= wobj0;
MoveJ Target_108, v100, fine, tLaserHead \WObj:= wobj0;
MoveJ Target_109, v100, fine, tLaserHead \WObj:= wobj0;
MoveJ Target_110, v100, fine, tLaserHead \WObj:= wobj0;
MoveJ Target_111, v100, fine, tLaserHead \WObj:= wobj0;
MoveJ Target_112, v100, fine, tLaserHead \WObj:= wobj0;
MoveJ Target_113, v100, fine, tLaserHead \WObj:= wobj0;
MoveJ Target_114, v100, fine, tLaserHead \WObj:= wobj0;
MoveJ Target_115, v100, fine, tLaserHead \WObj:= wobj0;
MoveJ Target_116, v100, fine, tLaserHead \WObj:= wobj0;
MoveJ Target_117, v100, fine, tLaserHead \WObj:= wobj0;
MoveJ Target_118, v100, fine, tLaserHead \WObj:= wobj0;
MoveJ Target_119, v100, fine, tLaserHead \WObj:= wobj0;
MoveJ Target_120, v100, fine, tLaserHead \WObj:= wobj0;
MoveJ Target_121, v100, fine, tLaserHead \WObj:= wobj0;
MoveJ Target_122, v100, fine, tLaserHead \WObj:= wobj0;
MoveJ Target_123, v100, fine, tLaserHead \WObj:= wobj0;
MoveJ Target_124, v100, fine, tLaserHead \WObj:= wobj0;
MoveJ Target_125, v100, fine, tLaserHead \WObj:= wobj0;
MoveJ Target_126, v100, fine, tLaserHead \WObj:= wobj0;
MoveJ Target_127, v100, fine, tLaserHead \WObj:= wobj0;
MoveJ Target_128, v100, fine, tLaserHead \WObj:= wobj0;
MoveJ Target_129, v100, fine, tLaserHead \WObj:= wobj0;
MoveJ Target_130, v100, fine, tLaserHead \WObj:= wobj0;
MoveJ Target_131, v100, fine, tLaserHead \WObj:= wobj0;
MoveJ Target_132, v100, fine, tLaserHead \WObj:= wobj0;
MoveJ Target_133, v100, fine, tLaserHead \WObj:= wobj0;
MoveJ Target_134, v100, fine, tLaserHead \WObj:= wobj0;
MoveJ Target_135, v100, fine, tLaserHead \WObj:= wobj0;
MoveJ Target_136, v100, fine, tLaserHead \WObj:= wobj0;
MoveJ Target_137, v100, fine, tLaserHead \WObj:= wobj0;
MoveJ Target_138, v100, fine, tLaserHead \WObj:= wobj0;
MoveJ Target_139, v100, fine, tLaserHead \WObj:= wobj0;
MoveJ Target_140, v100, fine, tLaserHead \WObj:= wobj0;
MoveJ Target_141, v100, fine, tLaserHead \WObj:= wobj0;
MoveJ Target_142, v100, fine, tLaserHead \WObj:= wobj0;
MoveJ Target_143, v100, fine, tLaserHead \WObj:= wobj0;
MoveJ Target_144, v100, fine, tLaserHead \WObj:= wobj0;
MoveJ Target_145, v100, fine, tLaserHead \WObj:= wobj0;
MoveJ Target_146, v100, fine, tLaserHead \WObj:= wobj0;
MoveJ Target_147, v100, fine, tLaserHead \WObj:= wobj0;
MoveJ Target_148, v100, fine, tLaserHead \WObj:= wobj0;
MoveJ Target_149, v100, fine, tLaserHead \WObj:= wobj0;
MoveJ Target_150, v100, fine, tLaserHead \WObj:= wobj0;
MoveJ Target_151, v100, fine, tLaserHead \WObj:= wobj0;
MoveJ Target_152, v100, fine, tLaserHead \WObj:= wobj0;
MoveJ Target_153, v100, fine, tLaserHead \WObj:= wobj0;
MoveJ Target_154, v100, fine, tLaserHead \WObj:= wobj0;
MoveJ Target_155, v100, fine, tLaserHead \WObj:= wobj0;
MoveJ Target_156, v100, fine, tLaserHead \WObj:= wobj0;
MoveJ Target_157, v100, fine, tLaserHead \WObj:= wobj0;
MoveJ Target_158, v100, fine, tLaserHead \WObj:= wobj0;
MoveJ Target_159, v100, fine, tLaserHead \WObj:= wobj0;
MoveJ Target_160, v100, fine, tLaserHead \WObj:= wobj0;
MoveJ Target_161, v100, fine, tLaserHead \WObj:= wobj0;
MoveJ Target_162, v100, fine, tLaserHead \WObj:= wobj0;
MoveJ Target_163, v100, fine, tLaserHead \WObj:= wobj0;
MoveJ Target_164, v100, fine, tLaserHead \WObj:= wobj0;
MoveJ Target_165, v100, fine, tLaserHead \WObj:= wobj0;
MoveJ Target_166, v100, fine, tLaserHead \WObj:= wobj0;
MoveJ Target_167, v100, fine, tLaserHead \WObj:= wobj0;
MoveJ Target_168, v100, fine, tLaserHead \WObj:= wobj0;
MoveJ Target_169, v100, fine, tLaserHead \WObj:= wobj0;
MoveJ Target_170, v100, fine, tLaserHead \WObj:= wobj0;
MoveJ Target_171, v100, fine, tLaserHead \WObj:= wobj0;
MoveJ Target_172, v100, fine, tLaserHead \WObj:= wobj0;
MoveJ Target_173, v100, fine, tLaserHead \WObj:= wobj0;
MoveJ Target_174, v100, fine, tLaserHead \WObj:= wobj0;
MoveJ Target_175, v100, fine, tLaserHead \WObj:= wobj0;
MoveJ Target_176, v100, fine, tLaserHead \WObj:= wobj0;
MoveJ Target_177, v100, fine, tLaserHead \WObj:= wobj0;
MoveJ Target_178, v100, fine, tLaserHead \WObj:= wobj0;
MoveJ Target_179, v100, fine, tLaserHead \WObj:= wobj0;
MoveJ Target_180, v100, fine, tLaserHead \WObj:= wobj0;
MoveJ Target_181, v100, fine, tLaserHead \WObj:= wobj0;
MoveJ Target_182, v100, fine, tLaserHead \WObj:= wobj0;
MoveJ Target_183, v100, fine, tLaserHead \WObj:= wobj0;
MoveJ Target_184, v100, fine, tLaserHead \WObj:= wobj0;
MoveJ Target_185, v100, fine, tLaserHead \WObj:= wobj0;
MoveJ Target_186, v100, fine, tLaserHead \WObj:= wobj0;
MoveJ Target_187, v100, fine, tLaserHead \WObj:= wobj0;
MoveJ Target_188, v100, fine, tLaserHead \WObj:= wobj0;
MoveJ Target_189, v100, fine, tLaserHead \WObj:= wobj0;
MoveJ Target_190, v100, fine, tLaserHead \WObj:= wobj0;
MoveJ Target_191, v100, fine, tLaserHead \WObj:= wobj0;
MoveJ Target_192, v100, fine, tLaserHead \WObj:= wobj0;
MoveJ Target_193, v100, fine, tLaserHead \WObj:= wobj0;
MoveJ Target_194, v100, fine, tLaserHead \WObj:= wobj0;
MoveJ Target_195, v100, fine, tLaserHead \WObj:= wobj0;
MoveJ Target_196, v100, fine, tLaserHead \WObj:= wobj0;
MoveJ Target_197, v100, fine, tLaserHead \WObj:= wobj0;
MoveJ Target_198, v100, fine, tLaserHead \WObj:= wobj0;
MoveJ Target_199, v100, fine, tLaserHead \WObj:= wobj0;
MoveJ Target_200, v100, fine, tLaserHead \WObj:= wobj0;
MoveJ Target_201, v100, fine, tLaserHead \WObj:= wobj0;
MoveJ Target_202, v100, fine, tLaserHead \WObj:= wobj0;
MoveJ Target_203, v100, fine, tLaserHead \WObj:= wobj0;
MoveJ Target_204, v100, fine, tLaserHead \WObj:= wobj0;
MoveJ Target_205, v100, fine, tLaserHead \WObj:= wobj0;
MoveJ Target_206, v100, fine, tLaserHead \WObj:= wobj0;
MoveJ Target_207, v100, fine, tLaserHead \WObj:= wobj0;
MoveJ Target_208, v100, fine, tLaserHead \WObj:= wobj0;
MoveJ Target_209, v100, fine, tLaserHead \WObj:= wobj0;
MoveJ Target_210, v100, fine, tLaserHead \WObj:= wobj0;
MoveJ Target_211, v100, fine, tLaserHead \WObj:= wobj0;
MoveJ Target_212, v100, fine, tLaserHead \WObj:= wobj0;
MoveJ Target_213, v100, fine, tLaserHead \WObj:= wobj0;
MoveJ Target_214, v100, fine, tLaserHead \WObj:= wobj0;
MoveJ Target_215, v100, fine, tLaserHead \WObj:= wobj0;
MoveJ Target_216, v100, fine, tLaserHead \WObj:= wobj0;
MoveJ Target_217, v100, fine, tLaserHead \WObj:= wobj0;
MoveJ Target_218, v100, fine, tLaserHead \WObj:= wobj0;
MoveJ Target_219, v100, fine, tLaserHead \WObj:= wobj0;
MoveJ Target_220, v100, fine, tLaserHead \WObj:= wobj0;
MoveJ Target_221, v100, fine, tLaserHead \WObj:= wobj0;
MoveJ Target_222, v100, fine, tLaserHead \WObj:= wobj0;
MoveJ Target_223, v100, fine, tLaserHead \WObj:= wobj0;
MoveJ Target_224, v100, fine, tLaserHead \WObj:= wobj0;
MoveJ Target_225, v100, fine, tLaserHead \WObj:= wobj0;
MoveJ Target_226, v100, fine, tLaserHead \WObj:= wobj0;
MoveJ Target_227, v100, fine, tLaserHead \WObj:= wobj0;
MoveJ Target_228, v100, fine, tLaserHead \WObj:= wobj0;
MoveJ Target_229, v100, fine, tLaserHead \WObj:= wobj0;
MoveJ Target_230, v100, fine, tLaserHead \WObj:= wobj0;
MoveJ Target_231, v100, fine, tLaserHead \WObj:= wobj0;
MoveJ Target_232, v100, fine, tLaserHead \WObj:= wobj0;
MoveJ Target_233, v100, fine, tLaserHead \WObj:= wobj0;
MoveJ Target_234, v100, fine, tLaserHead \WObj:= wobj0;
MoveJ Target_235, v100, fine, tLaserHead \WObj:= wobj0;
MoveJ Target_236, v100, fine, tLaserHead \WObj:= wobj0;
MoveJ Target_237, v100, fine, tLaserHead \WObj:= wobj0;
MoveJ Target_238, v100, fine, tLaserHead \WObj:= wobj0;
MoveJ Target_239, v100, fine, tLaserHead \WObj:= wobj0;
MoveJ Target_240, v100, fine, tLaserHead \WObj:= wobj0;
MoveJ Target_241, v100, fine, tLaserHead \WObj:= wobj0;
MoveJ Target_242, v100, fine, tLaserHead \WObj:= wobj0;
MoveJ Target_243, v100, fine, tLaserHead \WObj:= wobj0;
MoveJ Target_244, v100, fine, tLaserHead \WObj:= wobj0;
MoveJ Target_245, v100, fine, tLaserHead \WObj:= wobj0;
MoveJ Target_246, v100, fine, tLaserHead \WObj:= wobj0;
MoveJ Target_247, v100, fine, tLaserHead \WObj:= wobj0;
MoveJ Target_248, v100, fine, tLaserHead \WObj:= wobj0;
MoveJ Target_249, v100, fine, tLaserHead \WObj:= wobj0;
MoveJ Target_250, v100, fine, tLaserHead \WObj:= wobj0;
MoveJ Target_251, v100, fine, tLaserHead \WObj:= wobj0;
MoveJ Target_252, v100, fine, tLaserHead \WObj:= wobj0;
MoveJ Target_253, v100, fine, tLaserHead \WObj:= wobj0;
MoveJ Target_254, v100, fine, tLaserHead \WObj:= wobj0;
MoveJ Target_255, v100, fine, tLaserHead \WObj:= wobj0;
MoveJ Target_256, v100, fine, tLaserHead \WObj:= wobj0;
MoveJ Target_257, v100, fine, tLaserHead \WObj:= wobj0;
MoveJ Target_258, v100, fine, tLaserHead \WObj:= wobj0;
MoveJ Target_259, v100, fine, tLaserHead \WObj:= wobj0;
MoveJ Target_260, v100, fine, tLaserHead \WObj:= wobj0;
MoveJ Target_261, v100, fine, tLaserHead \WObj:= wobj0;
MoveJ Target_262, v100, fine, tLaserHead \WObj:= wobj0;
MoveJ Target_263, v100, fine, tLaserHead \WObj:= wobj0;
MoveJ Target_264, v100, fine, tLaserHead \WObj:= wobj0;
MoveJ Target_265, v100, fine, tLaserHead \WObj:= wobj0;
MoveJ Target_266, v100, fine, tLaserHead \WObj:= wobj0;
MoveJ Target_267, v100, fine, tLaserHead \WObj:= wobj0;
MoveJ Target_268, v100, fine, tLaserHead \WObj:= wobj0;
MoveJ Target_269, v100, fine, tLaserHead \WObj:= wobj0;
MoveJ Target_270, v100, fine, tLaserHead \WObj:= wobj0;
MoveJ Target_271, v100, fine, tLaserHead \WObj:= wobj0;
MoveJ Target_272, v100, fine, tLaserHead \WObj:= wobj0;
MoveJ Target_273, v100, fine, tLaserHead \WObj:= wobj0;
MoveJ Target_274, v100, fine, tLaserHead \WObj:= wobj0;
MoveJ Target_275, v100, fine, tLaserHead \WObj:= wobj0;
MoveJ Target_276, v100, fine, tLaserHead \WObj:= wobj0;
MoveJ Target_277, v100, fine, tLaserHead \WObj:= wobj0;
MoveJ Target_278, v100, fine, tLaserHead \WObj:= wobj0;
MoveJ Target_279, v100, fine, tLaserHead \WObj:= wobj0;
MoveJ Target_280, v100, fine, tLaserHead \WObj:= wobj0;
MoveJ Target_281, v100, fine, tLaserHead \WObj:= wobj0;
MoveJ Target_282, v100, fine, tLaserHead \WObj:= wobj0;
MoveJ Target_283, v100, fine, tLaserHead \WObj:= wobj0;
MoveJ Target_284, v100, fine, tLaserHead \WObj:= wobj0;
MoveJ Target_285, v100, fine, tLaserHead \WObj:= wobj0;
MoveJ Target_286, v100, fine, tLaserHead \WObj:= wobj0;
MoveJ Target_287, v100, fine, tLaserHead \WObj:= wobj0;
MoveJ Target_288, v100, fine, tLaserHead \WObj:= wobj0;
MoveJ Target_289, v100, fine, tLaserHead \WObj:= wobj0;
MoveJ Target_290, v100, fine, tLaserHead \WObj:= wobj0;
MoveJ Target_291, v100, fine, tLaserHead \WObj:= wobj0;
MoveJ Target_292, v100, fine, tLaserHead \WObj:= wobj0;
MoveJ Target_293, v100, fine, tLaserHead \WObj:= wobj0;
MoveJ Target_294, v100, fine, tLaserHead \WObj:= wobj0;
MoveJ Target_295, v100, fine, tLaserHead \WObj:= wobj0;
MoveJ Target_296, v100, fine, tLaserHead \WObj:= wobj0;
MoveJ Target_297, v100, fine, tLaserHead \WObj:= wobj0;
MoveJ Target_298, v100, fine, tLaserHead \WObj:= wobj0;
MoveJ Target_299, v100, fine, tLaserHead \WObj:= wobj0;
MoveJ Target_300, v100, fine, tLaserHead \WObj:= wobj0;
MoveJ Target_301, v100, fine, tLaserHead \WObj:= wobj0;
MoveJ Target_302, v100, fine, tLaserHead \WObj:= wobj0;
MoveJ Target_303, v100, fine, tLaserHead \WObj:= wobj0;
MoveJ Target_304, v100, fine, tLaserHead \WObj:= wobj0;
MoveJ Target_305, v100, fine, tLaserHead \WObj:= wobj0;
MoveJ Target_306, v100, fine, tLaserHead \WObj:= wobj0;
MoveJ Target_307, v100, fine, tLaserHead \WObj:= wobj0;
MoveJ Target_308, v100, fine, tLaserHead \WObj:= wobj0;
MoveJ Target_309, v100, fine, tLaserHead \WObj:= wobj0;
MoveJ Target_310, v100, fine, tLaserHead \WObj:= wobj0;
MoveJ Target_311, v100, fine, tLaserHead \WObj:= wobj0;
MoveJ Target_312, v100, fine, tLaserHead \WObj:= wobj0;
MoveJ Target_313, v100, fine, tLaserHead \WObj:= wobj0;
MoveJ Target_314, v100, fine, tLaserHead \WObj:= wobj0;
MoveJ Target_315, v100, fine, tLaserHead \WObj:= wobj0;
MoveJ Target_316, v100, fine, tLaserHead \WObj:= wobj0;
MoveJ Target_317, v100, fine, tLaserHead \WObj:= wobj0;
MoveJ Target_318, v100, fine, tLaserHead \WObj:= wobj0;
MoveJ Target_319, v100, fine, tLaserHead \WObj:= wobj0;
MoveJ Target_320, v100, fine, tLaserHead \WObj:= wobj0;
MoveJ Target_321, v100, fine, tLaserHead \WObj:= wobj0;
MoveJ Target_322, v100, fine, tLaserHead \WObj:= wobj0;
MoveJ Target_323, v100, fine, tLaserHead \WObj:= wobj0;
MoveJ Target_324, v100, fine, tLaserHead \WObj:= wobj0;
MoveJ Target_325, v100, fine, tLaserHead \WObj:= wobj0;
MoveJ Target_326, v100, fine, tLaserHead \WObj:= wobj0;
MoveJ Target_327, v100, fine, tLaserHead \WObj:= wobj0;
MoveJ Target_328, v100, fine, tLaserHead \WObj:= wobj0;
MoveJ Target_329, v100, fine, tLaserHead \WObj:= wobj0;
MoveJ Target_330, v100, fine, tLaserHead \WObj:= wobj0;
MoveJ Target_331, v100, fine, tLaserHead \WObj:= wobj0;
MoveJ Target_332, v100, fine, tLaserHead \WObj:= wobj0;
MoveJ Target_333, v100, fine, tLaserHead \WObj:= wobj0;
MoveJ Target_334, v100, fine, tLaserHead \WObj:= wobj0;
MoveJ Target_335, v100, fine, tLaserHead \WObj:= wobj0;
MoveJ Target_336, v100, fine, tLaserHead \WObj:= wobj0;
MoveJ Target_337, v100, fine, tLaserHead \WObj:= wobj0;
MoveJ Target_338, v100, fine, tLaserHead \WObj:= wobj0;
MoveJ Target_339, v100, fine, tLaserHead \WObj:= wobj0;
MoveJ Target_340, v100, fine, tLaserHead \WObj:= wobj0;
MoveJ Target_341, v100, fine, tLaserHead \WObj:= wobj0;
MoveJ Target_342, v100, fine, tLaserHead \WObj:= wobj0;
MoveJ Target_343, v100, fine, tLaserHead \WObj:= wobj0;
MoveJ Target_344, v100, fine, tLaserHead \WObj:= wobj0;
MoveJ Target_345, v100, fine, tLaserHead \WObj:= wobj0;
MoveJ Target_346, v100, fine, tLaserHead \WObj:= wobj0;
MoveJ Target_347, v100, fine, tLaserHead \WObj:= wobj0;
MoveJ Target_348, v100, fine, tLaserHead \WObj:= wobj0;
MoveJ Target_349, v100, fine, tLaserHead \WObj:= wobj0;
MoveJ Target_350, v100, fine, tLaserHead \WObj:= wobj0;
MoveJ Target_351, v100, fine, tLaserHead \WObj:= wobj0;
MoveJ Target_352, v100, fine, tLaserHead \WObj:= wobj0;
MoveJ Target_353, v100, fine, tLaserHead \WObj:= wobj0;
MoveJ Target_354, v100, fine, tLaserHead \WObj:= wobj0;
MoveJ Target_355, v100, fine, tLaserHead \WObj:= wobj0;
MoveJ Target_356, v100, fine, tLaserHead \WObj:= wobj0;
MoveJ Target_357, v100, fine, tLaserHead \WObj:= wobj0;
MoveJ Target_358, v100, fine, tLaserHead \WObj:= wobj0;
MoveJ Target_359, v100, fine, tLaserHead \WObj:= wobj0;
MoveJ Target_360, v100, fine, tLaserHead \WObj:= wobj0;
MoveJ Target_361, v100, fine, tLaserHead \WObj:= wobj0;
MoveJ Target_362, v100, fine, tLaserHead \WObj:= wobj0;
MoveJ Target_363, v100, fine, tLaserHead \WObj:= wobj0;
MoveJ Target_364, v100, fine, tLaserHead \WObj:= wobj0;
MoveJ Target_365, v100, fine, tLaserHead \WObj:= wobj0;
MoveJ Target_366, v100, fine, tLaserHead \WObj:= wobj0;
MoveJ Target_367, v100, fine, tLaserHead \WObj:= wobj0;
MoveJ Target_368, v100, fine, tLaserHead \WObj:= wobj0;
MoveJ Target_369, v100, fine, tLaserHead \WObj:= wobj0;
MoveJ Target_370, v100, fine, tLaserHead \WObj:= wobj0;
MoveJ Target_371, v100, fine, tLaserHead \WObj:= wobj0;
MoveJ Target_372, v100, fine, tLaserHead \WObj:= wobj0;
MoveJ Target_373, v100, fine, tLaserHead \WObj:= wobj0;
MoveJ Target_374, v100, fine, tLaserHead \WObj:= wobj0;
MoveJ Target_375, v100, fine, tLaserHead \WObj:= wobj0;
MoveJ Target_376, v100, fine, tLaserHead \WObj:= wobj0;
MoveJ Target_377, v100, fine, tLaserHead \WObj:= wobj0;
MoveJ Target_378, v100, fine, tLaserHead \WObj:= wobj0;
MoveJ Target_379, v100, fine, tLaserHead \WObj:= wobj0;
MoveJ Target_380, v100, fine, tLaserHead \WObj:= wobj0;
MoveJ Target_381, v100, fine, tLaserHead \WObj:= wobj0;
MoveJ Target_382, v100, fine, tLaserHead \WObj:= wobj0;
MoveJ Target_383, v100, fine, tLaserHead \WObj:= wobj0;
MoveJ Target_384, v100, fine, tLaserHead \WObj:= wobj0;
MoveJ Target_385, v100, fine, tLaserHead \WObj:= wobj0;
MoveJ Target_386, v100, fine, tLaserHead \WObj:= wobj0;
MoveJ Target_387, v100, fine, tLaserHead \WObj:= wobj0;
MoveJ Target_388, v100, fine, tLaserHead \WObj:= wobj0;
MoveJ Target_389, v100, fine, tLaserHead \WObj:= wobj0;
MoveJ Target_390, v100, fine, tLaserHead \WObj:= wobj0;
MoveJ Target_391, v100, fine, tLaserHead \WObj:= wobj0;
MoveJ Target_392, v100, fine, tLaserHead \WObj:= wobj0;
MoveJ Target_393, v100, fine, tLaserHead \WObj:= wobj0;
MoveJ Target_394, v100, fine, tLaserHead \WObj:= wobj0;
MoveJ Target_395, v100, fine, tLaserHead \WObj:= wobj0;
MoveJ Target_396, v100, fine, tLaserHead \WObj:= wobj0;
MoveJ Target_397, v100, fine, tLaserHead \WObj:= wobj0;
MoveJ Target_398, v100, fine, tLaserHead \WObj:= wobj0;
MoveJ Target_399, v100, fine, tLaserHead \WObj:= wobj0;
MoveJ Target_400, v100, fine, tLaserHead \WObj:= wobj0;
MoveJ Target_401, v100, fine, tLaserHead \WObj:= wobj0;
MoveJ Target_402, v100, fine, tLaserHead \WObj:= wobj0;
MoveJ Target_403, v100, fine, tLaserHead \WObj:= wobj0;
MoveJ Target_404, v100, fine, tLaserHead \WObj:= wobj0;
MoveJ Target_405, v100, fine, tLaserHead \WObj:= wobj0;
MoveJ Target_406, v100, fine, tLaserHead \WObj:= wobj0;
MoveJ Target_407, v100, fine, tLaserHead \WObj:= wobj0;
MoveJ Target_408, v100, fine, tLaserHead \WObj:= wobj0;
MoveJ Target_409, v100, fine, tLaserHead \WObj:= wobj0;
MoveJ Target_410, v100, fine, tLaserHead \WObj:= wobj0;
MoveJ Target_411, v100, fine, tLaserHead \WObj:= wobj0;
MoveJ Target_412, v100, fine, tLaserHead \WObj:= wobj0;
MoveJ Target_413, v100, fine, tLaserHead \WObj:= wobj0;
MoveJ Target_414, v100, fine, tLaserHead \WObj:= wobj0;
MoveJ Target_415, v100, fine, tLaserHead \WObj:= wobj0;
MoveJ Target_416, v100, fine, tLaserHead \WObj:= wobj0;
MoveJ Target_417, v100, fine, tLaserHead \WObj:= wobj0;
MoveJ Target_418, v100, fine, tLaserHead \WObj:= wobj0;
MoveJ Target_419, v100, fine, tLaserHead \WObj:= wobj0;
MoveJ Target_420, v100, fine, tLaserHead \WObj:= wobj0;
MoveJ Target_421, v100, fine, tLaserHead \WObj:= wobj0;
MoveJ Target_422, v100, fine, tLaserHead \WObj:= wobj0;
MoveJ Target_423, v100, fine, tLaserHead \WObj:= wobj0;
MoveJ Target_424, v100, fine, tLaserHead \WObj:= wobj0;
MoveJ Target_425, v100, fine, tLaserHead \WObj:= wobj0;
MoveJ Target_426, v100, fine, tLaserHead \WObj:= wobj0;
MoveJ Target_427, v100, fine, tLaserHead \WObj:= wobj0;
MoveJ Target_428, v100, fine, tLaserHead \WObj:= wobj0;
MoveJ Target_429, v100, fine, tLaserHead \WObj:= wobj0;
WaitTime 2.0;
ConfL \Off;
ConfJ \Off;
ENDPROC
ENDMODULE
